;FLAVOR:Marlin
;TIME:2001
;Filament used: 1.40951m
;Layer height: 0.28
;MINX:34.021
;MINY:99.019
;MINZ:0.3
;MAXX:185.979
;MAXY:130.976
;MAXZ:4.78
;Generated with Cura_SteamEngine 4.4.0
M140 S60
M105
M190 S60
M104 S200
M105
M109 S200
M82 ;absolute extrusion mode
M201 X500.00 Y500.00 Z100.00 E5000.00 ;Setup machine max acceleration
M203 X500.00 Y500.00 Z10.00 E50.00 ;Setup machine max feedrate
M204 P500.00 R1000.00 T500.00 ;Setup Print/Retract/Travel acceleration
M205 X8.00 Y8.00 Z0.40 E5.00 ;Setup Jerk
M220 S100 ;Reset Feedrate
M221 S100 ;Reset Flowrate

G28 ;Home

G92 E0 ;Reset Extruder
G1 Z2.0 F3000 ;Move Z Axis up
G1 X10.1 Y20 Z0.28 F5000.0 ;Move to start position
G1 X10.1 Y200.0 Z0.28 F1500.0 E15 ;Draw the first line
G1 X10.4 Y200.0 Z0.28 F5000.0 ;Move to side a little
G1 X10.4 Y20 Z0.28 F1500.0 E30 ;Draw the second line
G92 E0 ;Reset Extruder
G1 Z2.0 F3000 ;Move Z Axis up

G92 E0
G92 E0
G1 F1500 E-6.5
;LAYER_COUNT:17
;LAYER:0
M107
G0 F2400 X43.38 Y100.458 Z0.3
;TYPE:SKIRT
G1 F1500 E0
G1 F1200 X44.117 Y100.144 E0.03997
G1 X44.995 Y99.814 E0.08676
G1 X45.453 Y99.674 E0.11066
G1 X45.791 Y99.579 E0.12817
G1 X46.706 Y99.364 E0.17507
G1 X47.351 Y99.241 E0.20782
G1 X48.606 Y99.076 E0.27098
G1 X48.987 Y99.048 E0.29003
G1 X49.906 Y99.019 E0.33591
G1 X50.491 Y99.025 E0.36509
G1 X51.808 Y99.117 E0.43096
G1 X52.342 Y99.187 E0.45783
G1 X52.862 Y99.268 E0.48408
G1 X53.517 Y99.386 E0.51729
G1 X53.733 Y99.427 E0.52826
G1 X54.103 Y99.501 E0.54708
G1 X56.539 Y99.918 E0.67038
G1 X59.046 Y100.275 E0.79672
G1 X61.566 Y100.561 E0.92325
G1 X64.064 Y100.774 E1.04833
G1 X66.51 Y100.913 E1.17056
G1 X70.484 Y100.997 E1.36886
G1 X149.576 Y101 E5.31478
G1 X152.184 Y100.963 E5.44491
G1 X154.682 Y100.857 E5.56964
G1 X157.215 Y100.678 E5.69633
G1 X159.708 Y100.43 E5.82132
G1 X162.217 Y100.109 E5.94752
G1 X164.681 Y99.723 E6.07194
G1 X166.867 Y99.316 E6.18288
G1 X167.177 Y99.263 E6.19857
G1 X167.719 Y99.178 E6.22594
G1 X168.665 Y99.071 E6.27344
G1 X169.027 Y99.046 E6.29154
G1 X169.938 Y99.021 E6.33701
G1 X170.587 Y99.03 E6.36939
G1 X171.984 Y99.139 E6.4393
G1 X172.504 Y99.213 E6.4655
G1 X173.601 Y99.426 E6.52125
G1 X174.093 Y99.548 E6.54654
G1 X175.13 Y99.86 E6.60057
G1 X175.597 Y100.026 E6.6253
G1 X176.649 Y100.463 E6.68213
G1 X177.106 Y100.681 E6.70739
G1 X178.097 Y101.218 E6.76362
G1 X178.543 Y101.49 E6.78969
G1 X179.459 Y102.114 E6.84498
G1 X179.847 Y102.408 E6.86927
G1 X180.687 Y103.113 E6.92398
G1 X181.063 Y103.462 E6.94958
G1 X181.84 Y104.259 E7.00511
G1 X182.176 Y104.641 E7.03049
G1 X182.912 Y105.576 E7.08985
G1 X183.204 Y105.991 E7.11517
G1 X183.779 Y106.9 E7.16883
G1 X184.035 Y107.352 E7.19475
G1 X184.545 Y108.372 E7.25164
G1 X184.748 Y108.837 E7.27696
G1 X185.141 Y109.876 E7.33238
G1 X185.297 Y110.362 E7.35784
G1 X185.581 Y111.43 E7.41297
G1 X185.687 Y111.927 E7.43833
G1 X185.863 Y113.018 E7.49346
G1 X185.898 Y113.336 E7.50942
G1 X185.96 Y114.246 E7.55493
G1 X185.979 Y114.96 E7.59056
G1 X185.929 Y116.343 E7.65961
G1 X185.88 Y116.835 E7.68427
G1 X185.711 Y117.948 E7.74044
G1 X185.609 Y118.447 E7.76585
G1 X185.331 Y119.525 E7.82139
G1 X185.181 Y120.005 E7.84648
G1 X184.797 Y121.047 E7.90188
G1 X184.6 Y121.508 E7.92689
G1 X184.122 Y122.489 E7.98134
G1 X183.887 Y122.916 E8.00565
G1 X183.498 Y123.568 E8.04353
G1 X183.384 Y123.745 E8.05403
G1 X183.082 Y124.19 E8.08086
G1 X182.911 Y124.429 E8.09553
G1 X182.333 Y125.167 E8.14229
G1 X181.947 Y125.597 E8.17112
G1 X181.215 Y126.369 E8.2242
G1 X180.541 Y127.021 E8.27098
G1 X179.915 Y127.538 E8.31149
G1 X179.524 Y127.837 E8.33605
G1 X178.658 Y128.436 E8.38858
G1 X178.247 Y128.692 E8.41274
G1 X177.277 Y129.23 E8.46807
G1 X176.79 Y129.469 E8.49514
G1 X175.739 Y129.918 E8.55216
G1 X175.282 Y130.086 E8.57645
G1 X174.18 Y130.427 E8.634
G1 X173.673 Y130.555 E8.66009
G1 X172.607 Y130.769 E8.71433
G1 X172.119 Y130.842 E8.73895
G1 X171.104 Y130.946 E8.78985
G1 X170.763 Y130.965 E8.80689
G1 X169.791 Y130.976 E8.85539
G1 X169.088 Y130.953 E8.89048
G1 X168.153 Y130.883 E8.93726
G1 X167.58 Y130.799 E8.96615
G1 X166.106 Y130.545 E9.04077
G1 X165.9 Y130.508 E9.05121
G1 X165.183 Y130.37 E9.08764
G1 X162.671 Y129.961 E9.21462
G1 X160.23 Y129.633 E9.33749
G1 X157.692 Y129.366 E9.46481
G1 X155.183 Y129.174 E9.59035
G1 X152.682 Y129.053 E9.71528
G1 X149.567 Y129 E9.87071
G1 X70.433 Y129 E13.81872
G1 X67.825 Y129.037 E13.94884
G1 X65.303 Y129.144 E14.07478
G1 X62.808 Y129.321 E14.19957
G1 X60.31 Y129.569 E14.32481
G1 X57.821 Y129.887 E14.44999
G1 X55.312 Y130.281 E14.5767
G1 X53.339 Y130.649 E14.67683
G1 X53.184 Y130.677 E14.68469
G1 X52.642 Y130.77 E14.71213
G1 X52.115 Y130.847 E14.7387
G1 X51.771 Y130.889 E14.75599
G1 X50.947 Y130.958 E14.79724
G1 X50.623 Y130.973 E14.81342
G1 X49.652 Y130.975 E14.86187
G1 X48.962 Y130.946 E14.89632
G1 X47.623 Y130.808 E14.96348
G1 X47.135 Y130.727 E14.98816
G1 X46.067 Y130.494 E15.04269
G1 X45.608 Y130.37 E15.06641
G1 X44.684 Y130.076 E15.11479
G1 X44.39 Y129.968 E15.13042
G1 X43.498 Y129.596 E15.17863
G1 X42.85 Y129.291 E15.21436
G1 X41.676 Y128.648 E15.28114
G1 X41.417 Y128.485 E15.29641
G1 X40.699 Y127.992 E15.33986
G1 X40.148 Y127.581 E15.37416
G1 X39.149 Y126.739 E15.43934
G1 X38.929 Y126.53 E15.45448
G1 X38.293 Y125.874 E15.50006
G1 X37.818 Y125.341 E15.53568
G1 X36.991 Y124.291 E15.60237
G1 X36.819 Y124.043 E15.61742
G1 X36.357 Y123.318 E15.66031
G1 X36.011 Y122.725 E15.69457
G1 X35.387 Y121.48 E15.76404
G1 X35.207 Y121.056 E15.78702
G1 X34.95 Y120.393 E15.8225
G1 X34.881 Y120.196 E15.83291
G1 X34.715 Y119.681 E15.85991
G1 X34.628 Y119.387 E15.8752
G1 X34.405 Y118.501 E15.92079
G1 X34.3 Y117.995 E15.94657
G1 X34.139 Y116.982 E15.99774
G1 X34.102 Y116.651 E16.01436
G1 X34.038 Y115.71 E16.06141
G1 X34.021 Y115.045 E16.0946
G1 X34.066 Y113.73 E16.16025
G1 X34.113 Y113.232 E16.1852
G1 X34.278 Y112.105 E16.24203
G1 X34.377 Y111.611 E16.26716
G1 X34.626 Y110.614 E16.31843
G1 X34.715 Y110.317 E16.3339
G1 X35.028 Y109.417 E16.38144
G1 X35.286 Y108.767 E16.41633
G1 X35.822 Y107.616 E16.47967
G1 X35.979 Y107.324 E16.49621
G1 X36.445 Y106.537 E16.54184
G1 X36.8 Y105.991 E16.57433
G1 X37.612 Y104.897 E16.64231
G1 X37.945 Y104.502 E16.66808
G1 X38.698 Y103.694 E16.72318
G1 X39.059 Y103.344 E16.74827
G1 X39.897 Y102.611 E16.80381
G1 X40.278 Y102.31 E16.82804
G1 X41.191 Y101.661 E16.88392
G1 X41.609 Y101.395 E16.90864
G1 X42.229 Y101.029 E16.94456
G1 X42.406 Y100.932 E16.95463
G1 X43.38 Y100.458 E17.00867
G0 F2400 X43.537 Y100.826
G1 F1200 X44.274 Y100.512 E17.04864
G1 X45.561 Y100.059 E17.11671
G1 X45.899 Y99.964 E17.13423
G1 X46.781 Y99.757 E17.17943
G1 X47.426 Y99.634 E17.21218
G1 X48.635 Y99.475 E17.27302
G1 X49.016 Y99.447 E17.29208
G1 X49.902 Y99.419 E17.33631
G1 X50.487 Y99.425 E17.36549
G1 X51.756 Y99.514 E17.42896
G1 X52.29 Y99.584 E17.45583
G1 X52.791 Y99.662 E17.48112
G1 X53.446 Y99.78 E17.51433
G1 X53.654 Y99.819 E17.52489
G1 X54.023 Y99.893 E17.54366
G1 X56.492 Y100.316 E17.66864
G1 X59.011 Y100.675 E17.79558
G1 X61.488 Y100.955 E17.91994
G1 X64.044 Y101.173 E18.04793
G1 X66.507 Y101.313 E18.171
G1 X70.475 Y101.397 E18.36901
G1 X149.582 Y101.4 E22.31568
G1 X152.206 Y101.363 E22.4466
G1 X154.691 Y101.257 E22.57069
G1 X157.246 Y101.077 E22.69848
G1 X159.762 Y100.827 E22.82462
G1 X162.263 Y100.507 E22.95041
G1 X164.745 Y100.118 E23.07575
G1 X166.94 Y99.709 E23.18715
G1 X167.239 Y99.658 E23.20228
G1 X167.781 Y99.573 E23.22965
G1 X168.693 Y99.47 E23.27544
G1 X169.055 Y99.445 E23.29354
G1 X169.932 Y99.421 E23.33731
G1 X170.581 Y99.43 E23.36969
G1 X171.927 Y99.535 E23.43705
G1 X172.447 Y99.609 E23.46325
G1 X173.505 Y99.815 E23.51703
G1 X173.997 Y99.937 E23.54232
G1 X174.996 Y100.237 E23.59436
G1 X175.463 Y100.403 E23.61908
G1 X176.477 Y100.824 E23.67386
G1 X176.934 Y101.042 E23.69912
G1 X177.889 Y101.559 E23.7533
G1 X178.335 Y101.831 E23.77936
G1 X179.218 Y102.432 E23.83265
G1 X179.606 Y102.726 E23.85694
G1 X180.415 Y103.406 E23.90966
G1 X180.791 Y103.755 E23.93526
G1 X181.539 Y104.523 E23.98874
G1 X181.875 Y104.905 E24.01412
G1 X182.585 Y105.806 E24.07135
G1 X182.877 Y106.221 E24.09667
G1 X183.431 Y107.097 E24.14838
G1 X183.687 Y107.549 E24.1743
G1 X184.179 Y108.532 E24.22914
G1 X184.382 Y108.997 E24.25445
G1 X184.76 Y109.998 E24.30783
G1 X184.916 Y110.484 E24.3333
G1 X185.19 Y111.513 E24.38643
G1 X185.296 Y112.01 E24.41178
G1 X185.465 Y113.061 E24.46489
G1 X185.5 Y113.379 E24.48085
G1 X185.56 Y114.257 E24.52475
G1 X185.579 Y114.971 E24.56039
G1 X185.531 Y116.303 E24.62688
G1 X185.482 Y116.795 E24.65155
G1 X185.319 Y117.868 E24.7057
G1 X185.217 Y118.367 E24.73111
G1 X184.949 Y119.406 E24.78464
G1 X184.799 Y119.886 E24.80973
G1 X184.429 Y120.889 E24.86307
G1 X184.232 Y121.35 E24.88808
G1 X183.772 Y122.296 E24.94056
G1 X183.537 Y122.723 E24.96487
G1 X183.162 Y123.352 E25.00141
G1 X183.048 Y123.529 E25.01191
G1 X182.757 Y123.957 E25.03773
G1 X182.586 Y124.196 E25.05239
G1 X182.018 Y124.921 E25.09834
G1 X181.657 Y125.321 E25.12522
G1 X180.925 Y126.093 E25.1783
G1 X180.263 Y126.733 E25.22424
G1 X179.672 Y127.22 E25.26245
G1 X179.281 Y127.519 E25.287
G1 X178.446 Y128.096 E25.33764
G1 X178.035 Y128.352 E25.3618
G1 X177.101 Y128.871 E25.4151
G1 X176.614 Y129.11 E25.44217
G1 X175.601 Y129.543 E25.49713
G1 X175.144 Y129.711 E25.52142
G1 X174.082 Y130.04 E25.57689
G1 X173.575 Y130.168 E25.60298
G1 X172.548 Y130.373 E25.65523
G1 X172.06 Y130.446 E25.67984
G1 X171.082 Y130.547 E25.7289
G1 X170.741 Y130.566 E25.74594
G1 X169.804 Y130.576 E25.79268
G1 X169.101 Y130.553 E25.82778
G1 X168.183 Y130.483 E25.87371
G1 X167.648 Y130.405 E25.90068
G1 X166.174 Y130.151 E25.9753
G1 X165.976 Y130.115 E25.98534
G1 X165.258 Y129.977 E26.02182
G1 X162.751 Y129.568 E26.14855
G1 X160.254 Y129.234 E26.27423
G1 X157.731 Y128.968 E26.40081
G1 X155.231 Y128.777 E26.52589
G1 X152.677 Y128.653 E26.65346
G1 X149.574 Y128.6 E26.8083
G1 X70.427 Y128.6 E30.75696
G1 X67.802 Y128.637 E30.88793
G1 X65.294 Y128.744 E31.01317
G1 X62.777 Y128.922 E31.13906
G1 X60.253 Y129.172 E31.2656
G1 X57.745 Y129.493 E31.39174
G1 X55.283 Y129.88 E31.51608
G1 X53.266 Y130.256 E31.61844
G1 X53.117 Y130.282 E31.62599
G1 X52.575 Y130.375 E31.65342
G1 X52.067 Y130.45 E31.67904
G1 X51.723 Y130.492 E31.69633
G1 X50.928 Y130.559 E31.73613
G1 X50.604 Y130.574 E31.75232
G1 X49.669 Y130.576 E31.79896
G1 X48.979 Y130.547 E31.83342
G1 X47.688 Y130.413 E31.89817
G1 X47.2 Y130.332 E31.92285
G1 X46.171 Y130.108 E31.97539
G1 X45.712 Y129.984 E31.99911
G1 X44.822 Y129.701 E32.0457
G1 X44.528 Y129.593 E32.06133
G1 X43.669 Y129.234 E32.10778
G1 X43.021 Y128.929 E32.14351
G1 X41.889 Y128.309 E32.2079
G1 X41.63 Y128.146 E32.22317
G1 X40.938 Y127.672 E32.26502
G1 X40.387 Y127.261 E32.29931
G1 X39.424 Y126.449 E32.36215
G1 X39.204 Y126.24 E32.37729
G1 X38.591 Y125.607 E32.42125
G1 X38.116 Y125.074 E32.45687
G1 X37.32 Y124.063 E32.52107
G1 X37.148 Y123.815 E32.53613
G1 X36.703 Y123.116 E32.57747
G1 X36.357 Y122.523 E32.61172
G1 X35.755 Y121.323 E32.6787
G1 X35.575 Y120.899 E32.70168
G1 X35.328 Y120.261 E32.73581
G1 X35.259 Y120.064 E32.74623
G1 X35.099 Y119.568 E32.77223
G1 X35.012 Y119.274 E32.78752
G1 X34.797 Y118.42 E32.83146
G1 X34.692 Y117.914 E32.85724
G1 X34.537 Y116.938 E32.90654
G1 X34.5 Y116.607 E32.92316
G1 X34.437 Y115.7 E32.96852
G1 X34.42 Y115.035 E33.00171
G1 X34.464 Y113.768 E33.06496
G1 X34.511 Y113.27 E33.08991
G1 X34.671 Y112.183 E33.14473
G1 X34.77 Y111.689 E33.16986
G1 X35.009 Y110.729 E33.21922
G1 X35.098 Y110.432 E33.23469
G1 X35.4 Y109.564 E33.28054
G1 X35.658 Y108.914 E33.31543
G1 X36.174 Y107.805 E33.37645
G1 X36.331 Y107.513 E33.39299
G1 X36.78 Y106.755 E33.43695
G1 X37.135 Y106.209 E33.46944
G1 X37.918 Y105.155 E33.53495
G1 X38.251 Y104.76 E33.56072
G1 X38.977 Y103.982 E33.61381
G1 X39.338 Y103.632 E33.6389
G1 X40.145 Y102.924 E33.69246
G1 X40.526 Y102.623 E33.71668
G1 X41.406 Y101.998 E33.77053
G1 X41.824 Y101.732 E33.79525
G1 X42.421 Y101.379 E33.82985
G1 X42.598 Y101.282 E33.83992
G1 X43.537 Y100.826 E33.892
G0 F2400 X43.694 Y101.194
G1 F1200 X44.431 Y100.88 E33.93196
G1 X45.669 Y100.444 E33.99745
G1 X46.007 Y100.349 E34.01496
G1 X46.856 Y100.15 E34.05847
G1 X47.501 Y100.027 E34.09123
G1 X48.664 Y99.873 E34.14976
G1 X49.045 Y99.845 E34.16882
G1 X49.898 Y99.819 E34.21139
G1 X50.483 Y99.825 E34.24058
G1 X51.704 Y99.911 E34.30165
G1 X52.238 Y99.981 E34.32852
G1 X52.72 Y100.056 E34.35285
G1 X53.375 Y100.174 E34.38606
G1 X53.575 Y100.212 E34.39621
G1 X53.914 Y100.28 E34.41346
G1 X56.435 Y100.711 E34.54106
G1 X58.947 Y101.069 E34.66765
G1 X61.48 Y101.357 E34.79484
G1 X63.986 Y101.57 E34.92031
G1 X66.505 Y101.713 E35.04619
G1 X70.467 Y101.797 E35.2439
G1 X149.588 Y101.8 E39.19126
G1 X152.193 Y101.763 E39.32124
G1 X154.736 Y101.655 E39.44822
G1 X157.281 Y101.476 E39.57551
G1 X159.816 Y101.224 E39.7026
G1 X162.304 Y100.905 E39.82774
G1 X164.809 Y100.513 E39.95424
G1 X167.013 Y100.102 E40.06609
G1 X167.301 Y100.053 E40.08067
G1 X167.843 Y99.968 E40.10804
G1 X168.72 Y99.869 E40.15207
G1 X169.082 Y99.844 E40.17017
G1 X169.926 Y99.821 E40.2123
G1 X170.575 Y99.83 E40.24468
G1 X171.871 Y99.931 E40.30953
G1 X172.391 Y100.005 E40.33574
G1 X173.409 Y100.203 E40.38748
G1 X173.901 Y100.325 E40.41277
G1 X174.862 Y100.614 E40.46283
G1 X175.329 Y100.78 E40.48756
G1 X176.305 Y101.185 E40.54028
G1 X176.762 Y101.403 E40.56554
G1 X177.681 Y101.901 E40.61769
G1 X178.127 Y102.173 E40.64375
G1 X178.976 Y102.751 E40.69499
G1 X179.364 Y103.045 E40.71928
G1 X180.143 Y103.699 E40.77002
G1 X180.519 Y104.048 E40.79562
G1 X181.239 Y104.787 E40.84709
G1 X181.575 Y105.169 E40.87247
G1 X182.258 Y106.036 E40.92754
G1 X182.55 Y106.451 E40.95285
G1 X183.083 Y107.294 E41.00261
G1 X183.339 Y107.746 E41.02853
G1 X183.812 Y108.692 E41.08129
G1 X184.015 Y109.157 E41.10661
G1 X184.379 Y110.121 E41.15802
G1 X184.535 Y110.607 E41.18348
G1 X184.799 Y111.596 E41.23455
G1 X184.905 Y112.093 E41.2599
G1 X185.068 Y113.105 E41.31104
G1 X185.103 Y113.423 E41.327
G1 X185.16 Y114.268 E41.36926
G1 X185.179 Y114.982 E41.40489
G1 X185.133 Y116.264 E41.46889
G1 X185.084 Y116.756 E41.49356
G1 X184.927 Y117.788 E41.54564
G1 X184.825 Y118.287 E41.57105
G1 X184.568 Y119.286 E41.62251
G1 X184.418 Y119.766 E41.6476
G1 X184.061 Y120.732 E41.69898
G1 X183.864 Y121.193 E41.72399
G1 X183.421 Y122.103 E41.77449
G1 X183.186 Y122.53 E41.7988
G1 X182.825 Y123.135 E41.83395
G1 X182.711 Y123.312 E41.84445
G1 X182.431 Y123.724 E41.86931
G1 X182.26 Y123.963 E41.88397
G1 X181.703 Y124.674 E41.92903
G1 X181.367 Y125.046 E41.95404
G1 X180.635 Y125.818 E42.00711
G1 X179.985 Y126.445 E42.05217
G1 X179.429 Y126.902 E42.08808
G1 X179.038 Y127.201 E42.11263
G1 X178.235 Y127.757 E42.16136
G1 X177.824 Y128.013 E42.18552
G1 X176.925 Y128.512 E42.23682
G1 X176.438 Y128.751 E42.26388
G1 X175.463 Y129.168 E42.31679
G1 X175.006 Y129.336 E42.34108
G1 X173.984 Y129.652 E42.39445
G1 X173.477 Y129.78 E42.42054
G1 X172.489 Y129.978 E42.47081
G1 X172.001 Y130.051 E42.49542
G1 X171.059 Y130.147 E42.54266
G1 X170.718 Y130.166 E42.5597
G1 X169.817 Y130.177 E42.60466
G1 X169.114 Y130.154 E42.63975
G1 X168.214 Y130.084 E42.68479
G1 X167.716 Y130.011 E42.7099
G1 X166.242 Y129.757 E42.78452
G1 X166.051 Y129.722 E42.79421
G1 X165.32 Y129.582 E42.83134
G1 X162.803 Y129.171 E42.95858
G1 X160.313 Y128.837 E43.08392
G1 X157.768 Y128.569 E43.21159
G1 X155.247 Y128.376 E43.33773
G1 X152.734 Y128.255 E43.46325
G1 X149.522 Y128.2 E43.62352
G1 X70.421 Y128.2 E47.56988
G1 X67.815 Y128.237 E47.69991
G1 X65.247 Y128.346 E47.82814
G1 X62.745 Y128.523 E47.95328
G1 X60.233 Y128.772 E48.07922
G1 X57.67 Y129.1 E48.20813
G1 X55.178 Y129.492 E48.33399
G1 X53.192 Y129.862 E48.43477
G1 X53.049 Y129.888 E48.44203
