;FLAVOR:Marlin
;TIME:17738
;Filament used: 12.0053m
;Layer height: 0.2
;MINX:74
;MINY:55.522
;MINZ:0.3
;MAXX:146
;MAXY:164.478
;MAXZ:49.9
;Generated with Cura_SteamEngine 4.4.0
M140 S60
M105
M190 S60
M104 S205
M105
M109 S205
M82 ;absolute extrusion mode
M201 X500.00 Y500.00 Z100.00 E5000.00 ;Setup machine max acceleration
M203 X500.00 Y500.00 Z10.00 E50.00 ;Setup machine max feedrate
M204 P500.00 R1000.00 T500.00 ;Setup Print/Retract/Travel acceleration
M205 X8.00 Y8.00 Z0.40 E5.00 ;Setup Jerk
M220 S100 ;Reset Feedrate
M221 S100 ;Reset Flowrate

G28 ;Home

G92 E0 ;Reset Extruder
G1 Z2.0 F3000 ;Move Z Axis up
G1 X10.1 Y20 Z0.28 F5000.0 ;Move to start position
G1 X10.1 Y200.0 Z0.28 F1500.0 E15 ;Draw the first line
G1 X10.4 Y200.0 Z0.28 F5000.0 ;Move to side a little
G1 X10.4 Y20 Z0.28 F1500.0 E30 ;Draw the second line
G92 E0 ;Reset Extruder
G1 Z2.0 F3000 ;Move Z Axis up

G92 E0
G92 E0
G1 F1500 E-6.5
;LAYER_COUNT:249
;LAYER:0
M107
G0 F2400 X76.566 Y59.48 Z0.3
;TYPE:SKIRT
G1 F1500 E0
G1 F1200 X77.198 Y58.786 E0.04683
G1 X77.886 Y58.149 E0.09361
G1 X78.626 Y57.573 E0.14039
G1 X79.412 Y57.061 E0.18719
G1 X80.239 Y56.619 E0.23397
G1 X81.101 Y56.249 E0.28077
G1 X81.991 Y55.953 E0.32757
G1 X82.903 Y55.735 E0.37435
G1 X83.83 Y55.594 E0.42113
G1 X84.701 Y55.535 E0.46468
G1 X85.022 Y55.526 E0.4807
G1 X85.33 Y55.522 E0.49607
G1 X134.293 Y55.522 E2.93884
G1 X134.451 Y55.523 E2.94673
G1 X135.149 Y55.533 E2.98155
G1 X136.085 Y55.587 E3.02833
G1 X137.013 Y55.719 E3.07509
G1 X137.927 Y55.931 E3.1219
G1 X138.819 Y56.22 E3.16868
G1 X139.684 Y56.583 E3.21548
G1 X140.514 Y57.019 E3.26226
G1 X141.305 Y57.524 E3.30908
G1 X142.049 Y58.095 E3.35587
G1 X142.742 Y58.727 E3.40266
G1 X143.379 Y59.415 E3.44944
G1 X143.954 Y60.156 E3.49623
G1 X144.465 Y60.942 E3.543
G1 X144.907 Y61.77 E3.58983
G1 X145.276 Y62.632 E3.63661
G1 X145.571 Y63.522 E3.68339
G1 X145.789 Y64.434 E3.73017
G1 X145.929 Y65.362 E3.77699
G1 X145.987 Y66.223 E3.82005
G1 X145.996 Y66.543 E3.83602
G1 X146 Y66.852 E3.85143
G1 X146 Y152.742 E8.1365
G1 X145.999 Y152.878 E8.14329
G1 X145.99 Y153.605 E8.17956
G1 X145.939 Y154.542 E8.22638
G1 X145.807 Y155.47 E8.27314
G1 X145.598 Y156.384 E8.31992
G1 X145.311 Y157.277 E8.36671
G1 X144.949 Y158.143 E8.41354
G1 X144.515 Y158.974 E8.46031
G1 X144.011 Y159.765 E8.50711
G1 X143.442 Y160.51 E8.55388
G1 X142.811 Y161.205 E8.60071
G1 X142.124 Y161.843 E8.64748
G1 X141.385 Y162.42 E8.69426
G1 X140.599 Y162.932 E8.74106
G1 X139.773 Y163.375 E8.78782
G1 X138.911 Y163.747 E8.83466
G1 X138.022 Y164.043 E8.88141
G1 X137.11 Y164.263 E8.92821
G1 X136.183 Y164.404 E8.97499
G1 X135.299 Y164.465 E9.0192
G1 X134.978 Y164.474 E9.03522
G1 X134.67 Y164.478 E9.05059
G1 X85.707 Y164.478 E11.49336
G1 X85.565 Y164.477 E11.50045
G1 X84.867 Y164.468 E11.53527
G1 X83.931 Y164.416 E11.58204
G1 X83.002 Y164.284 E11.62886
G1 X82.088 Y164.074 E11.67564
G1 X81.195 Y163.787 E11.72244
G1 X80.33 Y163.424 E11.76924
G1 X79.499 Y162.99 E11.81601
G1 X78.708 Y162.486 E11.86281
G1 X77.963 Y161.916 E11.90961
G1 X77.269 Y161.285 E11.9564
G1 X76.632 Y160.598 E12.00314
G1 X76.055 Y159.858 E12.04996
G1 X75.543 Y159.072 E12.09676
G1 X75.1 Y158.245 E12.14356
G1 X74.729 Y157.384 E12.19034
G1 X74.433 Y156.494 E12.23713
G1 X74.214 Y155.582 E12.28392
G1 X74.073 Y154.655 E12.3307
G1 X74.013 Y153.766 E12.37516
G1 X74.004 Y153.433 E12.39178
G1 X74 Y153.136 E12.4066
G1 X74 Y67.196 E16.69416
G1 X74.001 Y67.047 E16.70159
G1 X74.01 Y66.382 E16.73477
G1 X74.063 Y65.446 E16.78155
G1 X74.195 Y64.517 E16.82836
G1 X74.406 Y63.603 E16.87516
G1 X74.694 Y62.711 E16.92192
G1 X75.057 Y61.846 E16.96872
G1 X75.492 Y61.015 E17.01552
G1 X75.996 Y60.225 E17.06227
G1 X76.566 Y59.48 E17.10907
G0 F2400 X76.961 Y59.633
G1 F1200 X77.589 Y58.961 E17.15496
G1 X78.274 Y58.345 E17.20092
G1 X79.01 Y57.792 E17.24685
G1 X79.791 Y57.304 E17.29279
G1 X80.611 Y56.886 E17.33871
G1 X81.465 Y56.541 E17.38466
G1 X82.345 Y56.271 E17.43058
G1 X83.245 Y56.079 E17.4765
G1 X84.159 Y55.965 E17.52245
G1 X84.712 Y55.935 E17.55008
G1 X85.033 Y55.926 E17.5661
G1 X85.33 Y55.922 E17.58092
G1 X134.293 Y55.922 E20.02369
G1 X134.445 Y55.923 E20.03128
G1 X135.143 Y55.933 E20.0661
G1 X136.062 Y55.986 E20.11203
G1 X136.973 Y56.119 E20.15796
G1 X137.869 Y56.33 E20.20388
G1 X138.743 Y56.618 E20.24979
G1 X139.59 Y56.981 E20.29577
G1 X140.401 Y57.416 E20.34168
G1 X141.171 Y57.92 E20.3876
G1 X141.895 Y58.489 E20.43354
G1 X142.567 Y59.119 E20.47949
G1 X143.182 Y59.804 E20.52542
G1 X143.735 Y60.54 E20.57135
G1 X144.222 Y61.321 E20.61727
G1 X144.639 Y62.142 E20.66321
G1 X144.984 Y62.996 E20.70916
G1 X145.253 Y63.876 E20.75507
G1 X145.445 Y64.777 E20.80103
G1 X145.558 Y65.69 E20.84693
G1 X145.587 Y66.234 E20.8741
G1 X145.596 Y66.554 E20.89008
G1 X145.6 Y66.852 E20.90494
G1 X145.6 Y152.742 E25.19001
G1 X145.599 Y152.873 E25.19655
G1 X145.59 Y153.6 E25.23282
G1 X145.539 Y154.519 E25.27874
G1 X145.408 Y155.431 E25.32471
G1 X145.198 Y156.327 E25.37062
G1 X144.912 Y157.202 E25.41655
G1 X144.551 Y158.049 E25.46248
G1 X144.117 Y158.861 E25.50842
G1 X143.615 Y159.633 E25.55436
G1 X143.047 Y160.358 E25.60031
G1 X142.419 Y161.031 E25.64623
G1 X141.735 Y161.647 E25.69216
G1 X141 Y162.201 E25.73808
G1 X140.22 Y162.69 E25.784
G1 X139.4 Y163.109 E25.82995
G1 X138.547 Y163.455 E25.87587
G1 X137.667 Y163.726 E25.92181
G1 X136.767 Y163.919 E25.96773
G1 X135.853 Y164.034 E26.01369
G1 X135.288 Y164.065 E26.04192
G1 X134.967 Y164.074 E26.05794
G1 X134.67 Y164.078 E26.07276
G1 X85.707 Y164.078 E28.51553
G1 X85.57 Y164.077 E28.52237
G1 X84.872 Y164.068 E28.55719
G1 X83.953 Y164.016 E28.60312
G1 X83.042 Y163.885 E28.64903
G1 X82.146 Y163.675 E28.69495
G1 X81.271 Y163.388 E28.74089
G1 X80.424 Y163.026 E28.78684
G1 X79.612 Y162.592 E28.83278
G1 X78.841 Y162.09 E28.87868
G1 X78.116 Y161.522 E28.92463
G1 X77.443 Y160.893 E28.97059
G1 X76.828 Y160.209 E29.01648
G1 X76.274 Y159.474 E29.0624
G1 X75.786 Y158.693 E29.10834
G1 X75.367 Y157.873 E29.15428
G1 X75.021 Y157.02 E29.20021
G1 X74.751 Y156.14 E29.24613
G1 X74.558 Y155.239 E29.2921
G1 X74.444 Y154.326 E29.338
G1 X74.413 Y153.755 E29.36653
G1 X74.404 Y153.422 E29.38315
G1 X74.4 Y153.136 E29.39742
G1 X74.4 Y67.196 E33.68499
G1 X74.401 Y67.053 E33.69212
G1 X74.41 Y66.388 E33.7253
G1 X74.462 Y65.468 E33.77127
G1 X74.594 Y64.557 E33.8172
G1 X74.805 Y63.661 E33.86312
G1 X75.092 Y62.786 E33.90906
G1 X75.455 Y61.94 E33.95499
G1 X75.889 Y61.128 E34.00093
G1 X76.392 Y60.357 E34.04685
G1 X76.961 Y59.633 E34.09279
G0 F2400 X77.355 Y59.789
G1 F1200 X77.981 Y59.139 E34.13782
G1 X78.662 Y58.546 E34.18287
G1 X79.394 Y58.016 E34.22796
G1 X80.169 Y57.553 E34.27299
G1 X80.982 Y57.16 E34.31805
G1 X81.827 Y56.84 E34.36312
G1 X82.696 Y56.597 E34.40814
G1 X83.584 Y56.431 E34.45321
G1 X84.723 Y56.335 E34.51024
G1 X85.044 Y56.326 E34.52626
G1 X85.33 Y56.322 E34.54053
G1 X134.293 Y56.322 E36.9833
G1 X134.439 Y56.323 E36.99059
G1 X135.137 Y56.333 E37.02541
G1 X136.039 Y56.386 E37.07049
G1 X136.932 Y56.518 E37.11553
G1 X137.81 Y56.729 E37.16058
G1 X138.666 Y57.017 E37.20564
G1 X139.493 Y57.379 E37.25068
G1 X140.285 Y57.814 E37.29576
G1 X141.036 Y58.316 E37.34083
G1 X141.739 Y58.883 E37.38588
G1 X142.389 Y59.51 E37.43094
G1 X142.981 Y60.192 E37.476
G1 X143.511 Y60.923 E37.52104
G1 X143.973 Y61.699 E37.5661
G1 X144.366 Y62.512 E37.61115
G1 X144.684 Y63.357 E37.6562
G1 X144.927 Y64.227 E37.70126
G1 X145.092 Y65.115 E37.74632
G1 X145.187 Y66.245 E37.8029
G1 X145.196 Y66.565 E37.81887
G1 X145.2 Y66.852 E37.83319
G1 X145.2 Y152.742 E42.11826
G1 X145.199 Y152.868 E42.12454
G1 X145.19 Y153.595 E42.16082
G1 X145.139 Y154.497 E42.20589
G1 X145.008 Y155.391 E42.25097
G1 X144.799 Y156.269 E42.29599
G1 X144.513 Y157.126 E42.34107
G1 X144.152 Y157.954 E42.38613
G1 X143.72 Y158.746 E42.43114
G1 X143.219 Y159.498 E42.47622
G1 X142.653 Y160.202 E42.52129
G1 X142.028 Y160.853 E42.56631
G1 X141.347 Y161.447 E42.6114
G1 X140.616 Y161.978 E42.65647
G1 X139.842 Y162.442 E42.7015
G1 X139.029 Y162.836 E42.74657
G1 X138.185 Y163.156 E42.7916
G1 X137.315 Y163.401 E42.83669
G1 X136.428 Y163.567 E42.88171
G1 X135.277 Y163.665 E42.93935
G1 X134.956 Y163.674 E42.95537
G1 X134.67 Y163.678 E42.96964
G1 X85.707 Y163.678 E45.41241
G1 X85.575 Y163.677 E45.419
G1 X84.877 Y163.668 E45.45382
G1 X83.976 Y163.617 E45.49885
G1 X83.082 Y163.485 E45.54393
G1 X82.204 Y163.276 E45.58896
G1 X81.347 Y162.989 E45.63405
G1 X80.52 Y162.628 E45.67907
G1 X79.727 Y162.195 E45.72414
G1 X78.976 Y161.694 E45.76918
G1 X78.272 Y161.128 E45.81425
G1 X77.621 Y160.502 E45.85931
G1 X77.028 Y159.821 E45.90436
G1 X76.498 Y159.09 E45.94941
G1 X76.034 Y158.315 E45.99447
G1 X75.64 Y157.502 E46.03954
G1 X75.32 Y156.658 E46.08458
G1 X75.076 Y155.788 E46.12965
G1 X74.91 Y154.9 E46.17472
G1 X74.813 Y153.745 E46.23255
G1 X74.804 Y153.412 E46.24917
G1 X74.8 Y153.136 E46.26294
G1 X74.8 Y67.196 E50.55051
G1 X74.801 Y67.058 E50.55739
G1 X74.81 Y66.393 E50.59057
G1 X74.862 Y65.491 E50.63565
G1 X74.994 Y64.598 E50.68068
G1 X75.204 Y63.72 E50.72572
G1 X75.491 Y62.863 E50.77081
G1 X75.853 Y62.036 E50.81585
G1 X76.286 Y61.244 E50.86088
G1 X76.788 Y60.493 E50.90595
G1 X77.355 Y59.789 E50.95105
G1 F1500 E44.45105
;MESH:52a70efd-ea4d-4499-987e-9de24fc040d6.stl
G0 F2400 X116.872 Y114.401
G0 X115.307 Y113.396
G0 X115.728 Y115.926
G0 X116.025 Y116.576
G0 X116.404 Y117.014
G0 X118.14 Y118.394
;TYPE:WALL-INNER
G1 F1500 E50.95105
G1 F1200 X118.594 Y118.361 E50.97376
G1 X119.035 Y118.265 E50.99627
G1 X119.458 Y118.107 E51.0188
G1 X119.855 Y117.891 E51.04135
G1 X120.221 Y117.618 E51.06413
G1 X120.54 Y117.298 E51.08667
G1 X120.812 Y116.935 E51.1093
G1 X121.03 Y116.535 E51.13203
G1 X121.188 Y116.112 E51.15456
G1 X121.284 Y115.671 E51.17707
G1 X121.317 Y115.217 E51.19978
G1 X121.284 Y114.763 E51.22249
G1 X121.188 Y114.323 E51.24496
G1 X121.03 Y113.899 E51.26754
G1 X120.812 Y113.499 E51.29026
G1 X120.541 Y113.137 E51.31282
G1 X120.219 Y112.816 E51.33551
G1 X119.855 Y112.544 E51.35818
G1 X119.458 Y112.328 E51.38073
G1 X119.035 Y112.17 E51.40325
G1 X118.595 Y112.074 E51.42572
G1 X118.14 Y112.04 E51.44849
G1 X117.686 Y112.074 E51.4712
G1 X117.246 Y112.17 E51.49367
G1 X116.822 Y112.328 E51.51624
G1 X116.425 Y112.544 E51.53879
G1 X116.06 Y112.816 E51.5615
G1 X115.74 Y113.137 E51.58411
G1 X115.468 Y113.5 E51.60674
G1 X115.251 Y113.898 E51.62936
G1 X115.092 Y114.322 E51.65195
G1 X114.996 Y114.764 E51.67452
G1 X114.963 Y115.217 E51.69718
G1 X114.996 Y115.671 E51.71989
G1 X115.092 Y116.115 E51.74255
G1 X115.251 Y116.535 E51.76496
G1 X115.466 Y116.933 E51.78752
G1 X115.74 Y117.299 E51.81033
G1 X116.061 Y117.618 E51.83291
G1 X116.422 Y117.889 E51.85543
G1 X116.822 Y118.107 E51.87816
G1 X117.246 Y118.265 E51.90073
G1 X117.686 Y118.361 E51.9232
G1 X118.14 Y118.394 E51.94591
G0 F2400 X118.14 Y117.993
G1 F1200 X118.537 Y117.964 E51.96577
G1 X118.922 Y117.88 E51.98543
G1 X119.292 Y117.742 E52.00513
G1 X119.639 Y117.553 E52.02484
G1 X119.958 Y117.315 E52.0447
G1 X120.237 Y117.035 E52.06442
G1 X120.475 Y116.718 E52.0842
G1 X120.665 Y116.369 E52.10402
G1 X120.803 Y115.999 E52.12372
G1 X120.887 Y115.614 E52.14338
G1 X120.916 Y115.217 E52.16324
G1 X120.887 Y114.821 E52.18305
G1 X120.803 Y114.436 E52.20271
G1 X120.665 Y114.065 E52.22246
G1 X120.475 Y113.716 E52.24229
G1 X120.238 Y113.4 E52.26199
G1 X119.957 Y113.119 E52.28182
G1 X119.639 Y112.882 E52.3016
G1 X119.292 Y112.693 E52.32132
G1 X118.922 Y112.555 E52.34102
G1 X118.537 Y112.471 E52.36068
G1 X118.14 Y112.441 E52.38054
G1 X117.744 Y112.471 E52.40035
G1 X117.359 Y112.555 E52.42001
G1 X116.988 Y112.693 E52.43976
G1 X116.641 Y112.882 E52.45948
G1 X116.323 Y113.119 E52.47926
G1 X116.043 Y113.4 E52.49905
G1 X115.805 Y113.717 E52.51883
G1 X115.616 Y114.065 E52.53859
G1 X115.477 Y114.435 E52.55831
G1 X115.393 Y114.821 E52.57801
G1 X115.364 Y115.217 E52.59782
G1 X115.393 Y115.614 E52.61768
G1 X115.477 Y116.001 E52.63744
G1 X115.616 Y116.369 E52.65707
G1 X115.804 Y116.717 E52.6768
G1 X116.043 Y117.036 E52.69668
G1 X116.323 Y117.315 E52.71641
G1 X116.639 Y117.552 E52.73611
G1 X116.988 Y117.742 E52.75594
G1 X117.359 Y117.88 E52.77568
G1 X117.744 Y117.964 E52.79534
G1 X118.14 Y117.993 E52.81515
G0 F2400 X118.14 Y117.592
;TYPE:WALL-OUTER
G1 F1200 X118.479 Y117.567 E52.83211
G1 X118.809 Y117.495 E52.84896
G1 X119.126 Y117.377 E52.86584
G1 X119.423 Y117.215 E52.88272
G1 X119.695 Y117.012 E52.89965
G1 X119.934 Y116.772 E52.91655
G1 X120.138 Y116.501 E52.93347
G1 X120.3 Y116.203 E52.95039
G1 X120.418 Y115.886 E52.96727
G1 X120.49 Y115.556 E52.98412
G1 X120.515 Y115.217 E53.00108
G1 X120.49 Y114.879 E53.01799
G1 X120.418 Y114.549 E53.03484
G1 X120.3 Y114.231 E53.05176
G1 X120.138 Y113.933 E53.06868
G1 X119.935 Y113.663 E53.08554
G1 X119.695 Y113.422 E53.1025
G1 X119.423 Y113.22 E53.11941
G1 X119.126 Y113.058 E53.13629
G1 X118.809 Y112.94 E53.15316
G1 X118.479 Y112.868 E53.17001
G1 X118.14 Y112.842 E53.18697
G1 X117.802 Y112.868 E53.20389
G1 X117.472 Y112.94 E53.22074
G1 X117.154 Y113.058 E53.23766
G1 X116.857 Y113.22 E53.25454
G1 X116.586 Y113.422 E53.2714
G1 X116.346 Y113.663 E53.28837
G1 X116.142 Y113.934 E53.30529
G1 X115.981 Y114.231 E53.32215
G1 X115.862 Y114.548 E53.33904
G1 X115.79 Y114.879 E53.35594
G1 X115.765 Y115.217 E53.37285
G1 X115.79 Y115.556 E53.38981
G1 X115.862 Y115.887 E53.40671
G1 X115.981 Y116.203 E53.42355
G1 X116.142 Y116.501 E53.44045
G1 X116.346 Y116.773 E53.45741
G1 X116.586 Y117.012 E53.47431
G1 X116.856 Y117.215 E53.49117
G1 X117.154 Y117.377 E53.50809
G1 X117.472 Y117.495 E53.52501
G1 X117.802 Y117.567 E53.54186
G1 X118.14 Y117.592 E53.55877
G0 F2400 X118.14 Y118.032
G1 F1500 E47.05877
G0 F2400 X119.498 Y117.332
G0 X121.473 Y115.699
G0 X119.634 Y115.428
G0 X128.932 Y110.937
G0 X128.163 Y112.629
G0 X129.106 Y112.709
;TYPE:WALL-INNER
G1 F1500 E53.55877
G1 F1200 X129.56 Y112.742 E53.58148
G1 X130.014 Y112.709 E53.60419
G1 X130.455 Y112.613 E53.62671
G1 X130.878 Y112.455 E53.64923
G1 X131.278 Y112.237 E53.67196
G1 X131.641 Y111.965 E53.69459
G1 X131.961 Y111.646 E53.71713
G1 X132.234 Y111.28 E53.73991
G1 X132.45 Y110.883 E53.76246
G1 X132.608 Y110.46 E53.78499
G1 X132.704 Y110.016 E53.80765
G1 X132.737 Y109.565 E53.83021
G1 X132.704 Y109.111 E53.85292
G1 X132.608 Y108.671 E53.87539
G1 X132.45 Y108.247 E53.89797
G1 X132.234 Y107.85 E53.92051
G1 X131.961 Y107.484 E53.94329
G1 X131.641 Y107.165 E53.96584
G1 X131.277 Y106.891 E53.98857
G1 X130.878 Y106.676 E54.01118
G1 X130.458 Y106.517 E54.03358
G1 X130.014 Y106.421 E54.05625
G1 X129.56 Y106.388 E54.07896
G1 X129.107 Y106.421 E54.10162
G1 X128.665 Y106.517 E54.12418
G1 X128.242 Y106.676 E54.14673
G1 X127.844 Y106.891 E54.1693
G1 X127.481 Y107.164 E54.19196
G1 X127.159 Y107.485 E54.21464
G1 X126.887 Y107.85 E54.23735
G1 X126.671 Y108.247 E54.2599
G1 X126.513 Y108.671 E54.28247
G1 X126.417 Y109.111 E54.30494
G1 X126.383 Y109.565 E54.32765
G1 X126.417 Y110.019 E54.35037
G1 X126.513 Y110.46 E54.37289
G1 X126.671 Y110.883 E54.39541
G1 X126.887 Y111.28 E54.41796
G1 X127.159 Y111.644 E54.44063
G1 X127.48 Y111.966 E54.46331
G1 X127.842 Y112.237 E54.48588
G1 X128.242 Y112.455 E54.5086
G1 X128.666 Y112.613 E54.53118
G1 X129.106 Y112.709 E54.55364
G0 F2400 X129.164 Y112.312
G1 F1200 X129.56 Y112.341 E54.57345
G1 X129.957 Y112.312 E54.59331
G1 X130.342 Y112.228 E54.61297
G1 X130.712 Y112.09 E54.63267
G1 X131.061 Y111.9 E54.6525
G1 X131.378 Y111.662 E54.67228
G1 X131.658 Y111.383 E54.692
G1 X131.896 Y111.064 E54.71185
G1 X132.085 Y110.717 E54.73157
G1 X132.223 Y110.347 E54.75127
G1 X132.307 Y109.959 E54.77107
G1 X132.336 Y109.565 E54.79078
G1 X132.307 Y109.169 E54.81059
G1 X132.223 Y108.784 E54.83025
G1 X132.085 Y108.413 E54.85
