;FLAVOR:Marlin
;TIME:1221
;Filament used: 0.955252m
;Layer height: 0.28
;MINX:94
;MINY:58.019
;MINZ:0.3
;MAXX:126
;MAXY:121
;MAXZ:14.86
;Generated with Cura_SteamEngine 4.4.0
M140 S60
M105
M190 S60
M104 S200
M105
M109 S200
M82 ;absolute extrusion mode
M201 X500.00 Y500.00 Z100.00 E5000.00 ;Setup machine max acceleration
M203 X500.00 Y500.00 Z10.00 E50.00 ;Setup machine max feedrate
M204 P500.00 R1000.00 T500.00 ;Setup Print/Retract/Travel acceleration
M205 X8.00 Y8.00 Z0.40 E5.00 ;Setup Jerk
M220 S100 ;Reset Feedrate
M221 S100 ;Reset Flowrate

G28 ;Home

G92 E0 ;Reset Extruder
G1 Z2.0 F3000 ;Move Z Axis up
G1 X10.1 Y20 Z0.28 F5000.0 ;Move to start position
G1 X10.1 Y200.0 Z0.28 F1500.0 E15 ;Draw the first line
G1 X10.4 Y200.0 Z0.28 F5000.0 ;Move to side a little
G1 X10.4 Y20 Z0.28 F1500.0 E30 ;Draw the second line
G92 E0 ;Reset Extruder
G1 Z2.0 F3000 ;Move Z Axis up

G92 E0
G92 E0
G1 F1500 E-6.5
;LAYER_COUNT:53
;LAYER:0
M107
G0 F2400 X96.797 Y64.983 Z0.3
;TYPE:SKIRT
G1 F1500 E0
G1 F1200 X96.948 Y64.766 E0.01319
G1 X97.261 Y64.338 E0.03964
G1 X97.435 Y64.112 E0.05387
G1 X97.885 Y63.566 E0.08917
G1 X98.072 Y63.353 E0.10331
G1 X98.574 Y62.817 E0.13995
G1 X98.84 Y62.552 E0.15868
G1 X99.325 Y62.098 E0.19183
G1 X99.521 Y61.925 E0.20487
G1 X99.974 Y61.546 E0.23434
G1 X100.18 Y61.383 E0.24744
G1 X100.677 Y61.012 E0.27838
G1 X100.913 Y60.846 E0.29278
G1 X101.362 Y60.546 E0.31972
G1 X101.547 Y60.429 E0.33064
G1 X102.239 Y60.026 E0.37059
G1 X102.684 Y59.788 E0.39577
G1 X103.429 Y59.425 E0.43712
G1 X103.617 Y59.342 E0.44737
G1 X104.034 Y59.168 E0.46991
G1 X104.273 Y59.074 E0.48272
G1 X104.852 Y58.865 E0.51343
G1 X105.152 Y58.766 E0.5292
G1 X105.821 Y58.569 E0.56399
G1 X106.093 Y58.498 E0.57801
G1 X106.691 Y58.359 E0.60864
G1 X106.963 Y58.304 E0.62249
G1 X107.662 Y58.186 E0.65785
G1 X108.03 Y58.136 E0.67638
G1 X108.753 Y58.062 E0.71264
G1 X109.086 Y58.039 E0.7293
G1 X110.22 Y58.019 E0.78588
G1 X110.892 Y58.042 E0.81943
G1 X112.163 Y58.16 E0.88311
G1 X112.612 Y58.228 E0.90576
G1 X113.394 Y58.376 E0.94547
G1 X113.659 Y58.436 E0.95903
G1 X114.226 Y58.58 E0.98821
G1 X114.491 Y58.655 E1.00195
G1 X115.176 Y58.873 E1.03782
G1 X115.497 Y58.987 E1.05481
G1 X116.012 Y59.185 E1.08234
G1 X116.201 Y59.263 E1.09254
G1 X116.829 Y59.545 E1.12688
G1 X117.163 Y59.708 E1.14543
G1 X117.789 Y60.039 E1.18075
G1 X118.08 Y60.205 E1.19747
G1 X118.962 Y60.765 E1.24959
G1 X119.418 Y61.086 E1.27741
G1 X120.124 Y61.627 E1.32179
G1 X120.345 Y61.811 E1.33613
G1 X120.787 Y62.199 E1.36548
G1 X120.966 Y62.365 E1.37766
G1 X121.372 Y62.762 E1.40599
G1 X121.549 Y62.944 E1.41865
G1 X122.09 Y63.543 E1.45892
G1 X122.387 Y63.897 E1.48197
G1 X122.89 Y64.543 E1.52282
G1 X123.072 Y64.796 E1.53837
G1 X123.613 Y65.625 E1.58776
G1 X123.906 Y66.121 E1.6165
G1 X124.507 Y67.295 E1.6823
G1 X124.755 Y67.86 E1.71308
G1 X125.106 Y68.764 E1.76146
G1 X125.188 Y69.007 E1.77426
G1 X125.433 Y69.842 E1.81767
G1 X125.572 Y70.395 E1.84612
G1 X125.772 Y71.38 E1.89626
G1 X125.804 Y71.585 E1.90661
G1 X125.856 Y71.958 E1.9254
G1 X125.888 Y72.222 E1.93867
G1 X125.953 Y72.975 E1.97638
G1 X125.97 Y73.302 E1.99271
G1 X125.984 Y73.703 E2.01273
G1 X125.998 Y74.611 E2.05804
G1 X125.999 Y74.781 E2.06652
G1 X126 Y109.268 E3.78708
G1 X125.999 Y109.421 E3.79472
G1 X125.989 Y110.141 E3.83064
G1 X125.936 Y111.077 E3.87741
G1 X125.803 Y112.006 E3.92423
G1 X125.592 Y112.919 E3.97098
G1 X125.304 Y113.812 E4.0178
G1 X124.941 Y114.677 E4.0646
G1 X124.505 Y115.507 E4.11137
G1 X124 Y116.298 E4.15819
G1 X123.43 Y117.042 E4.20495
G1 X122.799 Y117.736 E4.25175
G1 X122.11 Y118.373 E4.29856
G1 X121.37 Y118.949 E4.34534
G1 X120.584 Y119.46 E4.39212
G1 X119.757 Y119.902 E4.4389
G1 X118.895 Y120.272 E4.4857
G1 X118.005 Y120.567 E4.53248
G1 X117.093 Y120.785 E4.57926
G1 X116.165 Y120.925 E4.62608
G1 X115.376 Y120.981 E4.66554
G1 X115.063 Y120.992 E4.68117
G1 X114.68 Y120.999 E4.70028
G1 X111.248 Y121 E4.8715
G1 X111.088 Y120.999 E4.87949
G1 X110.387 Y120.989 E4.91446
G1 X109.451 Y120.936 E4.96123
G1 X108.522 Y120.803 E5.00805
G1 X107.609 Y120.591 E5.05482
G1 X106.716 Y120.303 E5.10163
G1 X105.852 Y119.939 E5.1484
G1 X105.021 Y119.503 E5.19522
G1 X104.231 Y118.998 E5.242
G1 X103.487 Y118.428 E5.28876
G1 X103.07 Y118.06 E5.31651
G1 X102.745 Y117.759 E5.33861
G1 X102.611 Y117.634 E5.34775
G1 X101.285 Y116.364 E5.43935
G1 X99.403 Y114.663 E5.56591
G1 X98.363 Y113.774 E5.63417
G1 X98.231 Y113.66 E5.64287
G1 X97.773 Y113.256 E5.67334
G1 X97.097 Y112.606 E5.72013
G1 X96.479 Y111.901 E5.7669
G1 X95.923 Y111.146 E5.81368
G1 X95.433 Y110.346 E5.86048
G1 X95.013 Y109.508 E5.90725
G1 X94.643 Y108.57 E5.95755
G1 X94.605 Y108.459 E5.96341
G1 X94.339 Y107.559 E6.01023
G1 X94.151 Y106.64 E6.05703
G1 X94.042 Y105.709 E6.10379
G1 X94.013 Y105.068 E6.13581
G1 X94.001 Y104.299 E6.17418
G1 X94 Y104.127 E6.18276
G1 X94 Y74.698 E7.65098
G1 X94.001 Y74.554 E7.65816
G1 X94.012 Y73.712 E7.70017
G1 X94.038 Y73.087 E7.73138
G1 X94.064 Y72.716 E7.74993
G1 X94.135 Y72.022 E7.78474
G1 X94.175 Y71.724 E7.79974
G1 X94.272 Y71.127 E7.82991
G1 X94.321 Y70.87 E7.84297
G1 X94.471 Y70.195 E7.87746
G1 X94.548 Y69.895 E7.89292
G1 X94.712 Y69.321 E7.9227
G1 X94.8 Y69.042 E7.93729
G1 X94.969 Y68.548 E7.96334
G1 X95.039 Y68.358 E7.97344
G1 X95.361 Y67.579 E8.0155
G1 X95.575 Y67.112 E8.04113
G1 X96.086 Y66.129 E8.0964
G1 X96.337 Y65.701 E8.12115
G1 X96.797 Y64.983 E8.1637
G0 F2400 X97.125 Y65.212
G1 F1200 X97.276 Y64.995 E8.17689
G1 X97.578 Y64.582 E8.20241
G1 X97.752 Y64.356 E8.21664
G1 X98.185 Y63.83 E8.25063
G1 X98.372 Y63.617 E8.26477
G1 X98.857 Y63.101 E8.3001
G1 X99.123 Y62.836 E8.31883
G1 X99.589 Y62.398 E8.35074
G1 X99.785 Y62.225 E8.36378
G1 X100.223 Y61.859 E8.39226
G1 X100.429 Y61.696 E8.40537
G1 X100.908 Y61.339 E8.43517
G1 X101.144 Y61.173 E8.44957
G1 X101.576 Y60.884 E8.4755
G1 X101.761 Y60.767 E8.48642
G1 X102.428 Y60.379 E8.52491
G1 X102.873 Y60.141 E8.55009
G1 X103.591 Y59.791 E8.58994
G1 X103.779 Y59.708 E8.60019
G1 X104.18 Y59.541 E8.62187
G1 X104.419 Y59.447 E8.63468
G1 X104.977 Y59.245 E8.66429
G1 X105.277 Y59.146 E8.68005
G1 X105.922 Y58.956 E8.71359
G1 X106.194 Y58.885 E8.72762
G1 X106.77 Y58.751 E8.75712
G1 X107.042 Y58.696 E8.77097
G1 X107.716 Y58.583 E8.80506
G1 X108.084 Y58.533 E8.82359
G1 X108.781 Y58.461 E8.85855
G1 X109.114 Y58.438 E8.8752
G1 X110.207 Y58.419 E8.92974
G1 X110.879 Y58.442 E8.96329
G1 X112.103 Y58.556 E9.02462
G1 X112.552 Y58.624 E9.04727
G1 X113.306 Y58.766 E9.08555
G1 X113.571 Y58.826 E9.09911
G1 X114.117 Y58.965 E9.12721
G1 X114.382 Y59.04 E9.14095
G1 X115.042 Y59.25 E9.17551
G1 X115.363 Y59.364 E9.1925
G1 X115.86 Y59.555 E9.21907
G1 X116.049 Y59.633 E9.22927
G1 X116.654 Y59.905 E9.26236
G1 X116.988 Y60.068 E9.2809
G1 X117.591 Y60.387 E9.31494
G1 X117.882 Y60.553 E9.33165
G1 X118.732 Y61.092 E9.38187
G1 X119.188 Y61.413 E9.40969
G1 X119.868 Y61.935 E9.45246
G1 X120.089 Y62.119 E9.4668
G1 X120.515 Y62.493 E9.49508
G1 X120.694 Y62.659 E9.50726
G1 X121.085 Y63.041 E9.53453
G1 X121.262 Y63.223 E9.5472
G1 X121.784 Y63.8 E9.58602
G1 X122.081 Y64.154 E9.60907
G1 X122.565 Y64.777 E9.64843
G1 X122.747 Y65.03 E9.66398
G1 X123.269 Y65.829 E9.7116
G1 X123.562 Y66.325 E9.74034
G1 X124.141 Y67.456 E9.80373
G1 X124.389 Y68.021 E9.83451
G1 X124.727 Y68.892 E9.88112
G1 X124.809 Y69.135 E9.89392
G1 X125.045 Y69.94 E9.93577
G1 X125.184 Y70.493 E9.96422
G1 X125.377 Y71.442 E10.01253
G1 X125.409 Y71.647 E10.02288
G1 X125.459 Y72.006 E10.04097
G1 X125.491 Y72.27 E10.05423
G1 X125.554 Y72.996 E10.09059
G1 X125.571 Y73.323 E10.10693
G1 X125.584 Y73.71 E10.12625
G1 X125.598 Y74.618 E10.17155
G1 X125.599 Y74.781 E10.17968
G1 X125.6 Y109.268 E11.90025
G1 X125.599 Y109.415 E11.90758
G1 X125.589 Y110.135 E11.9435
G1 X125.536 Y111.054 E11.98943
G1 X125.404 Y111.965 E12.03535
G1 X125.193 Y112.862 E12.08133
G1 X124.905 Y113.736 E12.12724
G1 X124.543 Y114.582 E12.17315
G1 X124.108 Y115.394 E12.2191
G1 X123.604 Y116.165 E12.26506
G1 X123.036 Y116.889 E12.31097
G1 X122.407 Y117.561 E12.35689
G1 X121.722 Y118.176 E12.40282
G1 X120.986 Y118.729 E12.44875
G1 X120.205 Y119.217 E12.49469
G1 X119.384 Y119.634 E12.54063
G1 X118.531 Y119.979 E12.58654
G1 X117.65 Y120.249 E12.63251
G1 X116.75 Y120.441 E12.67842
G1 X115.836 Y120.554 E12.72437
G1 X115.362 Y120.581 E12.74805
G1 X115.049 Y120.592 E12.76368
G1 X114.68 Y120.599 E12.78209
G1 X111.248 Y120.6 E12.95331
G1 X111.094 Y120.599 E12.961
G1 X110.393 Y120.589 E12.99597
G1 X109.474 Y120.536 E13.0419
G1 X108.563 Y120.403 E13.08783
G1 X107.667 Y120.192 E13.13376
G1 X106.792 Y119.904 E13.17971
G1 X105.946 Y119.541 E13.22564
G1 X105.135 Y119.106 E13.27156
G1 X104.364 Y118.602 E13.31751
G1 X103.341 Y117.767 E13.38339
G1 X103.016 Y117.466 E13.40549
G1 X102.888 Y117.345 E13.41428
G1 X101.548 Y116.061 E13.50687
G1 X99.686 Y114.378 E13.63209
G1 X98.623 Y113.47 E13.70183
G1 X98.496 Y113.36 E13.71022
G1 X98.038 Y112.956 E13.74069
G1 X97.375 Y112.318 E13.78659
G1 X96.769 Y111.624 E13.83256
G1 X96.226 Y110.881 E13.87847
G1 X95.75 Y110.093 E13.9244
G1 X95.344 Y109.267 E13.97032
G1 X95.021 Y108.44 E14.01461
G1 X94.983 Y108.329 E14.02046
G1 X94.723 Y107.446 E14.06639
G1 X94.541 Y106.544 E14.1123
G1 X94.437 Y105.629 E14.15824
G1 X94.413 Y105.061 E14.1866
G1 X94.401 Y104.292 E14.22497
G1 X94.4 Y104.127 E14.2332
G1 X94.4 Y74.698 E15.70142
G1 X94.401 Y74.56 E15.70831
G1 X94.412 Y73.718 E15.75032
G1 X94.437 Y73.115 E15.78043
G1 X94.463 Y72.744 E15.79898
G1 X94.531 Y72.075 E15.83253
G1 X94.571 Y71.777 E15.84753
G1 X94.665 Y71.202 E15.8766
G1 X94.714 Y70.945 E15.88965
G1 X94.859 Y70.295 E15.92288
G1 X94.936 Y69.995 E15.93833
G1 X95.094 Y69.441 E15.96707
G1 X95.182 Y69.162 E15.98167
G1 X95.345 Y68.687 E16.00672
G1 X95.415 Y68.497 E16.01682
G1 X95.725 Y67.745 E16.0574
G1 X95.939 Y67.278 E16.08303
G1 X96.431 Y66.332 E16.13623
G1 X96.682 Y65.904 E16.16098
G1 X97.125 Y65.212 E16.20198
G0 F2400 X97.454 Y65.44
G1 F1200 X97.605 Y65.223 E16.21517
G1 X97.895 Y64.826 E16.23969
G1 X98.069 Y64.6 E16.25392
G1 X98.486 Y64.094 E16.28664
G1 X98.673 Y63.881 E16.30078
G1 X99.139 Y63.384 E16.33477
G1 X99.405 Y63.119 E16.3535
G1 X99.854 Y62.698 E16.38421
G1 X100.05 Y62.525 E16.39725
G1 X100.471 Y62.173 E16.42463
G1 X100.677 Y62.01 E16.43773
G1 X101.138 Y61.666 E16.46643
G1 X101.374 Y61.5 E16.48083
G1 X101.79 Y61.222 E16.50579
G1 X101.975 Y61.105 E16.51671
G1 X102.617 Y60.732 E16.55375
G1 X103.062 Y60.494 E16.57893
G1 X103.752 Y60.157 E16.61724
G1 X103.94 Y60.074 E16.62749
G1 X104.327 Y59.913 E16.6484
G1 X104.566 Y59.819 E16.66122
G1 X105.103 Y59.625 E16.6897
G1 X105.403 Y59.526 E16.70546
G1 X106.023 Y59.343 E16.73771
G1 X106.295 Y59.272 E16.75174
G1 X106.849 Y59.143 E16.78012
G1 X107.121 Y59.088 E16.79396
G1 X107.77 Y58.979 E16.82679
G1 X108.138 Y58.929 E16.84532
G1 X108.808 Y58.86 E16.87893
G1 X109.141 Y58.837 E16.89558
G1 X110.193 Y58.819 E16.94807
G1 X110.865 Y58.842 E16.98162
G1 X112.043 Y58.951 E17.04064
G1 X112.492 Y59.019 E17.06329
G1 X113.217 Y59.156 E17.10011
G1 X113.482 Y59.216 E17.11366
G1 X114.008 Y59.349 E17.14073
G1 X114.273 Y59.424 E17.15447
G1 X114.909 Y59.627 E17.18778
G1 X115.23 Y59.741 E17.20477
G1 X115.707 Y59.924 E17.23026
G1 X115.896 Y60.002 E17.24046
G1 X116.479 Y60.264 E17.27235
G1 X116.813 Y60.427 E17.29089
G1 X117.393 Y60.734 E17.32363
G1 X117.684 Y60.9 E17.34034
G1 X118.501 Y61.419 E17.38863
G1 X118.957 Y61.74 E17.41645
G1 X119.612 Y62.242 E17.45763
G1 X119.833 Y62.426 E17.47197
G1 X120.243 Y62.786 E17.49919
G1 X120.422 Y62.952 E17.51137
G1 X120.798 Y63.32 E17.53762
G1 X120.975 Y63.502 E17.55029
G1 X121.477 Y64.057 E17.58762
G1 X121.774 Y64.411 E17.61068
G1 X122.24 Y65.011 E17.64858
G1 X122.422 Y65.264 E17.66413
G1 X122.924 Y66.032 E17.7099
G1 X123.217 Y66.528 E17.73864
G1 X123.775 Y67.616 E17.79965
G1 X124.023 Y68.181 E17.83043
G1 X124.348 Y69.02 E17.87532
G1 X124.43 Y69.263 E17.88811
G1 X124.657 Y70.038 E17.9284
G1 X124.796 Y70.591 E17.95685
G1 X124.982 Y71.504 E18.00334
G1 X125.014 Y71.709 E18.01369
G1 X125.062 Y72.055 E18.03111
G1 X125.094 Y72.319 E18.04438
G1 X125.154 Y73.016 E18.07928
G1 X125.171 Y73.343 E18.09562
G1 X125.184 Y73.716 E18.11424
G1 X125.198 Y74.624 E18.15955
G1 X125.199 Y74.781 E18.16738
G1 X125.2 Y109.268 E19.88794
G1 X125.199 Y109.41 E19.89503
G1 X125.189 Y110.13 E19.93095
G1 X125.137 Y111.031 E19.97598
G1 X125.004 Y111.925 E20.02107
G1 X124.794 Y112.803 E20.06611
G1 X124.506 Y113.659 E20.11117
G1 X124.144 Y114.486 E20.15621
G1 X123.711 Y115.278 E20.20124
G1 X123.209 Y116.029 E20.24631
G1 X122.642 Y116.732 E20.29137
G1 X122.015 Y117.383 E20.33646
G1 X121.334 Y117.975 E20.38148
G1 X120.602 Y118.505 E20.42656
G1 X119.827 Y118.968 E20.4716
G1 X119.014 Y119.361 E20.51665
G1 X118.169 Y119.68 E20.56172
G1 X117.299 Y119.923 E20.60678
G1 X116.411 Y120.088 E20.65184
G1 X115.348 Y120.182 E20.70508
G1 X115.035 Y120.193 E20.72071
G1 X114.68 Y120.199 E20.73842
G1 X111.248 Y120.2 E20.90964
G1 X111.1 Y120.199 E20.91703
G1 X110.399 Y120.189 E20.952
G1 X109.497 Y120.136 E20.99708
G1 X108.604 Y120.004 E21.04212
G1 X107.725 Y119.793 E21.08722
G1 X106.869 Y119.505 E21.13228
G1 X106.042 Y119.143 E21.17732
G1 X105.25 Y118.709 E21.22237
G1 X104.5 Y118.206 E21.26743
G1 X103.613 Y117.474 E21.3248
G1 X103.288 Y117.173 E21.3469
G1 X103.164 Y117.056 E21.35541
G1 X101.828 Y115.777 E21.44768
G1 X99.948 Y114.076 E21.57417
G1 X98.882 Y113.166 E21.64409
G1 X98.761 Y113.06 E21.65212
G1 X98.303 Y112.656 E21.68259
G1 X97.652 Y112.03 E21.72765
G1 X97.06 Y111.348 E21.7727
G1 X96.531 Y110.616 E21.81776
G1 X96.068 Y109.841 E21.8628
G1 X95.676 Y109.027 E21.90787
G1 X95.4 Y108.311 E21.94616
G1 X95.362 Y108.2 E21.95201
G1 X95.107 Y107.333 E21.9971
G1 X94.931 Y106.447 E22.04216
G1 X94.833 Y105.55 E22.08718
G1 X94.813 Y105.055 E22.1119
G1 X94.801 Y104.286 E22.15027
G1 X94.8 Y104.127 E22.1582
G1 X94.8 Y74.698 E23.62642
G1 X94.801 Y74.565 E23.63305
G1 X94.812 Y73.723 E23.67507
G1 X94.836 Y73.143 E23.70403
G1 X94.862 Y72.772 E23.72258
G1 X94.928 Y72.128 E23.75488
G1 X94.968 Y71.83 E23.76988
G1 X95.057 Y71.277 E23.79782
G1 X95.106 Y71.02 E23.81088
G1 X95.246 Y70.394 E23.84288
G1 X95.323 Y70.094 E23.85833
G1 X95.475 Y69.562 E23.88594
G1 X95.563 Y69.283 E23.90053
G1 X95.72 Y68.825 E23.92469
G1 X95.79 Y68.635 E23.93479
G1 X96.088 Y67.912 E23.9738
G1 X96.302 Y67.445 E23.99943
G1 X96.776 Y66.534 E24.05066
G1 X97.027 Y66.106 E24.07542
G1 X97.454 Y65.44 E24.11489
G1 F1500 E17.61489
;MESH:116d5a09-a001-4f78-8ad4-c91565777ff1.stl
G0 F2400 X105.325 Y70.803
G0 X106.206 Y71.433
G0 X108.985 Y70.309
G0 X109.398 Y70.257
G0 X107.937 Y72.835
G0 X109.409 Y74.703
G0 X109.96 Y75.108
G0 X111.296 Y75.554
;TYPE:WALL-INNER
G1 F1500 E24.11489
G1 F1200 X111.539 Y75.524 E24.1271
G1 X111.776 Y75.473 E24.1392
G1 X112.009 Y75.4 E24.15138
G1 X112.233 Y75.306 E24.1635
G1 X112.449 Y75.191 E24.17571
G1 X112.652 Y75.055 E24.1879
G1 X112.841 Y74.902 E24.20003
G1 X113.015 Y74.732 E24.21217
G1 X113.173 Y74.546 E24.22434
G1 X113.314 Y74.346 E24.23655
G1 X113.434 Y74.132 E24.24879
G1 X113.532 Y73.912 E24.26081
G1 X113.612 Y73.682 E24.27296
G1 X113.668 Y73.444 E24.28515
G1 X113.703 Y73.202 E24.29735
G1 X113.713 Y72.959 E24.30949
G1 X113.703 Y72.715 E24.32167
G1 X113.668 Y72.474 E24.33382
G1 X113.612 Y72.236 E24.34602
G1 X113.562 Y72.091 E24.35367
G1 X113.532 Y72.005 E24.35821
G1 X113.49 Y71.91 E24.3634
G1 X113.433 Y71.784 E24.3703
G1 X113.374 Y71.679 E24.3763
G1 X113.314 Y71.573 E24.38238
G1 X113.257 Y71.49 E24.3874
G1 X113.174 Y71.371 E24.39464
G1 X113.109 Y71.295 E24.39963
G1 X113.015 Y71.185 E24.40685
G1 X112.964 Y71.135 E24.41041
G1 X112.841 Y71.015 E24.41899
G1 X112.773 Y70.96 E24.42335
G1 X112.652 Y70.862 E24.43112
