;FLAVOR:Marlin
;TIME:1377
;Filament used: 0.980036m
;Layer height: 0.28
;MINX:86.511
;MINY:97.7
;MINZ:0.3
;MAXX:133.489
;MAXY:129.3
;MAXZ:21.3
;Generated with Cura_SteamEngine 4.4.0
M140 S60
M105
M190 S60
M104 S200
M105
M109 S200
M82 ;absolute extrusion mode
M201 X500.00 Y500.00 Z100.00 E5000.00 ;Setup machine max acceleration
M203 X500.00 Y500.00 Z10.00 E50.00 ;Setup machine max feedrate
M204 P500.00 R1000.00 T500.00 ;Setup Print/Retract/Travel acceleration
M205 X8.00 Y8.00 Z0.40 E5.00 ;Setup Jerk
M220 S100 ;Reset Feedrate
M221 S100 ;Reset Flowrate

G28 ;Home

G92 E0 ;Reset Extruder
G1 Z2.0 F3000 ;Move Z Axis up
G1 X10.1 Y20 Z0.28 F5000.0 ;Move to start position
G1 X10.1 Y200.0 Z0.28 F1500.0 E15 ;Draw the first line
G1 X10.4 Y200.0 Z0.28 F5000.0 ;Move to side a little
G1 X10.4 Y20 Z0.28 F1500.0 E30 ;Draw the second line
G92 E0 ;Reset Extruder
G1 Z2.0 F3000 ;Move Z Axis up

G92 E0
G92 E0
G1 F1500 E-6.5
;LAYER_COUNT:76
;LAYER:0
M107
G0 F2400 X90.397 Y100.327 Z0.3
;TYPE:SKIRT
G1 F1500 E0
G1 F1200 X91.137 Y99.751 E0.04678
G1 X91.923 Y99.239 E0.09358
G1 X92.75 Y98.797 E0.14037
G1 X93.612 Y98.427 E0.18717
G1 X94.502 Y98.131 E0.23396
G1 X95.414 Y97.913 E0.28074
G1 X96.341 Y97.772 E0.32752
G1 X97.212 Y97.713 E0.37108
G1 X97.533 Y97.704 E0.3871
G1 X97.841 Y97.7 E0.40246
G1 X121.782 Y97.7 E1.59689
G1 X121.94 Y97.701 E1.60477
G1 X122.638 Y97.711 E1.6396
G1 X123.574 Y97.765 E1.68637
G1 X124.502 Y97.897 E1.73313
G1 X125.416 Y98.109 E1.77994
G1 X126.308 Y98.398 E1.82672
G1 X127.173 Y98.761 E1.87352
G1 X128.003 Y99.197 E1.9203
G1 X128.794 Y99.702 E1.96712
G1 X129.538 Y100.273 E2.01391
G1 X130.231 Y100.905 E2.0607
G1 X130.868 Y101.593 E2.10748
G1 X131.443 Y102.334 E2.15427
G1 X131.954 Y103.12 E2.20104
G1 X132.396 Y103.948 E2.24787
G1 X132.765 Y104.81 E2.29465
G1 X133.06 Y105.7 E2.34143
G1 X133.278 Y106.612 E2.38821
G1 X133.418 Y107.54 E2.43503
G1 X133.476 Y108.401 E2.47809
G1 X133.485 Y108.721 E2.49406
G1 X133.489 Y109.03 E2.50947
G1 X133.489 Y117.564 E2.93524
G1 X133.488 Y117.7 E2.94202
G1 X133.479 Y118.427 E2.9783
G1 X133.428 Y119.364 E3.02511
G1 X133.296 Y120.292 E3.07188
G1 X133.087 Y121.206 E3.11865
G1 X132.8 Y122.099 E3.16545
G1 X132.438 Y122.965 E3.21228
G1 X132.004 Y123.796 E3.25905
G1 X131.5 Y124.587 E3.30584
G1 X130.931 Y125.332 E3.35261
G1 X130.3 Y126.027 E3.39944
G1 X129.613 Y126.665 E3.44622
G1 X128.874 Y127.242 E3.49299
G1 X128.088 Y127.754 E3.53979
G1 X127.262 Y128.197 E3.58656
G1 X126.4 Y128.569 E3.63339
G1 X125.511 Y128.865 E3.68014
G1 X124.599 Y129.085 E3.72695
G1 X123.672 Y129.226 E3.77373
G1 X122.788 Y129.287 E3.81793
G1 X122.467 Y129.296 E3.83396
G1 X122.159 Y129.3 E3.84932
G1 X98.218 Y129.3 E5.04374
G1 X98.076 Y129.299 E5.05083
G1 X97.378 Y129.29 E5.08565
G1 X96.442 Y129.238 E5.13242
G1 X95.513 Y129.106 E5.17924
G1 X94.599 Y128.896 E5.22603
G1 X93.706 Y128.609 E5.27282
G1 X92.841 Y128.246 E5.31962
G1 X92.01 Y127.812 E5.36639
G1 X91.219 Y127.308 E5.41319
G1 X90.474 Y126.738 E5.45999
G1 X89.78 Y126.107 E5.50678
G1 X89.143 Y125.42 E5.55352
G1 X88.566 Y124.68 E5.60034
G1 X88.054 Y123.894 E5.64714
G1 X87.611 Y123.067 E5.69394
G1 X87.24 Y122.206 E5.74072
G1 X86.944 Y121.316 E5.78751
G1 X86.725 Y120.404 E5.83431
G1 X86.584 Y119.477 E5.88109
G1 X86.524 Y118.588 E5.92554
G1 X86.515 Y118.255 E5.94216
G1 X86.511 Y117.958 E5.95698
G1 X86.511 Y109.374 E6.38523
G1 X86.512 Y109.225 E6.39267
G1 X86.521 Y108.56 E6.42585
G1 X86.574 Y107.624 E6.47262
G1 X86.706 Y106.695 E6.51943
G1 X86.917 Y105.781 E6.56623
G1 X87.205 Y104.889 E6.613
G1 X87.568 Y104.024 E6.6598
G1 X88.003 Y103.193 E6.70659
G1 X88.507 Y102.403 E6.75334
G1 X89.077 Y101.658 E6.80014
G1 X89.709 Y100.964 E6.84697
G1 X90.397 Y100.327 E6.89375
G0 F2400 X90.785 Y100.523
G1 F1200 X91.521 Y99.97 E6.93968
G1 X92.302 Y99.482 E6.98562
G1 X93.122 Y99.064 E7.03154
G1 X93.976 Y98.719 E7.07749
G1 X94.856 Y98.449 E7.12342
G1 X95.756 Y98.257 E7.16933
G1 X96.67 Y98.143 E7.21528
G1 X97.223 Y98.113 E7.24291
G1 X97.544 Y98.104 E7.25893
G1 X97.841 Y98.1 E7.27375
G1 X121.782 Y98.1 E8.46817
G1 X121.934 Y98.101 E8.47576
G1 X122.632 Y98.111 E8.51058
G1 X123.551 Y98.164 E8.55651
G1 X124.462 Y98.297 E8.60244
G1 X125.358 Y98.508 E8.64837
G1 X126.232 Y98.796 E8.69428
G1 X127.079 Y99.159 E8.74025
G1 X127.89 Y99.594 E8.78616
G1 X128.66 Y100.098 E8.83208
G1 X129.384 Y100.667 E8.87802
G1 X130.056 Y101.297 E8.92397
G1 X130.671 Y101.982 E8.9699
G1 X131.224 Y102.718 E9.01583
G1 X131.711 Y103.499 E9.06175
G1 X132.128 Y104.32 E9.10769
G1 X132.473 Y105.174 E9.15364
G1 X132.742 Y106.054 E9.19955
G1 X132.934 Y106.955 E9.24551
G1 X133.047 Y107.868 E9.29141
G1 X133.076 Y108.412 E9.31859
G1 X133.085 Y108.732 E9.33456
G1 X133.089 Y109.03 E9.34943
G1 X133.089 Y117.564 E9.77519
G1 X133.088 Y117.695 E9.78172
G1 X133.079 Y118.422 E9.818
G1 X133.028 Y119.341 E9.86392
G1 X132.897 Y120.253 E9.90988
G1 X132.687 Y121.149 E9.9558
G1 X132.401 Y122.024 E10.00172
G1 X132.04 Y122.871 E10.04766
G1 X131.606 Y123.683 E10.09359
G1 X131.104 Y124.455 E10.13953
G1 X130.536 Y125.18 E10.18548
G1 X129.908 Y125.853 E10.23141
G1 X129.224 Y126.469 E10.27733
G1 X128.489 Y127.023 E10.32325
G1 X127.709 Y127.512 E10.36918
G1 X126.889 Y127.931 E10.41512
G1 X126.036 Y128.277 E10.46104
G1 X125.156 Y128.548 E10.50698
G1 X124.256 Y128.741 E10.5529
G1 X123.342 Y128.856 E10.59886
G1 X122.777 Y128.887 E10.62709
G1 X122.456 Y128.896 E10.64312
G1 X122.159 Y128.9 E10.65793
G1 X98.218 Y128.9 E11.85236
G1 X98.081 Y128.899 E11.85919
G1 X97.383 Y128.89 E11.89402
G1 X96.464 Y128.838 E11.93994
G1 X95.553 Y128.707 E11.98586
G1 X94.657 Y128.497 E12.03177
G1 X93.782 Y128.21 E12.07771
G1 X92.935 Y127.848 E12.12367
G1 X92.123 Y127.414 E12.1696
G1 X91.352 Y126.912 E12.2155
G1 X90.627 Y126.344 E12.26145
G1 X89.954 Y125.715 E12.30741
G1 X89.339 Y125.031 E12.3533
G1 X88.785 Y124.296 E12.39922
G1 X88.297 Y123.515 E12.44516
G1 X87.878 Y122.695 E12.4911
G1 X87.532 Y121.842 E12.53703
G1 X87.262 Y120.962 E12.58295
G1 X87.069 Y120.061 E12.62892
G1 X86.955 Y119.148 E12.67483
G1 X86.924 Y118.577 E12.70335
G1 X86.915 Y118.244 E12.71997
G1 X86.911 Y117.958 E12.73424
G1 X86.911 Y109.374 E13.1625
G1 X86.912 Y109.231 E13.16964
G1 X86.921 Y108.566 E13.20282
G1 X86.973 Y107.646 E13.24879
G1 X87.105 Y106.735 E13.29471
G1 X87.316 Y105.839 E13.34064
G1 X87.603 Y104.964 E13.38658
G1 X87.966 Y104.118 E13.43251
G1 X88.4 Y103.306 E13.47844
G1 X88.903 Y102.535 E13.52437
G1 X89.472 Y101.811 E13.57031
G1 X90.1 Y101.139 E13.6162
G1 X90.785 Y100.523 E13.66216
G0 F2400 X91.173 Y100.724
G1 F1200 X91.905 Y100.194 E13.70725
G1 X92.68 Y99.731 E13.75228
G1 X93.493 Y99.338 E13.79734
G1 X94.338 Y99.018 E13.84241
G1 X95.207 Y98.775 E13.88743
G1 X96.095 Y98.609 E13.9325
G1 X97.234 Y98.513 E13.98953
G1 X97.555 Y98.504 E14.00555
G1 X97.841 Y98.5 E14.01982
G1 X121.782 Y98.5 E15.21424
G1 X121.928 Y98.501 E15.22153
G1 X122.626 Y98.511 E15.25635
G1 X123.528 Y98.564 E15.30143
G1 X124.421 Y98.696 E15.34647
G1 X125.299 Y98.907 E15.39152
G1 X126.155 Y99.195 E15.43658
G1 X126.982 Y99.557 E15.48161
G1 X127.774 Y99.992 E15.5267
G1 X128.525 Y100.494 E15.57176
G1 X129.228 Y101.061 E15.61682
G1 X129.878 Y101.688 E15.66188
G1 X130.47 Y102.37 E15.70693
G1 X131 Y103.101 E15.75198
G1 X131.462 Y103.877 E15.79704
G1 X131.855 Y104.69 E15.84209
G1 X132.173 Y105.535 E15.88713
G1 X132.416 Y106.405 E15.9322
G1 X132.581 Y107.293 E15.97726
G1 X132.676 Y108.423 E16.03383
G1 X132.685 Y108.743 E16.04981
G1 X132.689 Y109.03 E16.06413
G1 X132.689 Y117.564 E16.48989
G1 X132.688 Y117.69 E16.49617
G1 X132.679 Y118.417 E16.53245
G1 X132.628 Y119.319 E16.57752
G1 X132.497 Y120.213 E16.6226
G1 X132.288 Y121.091 E16.66763
G1 X132.002 Y121.948 E16.7127
G1 X131.641 Y122.776 E16.75776
G1 X131.209 Y123.568 E16.80277
G1 X130.708 Y124.32 E16.84785
G1 X130.142 Y125.024 E16.89292
G1 X129.517 Y125.675 E16.93794
G1 X128.836 Y126.269 E16.98303
G1 X128.105 Y126.8 E17.0281
G1 X127.331 Y127.264 E17.07313
G1 X126.518 Y127.658 E17.1182
G1 X125.674 Y127.978 E17.16323
G1 X124.804 Y128.223 E17.20832
G1 X123.917 Y128.389 E17.25334
G1 X122.766 Y128.487 E17.31098
G1 X122.445 Y128.496 E17.327
G1 X122.159 Y128.5 E17.34127
G1 X98.218 Y128.5 E18.53569
G1 X98.086 Y128.499 E18.54227
G1 X97.388 Y128.49 E18.5771
G1 X96.487 Y128.439 E18.62212
G1 X95.593 Y128.307 E18.66721
G1 X94.715 Y128.098 E18.71224
G1 X93.858 Y127.811 E18.75733
G1 X93.031 Y127.45 E18.80235
G1 X92.238 Y127.017 E18.84742
G1 X91.487 Y126.516 E18.89246
G1 X90.783 Y125.95 E18.93753
G1 X90.132 Y125.324 E18.98259
G1 X89.539 Y124.643 E19.02764
G1 X89.009 Y123.912 E19.07268
G1 X88.545 Y123.137 E19.11775
G1 X88.151 Y122.324 E19.16282
G1 X87.831 Y121.48 E19.20785
G1 X87.587 Y120.61 E19.25293
G1 X87.421 Y119.722 E19.298
G1 X87.324 Y118.567 E19.35583
G1 X87.315 Y118.234 E19.37245
G1 X87.311 Y117.958 E19.38622
G1 X87.311 Y109.374 E19.81448
G1 X87.312 Y109.236 E19.82136
G1 X87.321 Y108.571 E19.85454
G1 X87.373 Y107.669 E19.89962
G1 X87.505 Y106.776 E19.94465
G1 X87.715 Y105.898 E19.98969
G1 X88.002 Y105.041 E20.03478
G1 X88.364 Y104.214 E20.07982
G1 X88.797 Y103.422 E20.12485
G1 X89.299 Y102.671 E20.16992
G1 X89.866 Y101.967 E20.21502
G1 X90.492 Y101.317 E20.26004
G1 X91.173 Y100.724 E20.30509
G1 F1500 E13.80509
;MESH:3039b766-6cd0-41aa-93e7-7f8c1772c3f0.stl
G0 F2400 X116.154 Y113.505
G0 X114.299 Y113.496
G0 X115.709 Y115.138
G0 X117.091 Y116.473
;TYPE:WALL-INNER
G1 F1500 E20.30509
G1 F1200 X117.342 Y116.496 E20.31767
G1 X117.592 Y116.498 E20.33014
G1 X117.849 Y116.481 E20.34299
G1 X118.105 Y116.438 E20.35594
G1 X118.349 Y116.376 E20.3685
G1 X118.59 Y116.293 E20.38122
G1 X118.828 Y116.187 E20.39422
G1 X119.047 Y116.063 E20.40677
G1 X119.258 Y115.923 E20.4194
G1 X119.455 Y115.766 E20.43197
G1 X119.643 Y115.591 E20.44479
G1 X119.814 Y115.395 E20.45776
G1 X119.963 Y115.195 E20.47021
G1 X120.098 Y114.98 E20.48287
G1 X120.215 Y114.753 E20.49561
G1 X120.312 Y114.515 E20.50843
G1 X120.387 Y114.273 E20.52107
G1 X120.442 Y114.027 E20.53365
G1 X120.477 Y113.773 E20.54644
G1 X120.488 Y113.522 E20.55898
G1 X120.481 Y113.265 E20.5718
G1 X120.449 Y113.008 E20.58472
G1 X120.397 Y112.762 E20.59727
G1 X120.325 Y112.52 E20.60987
G1 X120.231 Y112.28 E20.62272
G1 X120.118 Y112.055 E20.63529
G1 X119.986 Y111.835 E20.64809
G1 X119.833 Y111.629 E20.66089
G1 X119.667 Y111.436 E20.67359
G1 X119.484 Y111.26 E20.68626
G1 X119.288 Y111.1 E20.69888
G1 X119.077 Y110.955 E20.71165
G1 X118.856 Y110.829 E20.72434
G1 X118.621 Y110.722 E20.73723
G1 X118.382 Y110.638 E20.74986
G1 X118.141 Y110.572 E20.76233
G1 X117.89 Y110.527 E20.77505
G1 X117.636 Y110.504 E20.78778
G1 X117.386 Y110.502 E20.80025
G1 X117.129 Y110.519 E20.8131
G1 X116.872 Y110.562 E20.8261
G1 X116.628 Y110.626 E20.83868
G1 X116.389 Y110.707 E20.85127
G1 X116.151 Y110.813 E20.86427
G1 X115.928 Y110.937 E20.877
G1 X115.719 Y111.077 E20.88955
G1 X115.52 Y111.236 E20.90226
G1 X115.334 Y111.412 E20.91504
G1 X115.164 Y111.605 E20.92787
G1 X115.015 Y111.805 E20.94031
G1 X114.88 Y112.019 E20.95293
G1 X114.762 Y112.247 E20.96574
G1 X114.666 Y112.485 E20.97854
G1 X114.59 Y112.726 E20.99115
G1 X114.536 Y112.975 E21.00386
G1 X114.501 Y113.225 E21.01646
G1 X114.489 Y113.497 E21.03004
G1 X114.499 Y113.755 E21.04292
G1 X114.529 Y113.99 E21.05474
G1 X114.58 Y114.237 E21.06732
G1 X114.654 Y114.48 E21.08
G1 X114.746 Y114.719 E21.09277
G1 X114.861 Y114.947 E21.10551
G1 X114.992 Y115.166 E21.11825
G1 X115.144 Y115.371 E21.13098
G1 X115.31 Y115.563 E21.14364
G1 X115.493 Y115.74 E21.15634
G1 X115.69 Y115.9 E21.169
G1 X115.898 Y116.044 E21.18163
G1 X116.122 Y116.172 E21.1945
G1 X116.357 Y116.278 E21.20736
G1 X116.594 Y116.362 E21.2199
G1 X116.837 Y116.428 E21.23247
G1 X117.091 Y116.473 E21.24533
G0 F2400 X117.144 Y116.076
G1 F1200 X117.362 Y116.096 E21.25626
G1 X117.58 Y116.098 E21.26713
G1 X117.802 Y116.083 E21.27823
G1 X118.022 Y116.046 E21.28936
G1 X118.234 Y115.992 E21.30028
G1 X118.443 Y115.92 E21.31131
G1 X118.648 Y115.829 E21.3225
G1 X118.838 Y115.722 E21.33338
G1 X119.022 Y115.6 E21.34439
G1 X119.193 Y115.463 E21.35532
G1 X119.355 Y115.312 E21.36637
G1 X119.503 Y115.143 E21.37758
G1 X119.633 Y114.969 E21.38841
G1 X119.75 Y114.782 E21.39942
G1 X119.851 Y114.586 E21.41042
G1 X119.935 Y114.38 E21.42152
G1 X120 Y114.17 E21.43249
G1 X120.048 Y113.956 E21.44343
G1 X120.078 Y113.737 E21.45446
G1 X120.088 Y113.518 E21.46539
G1 X120.082 Y113.296 E21.47647
G1 X120.054 Y113.074 E21.48764
G1 X120.009 Y112.861 E21.4985
G1 X119.946 Y112.65 E21.50948
G1 X119.865 Y112.443 E21.52057
G1 X119.767 Y112.248 E21.53146
G1 X119.653 Y112.057 E21.54256
G1 X119.521 Y111.879 E21.55361
G1 X119.376 Y111.711 E21.56469
G1 X119.218 Y111.559 E21.57562
G1 X119.048 Y111.42 E21.58658
G1 X118.865 Y111.294 E21.59766
G1 X118.674 Y111.186 E21.60861
G1 X118.471 Y111.093 E21.61975
G1 X118.263 Y111.02 E21.63075
G1 X118.053 Y110.963 E21.6416
G1 X117.836 Y110.924 E21.6526
G1 X117.616 Y110.904 E21.66363
G1 X117.398 Y110.902 E21.6745
G1 X117.176 Y110.917 E21.6856
G1 X116.955 Y110.954 E21.69678
G1 X116.743 Y111.009 E21.70771
G1 X116.535 Y111.08 E21.71867
G1 X116.33 Y111.171 E21.72986
G1 X116.137 Y111.279 E21.7409
G1 X115.955 Y111.4 E21.7518
G1 X115.783 Y111.538 E21.7628
G1 X115.622 Y111.69 E21.77385
G1 X115.475 Y111.857 E21.78495
G1 X115.345 Y112.031 E21.79579
G1 X115.228 Y112.218 E21.80679
G1 X115.126 Y112.414 E21.81781
G1 X115.043 Y112.62 E21.82889
G1 X114.977 Y112.829 E21.83983
G1 X114.93 Y113.045 E21.85086
G1 X114.9 Y113.262 E21.86179
G1 X114.889 Y113.498 E21.87357
G1 X114.898 Y113.721 E21.88471
G1 X114.924 Y113.924 E21.89492
G1 X114.968 Y114.139 E21.90587
G1 X115.032 Y114.35 E21.91687
G1 X115.112 Y114.557 E21.92794
G1 X115.211 Y114.754 E21.93894
G1 X115.325 Y114.943 E21.94995
G1 X115.457 Y115.121 E21.96101
G1 X115.601 Y115.288 E21.97201
G1 X115.759 Y115.441 E21.98298
G1 X115.93 Y115.58 E21.99397
G1 X116.111 Y115.705 E22.00495
G1 X116.304 Y115.815 E22.01603
G1 X116.507 Y115.907 E22.02715
G1 X116.713 Y115.98 E22.03805
G1 X116.924 Y116.037 E22.04896
G1 X117.144 Y116.076 E22.06011
G0 F2400 X117.197 Y115.679
;TYPE:WALL-OUTER
G1 F1200 X117.382 Y115.696 E22.06937
G1 X117.568 Y115.698 E22.07865
G1 X117.755 Y115.685 E22.08801
G1 X117.939 Y115.654 E22.09732
G1 X118.119 Y115.608 E22.10658
G1 X118.297 Y115.547 E22.11597
G1 X118.468 Y115.471 E22.12531
G1 X118.63 Y115.38 E22.13458
G1 X118.786 Y115.277 E22.1439
G1 X118.931 Y115.16 E22.1532
G1 X119.068 Y115.033 E22.16252
G1 X119.192 Y114.891 E22.17192
G1 X119.303 Y114.743 E22.18115
G1 X119.402 Y114.584 E22.1905
G1 X119.487 Y114.419 E22.19976
G1 X119.558 Y114.245 E22.20913
G1 X119.613 Y114.067 E22.21843
G1 X119.654 Y113.885 E22.22774
G1 X119.679 Y113.7 E22.23705
G1 X119.688 Y113.514 E22.24634
G1 X119.683 Y113.327 E22.25567
G1 X119.659 Y113.141 E22.26503
G1 X119.621 Y112.959 E22.27431
G1 X119.568 Y112.781 E22.28357
G1 X119.499 Y112.606 E22.29296
G1 X119.416 Y112.44 E22.30222
G1 X119.32 Y112.279 E22.31157
G1 X119.209 Y112.129 E22.32088
G1 X119.086 Y111.987 E22.33025
G1 X118.952 Y111.858 E22.33953
G1 X118.808 Y111.74 E22.34882
G1 X118.653 Y111.634 E22.35819
G1 X118.491 Y111.542 E22.36748
G1 X118.321 Y111.464 E22.37681
G1 X118.145 Y111.402 E22.38612
G1 X117.966 Y111.354 E22.39537
G1 X117.782 Y111.321 E22.40469
G1 X117.596 Y111.304 E22.41401
G1 X117.41 Y111.302 E22.42329
G1 X117.223 Y111.315 E22.43264
G1 X117.038 Y111.346 E22.442
G1 X116.858 Y111.392 E22.45127
G1 X116.681 Y111.453 E22.46061
G1 X116.509 Y111.529 E22.46999
G1 X116.346 Y111.62 E22.47931
G1 X116.192 Y111.723 E22.48855
G1 X116.046 Y111.84 E22.49788
G1 X115.91 Y111.968 E22.5072
G1 X115.786 Y112.109 E22.51657
G1 X115.675 Y112.257 E22.5258
G1 X115.576 Y112.416 E22.53514
G1 X115.49 Y112.581 E22.54443
