;FLAVOR:Marlin
;TIME:1837
;Filament used: 1.6342m
;Layer height: 0.28
;MINX:84
;MINY:67.757
;MINZ:0.3
;MAXX:135.999
;MAXY:152.236
;MAXZ:3.94
;Generated with Cura_SteamEngine 4.4.0
M140 S60
M105
M190 S60
M104 S200
M105
M109 S200
M82 ;absolute extrusion mode
M201 X500.00 Y500.00 Z100.00 E5000.00 ;Setup machine max acceleration
M203 X500.00 Y500.00 Z10.00 E50.00 ;Setup machine max feedrate
M204 P500.00 R1000.00 T500.00 ;Setup Print/Retract/Travel acceleration
M205 X8.00 Y8.00 Z0.40 E5.00 ;Setup Jerk
M220 S100 ;Reset Feedrate
M221 S100 ;Reset Flowrate

G28 ;Home

G92 E0 ;Reset Extruder
G1 Z2.0 F3000 ;Move Z Axis up
G1 X10.1 Y20 Z0.28 F5000.0 ;Move to start position
G1 X10.1 Y200.0 Z0.28 F1500.0 E15 ;Draw the first line
G1 X10.4 Y200.0 Z0.28 F5000.0 ;Move to side a little
G1 X10.4 Y20 Z0.28 F1500.0 E30 ;Draw the second line
G92 E0 ;Reset Extruder
G1 Z2.0 F3000 ;Move Z Axis up

G92 E0
G92 E0
G1 F1500 E-6.5
;LAYER_COUNT:14
;LAYER:0
M107
G0 F2400 X90.298 Y76.805 Z0.3
;TYPE:SKIRT
G1 F1500 E0
G1 F1200 X90.556 Y76.501 E0.01989
G1 X90.73 Y76.304 E0.03301
G1 X91.07 Y75.937 E0.05797
G1 X91.547 Y75.444 E0.09219
G1 X91.867 Y75.126 E0.1147
G1 X92.18 Y74.828 E0.13626
G1 X92.599 Y74.449 E0.16444
G1 X93.54 Y73.641 E0.22632
G1 X93.834 Y73.397 E0.24538
G1 X94.009 Y73.257 E0.25657
G1 X94.39 Y72.966 E0.28048
G1 X94.914 Y72.583 E0.31286
G1 X95.284 Y72.324 E0.3354
G1 X95.835 Y71.955 E0.36848
G1 X96.264 Y71.682 E0.39385
G1 X96.823 Y71.344 E0.42644
G1 X97.217 Y71.117 E0.44913
G1 X97.752 Y70.823 E0.47958
G1 X98.186 Y70.597 E0.504
G1 X98.612 Y70.387 E0.52769
G1 X99.111 Y70.156 E0.55512
G1 X100.242 Y69.667 E0.6166
G1 X100.558 Y69.536 E0.63366
G1 X100.798 Y69.441 E0.64654
G1 X101.269 Y69.267 E0.67159
G1 X101.865 Y69.062 E0.70304
G1 X102.33 Y68.914 E0.72738
G1 X102.94 Y68.734 E0.75911
G1 X103.39 Y68.611 E0.78239
G1 X103.859 Y68.494 E0.8065
G1 X104.408 Y68.372 E0.83456
G1 X105.608 Y68.137 E0.89557
G1 X105.967 Y68.073 E0.91376
G1 X106.196 Y68.036 E0.92533
G1 X106.702 Y67.966 E0.95082
G1 X107.157 Y67.914 E0.97366
G1 X107.7 Y67.866 E1.00086
G1 X108.944 Y67.786 E1.06305
G1 X109.32 Y67.768 E1.08183
G1 X109.553 Y67.761 E1.09346
G1 X110.026 Y67.757 E1.11706
G1 X110.489 Y67.763 E1.14016
G1 X111.059 Y67.785 E1.16862
G1 X112.291 Y67.865 E1.23021
G1 X112.664 Y67.896 E1.24889
G1 X112.916 Y67.921 E1.26152
G1 X113.406 Y67.981 E1.28615
G1 X113.848 Y68.045 E1.30843
G1 X114.384 Y68.136 E1.33556
G1 X115.585 Y68.371 E1.39661
G1 X115.966 Y68.452 E1.41604
G1 X116.211 Y68.509 E1.42859
G1 X116.688 Y68.632 E1.45317
G1 X117.312 Y68.807 E1.4855
G1 X117.749 Y68.939 E1.50828
G1 X118.36 Y69.138 E1.54034
G1 X118.807 Y69.294 E1.56396
G1 X119.232 Y69.453 E1.58659
G1 X119.751 Y69.663 E1.61453
G1 X120.898 Y70.16 E1.67689
G1 X121.28 Y70.334 E1.69783
G1 X121.474 Y70.427 E1.70857
G1 X121.865 Y70.624 E1.73041
G1 X122.462 Y70.94 E1.76411
G1 X122.897 Y71.183 E1.78897
G1 X123.466 Y71.518 E1.82191
G1 X123.825 Y71.739 E1.84294
G1 X124.33 Y72.063 E1.87288
G1 X124.771 Y72.361 E1.89943
G1 X125.313 Y72.747 E1.93263
G1 X125.654 Y73 E1.95381
G1 X126.018 Y73.281 E1.97675
G1 X126.468 Y73.648 E2.00572
G1 X127.403 Y74.452 E2.06724
G1 X127.653 Y74.673 E2.08389
G1 X127.816 Y74.822 E2.09491
G1 X128.213 Y75.203 E2.12236
G1 X128.691 Y75.686 E2.15626
G1 X128.993 Y76.004 E2.17814
G1 X129.3 Y76.34 E2.20085
G1 X129.675 Y76.772 E2.22939
G1 X130.421 Y77.679 E2.28798
G1 X130.658 Y77.978 E2.30702
G1 X130.838 Y78.213 E2.32178
G1 X131.127 Y78.609 E2.34624
G1 X131.496 Y79.138 E2.37842
G1 X131.747 Y79.513 E2.40093
G1 X132.098 Y80.063 E2.43348
G1 X132.349 Y80.478 E2.45768
G1 X132.568 Y80.857 E2.47952
G1 X132.837 Y81.351 E2.50758
G1 X133.394 Y82.44 E2.56861
G1 X133.557 Y82.771 E2.58701
G1 X133.674 Y83.02 E2.60074
G1 X133.874 Y83.473 E2.62544
G1 X134.124 Y84.074 E2.65792
G1 X134.288 Y84.492 E2.68032
G1 X134.499 Y85.064 E2.71074
G1 X134.662 Y85.539 E2.73579
G1 X134.861 Y86.165 E2.76856
G1 X134.994 Y86.617 E2.79207
G1 X135.169 Y87.262 E2.82541
G1 X135.272 Y87.67 E2.84641
G1 X135.37 Y88.095 E2.86817
G1 X135.491 Y88.699 E2.8989
G1 X135.7 Y89.912 E2.96031
G1 X135.817 Y90.808 E3.00539
G1 X135.932 Y92.104 E3.0703
G1 X135.96 Y92.509 E3.09055
G1 X135.976 Y92.819 E3.10604
G1 X135.99 Y93.276 E3.12885
G1 X135.999 Y94.178 E3.17385
G1 X135.999 Y94.414 E3.18563
G1 X135.989 Y95.284 E3.22904
G1 X135.939 Y96.221 E3.27585
G1 X135.866 Y96.807 E3.30531
G1 X135.829 Y97.051 E3.31762
G1 X135.776 Y97.37 E3.33376
G1 X135.736 Y97.59 E3.34491
G1 X135.718 Y97.684 E3.34969
G1 X128.305 Y136.522 E5.3223
G1 X128.277 Y136.664 E5.32952
G1 X128.097 Y137.544 E5.37434
G1 X128.014 Y137.917 E5.3934
G1 X127.967 Y138.112 E5.40341
G1 X127.905 Y138.358 E5.41606
G1 X127.828 Y138.648 E5.43103
G1 X127.655 Y139.233 E5.46147
G1 X127.496 Y139.721 E5.48707
G1 X127.254 Y140.389 E5.52252
G1 X127.096 Y140.785 E5.54379
G1 X126.855 Y141.344 E5.57416
G1 X126.678 Y141.725 E5.59512
G1 X126.37 Y142.337 E5.6293
G1 X126.135 Y142.77 E5.65388
G1 X125.812 Y143.326 E5.68596
G1 X125.599 Y143.669 E5.7061
G1 X125.27 Y144.167 E5.73588
G1 X125.017 Y144.529 E5.75792
G1 X124.58 Y145.112 E5.79427
G1 X124.247 Y145.527 E5.82081
G1 X123.821 Y146.028 E5.85362
G1 X123.571 Y146.304 E5.8722
G1 X123.063 Y146.829 E5.90865
G1 X122.645 Y147.233 E5.93765
G1 X122.209 Y147.632 E5.96713
G1 X122.005 Y147.809 E5.98061
G1 X121.527 Y148.201 E6.01145
G1 X121.103 Y148.529 E6.03819
G1 X120.523 Y148.948 E6.07389
G1 X120.139 Y149.207 E6.097
G1 X119.555 Y149.574 E6.13141
G1 X119.175 Y149.797 E6.15339
G1 X118.63 Y150.097 E6.18443
G1 X118.248 Y150.293 E6.20585
G1 X117.694 Y150.558 E6.23649
G1 X117.307 Y150.73 E6.25762
G1 X116.614 Y151.01 E6.29491
G1 X116.105 Y151.196 E6.32194
G1 X115.467 Y151.407 E6.35547
G1 X115.057 Y151.529 E6.37681
G1 X114.441 Y151.693 E6.40861
G1 X114.046 Y151.786 E6.42886
G1 X113.401 Y151.918 E6.4617
G1 X112.91 Y152.003 E6.48657
G1 X112.364 Y152.083 E6.5141
G1 X112.052 Y152.121 E6.52978
G1 X111.264 Y152.189 E6.56924
G1 X110.554 Y152.224 E6.6047
G1 X109.859 Y152.236 E6.63938
G1 X109.572 Y152.232 E6.6537
G1 X108.915 Y152.203 E6.68651
G1 X108.387 Y152.164 E6.71292
G1 X107.885 Y152.115 E6.73809
G1 X107.602 Y152.081 E6.75231
G1 X106.894 Y151.973 E6.78804
G1 X106.332 Y151.868 E6.81656
G1 X105.601 Y151.705 E6.85393
G1 X105.179 Y151.596 E6.87567
G1 X104.55 Y151.414 E6.90834
G1 X104.104 Y151.27 E6.93172
G1 X103.516 Y151.061 E6.96286
G1 X103.154 Y150.921 E6.98222
G1 X102.604 Y150.691 E7.01196
G1 X102.2 Y150.509 E7.03407
G1 X101.571 Y150.202 E7.06899
G1 X101.146 Y149.977 E7.09298
G1 X100.529 Y149.624 E7.12844
G1 X100.095 Y149.357 E7.15387
G1 X99.542 Y148.993 E7.1869
G1 X99.207 Y148.758 E7.20731
G1 X98.7 Y148.381 E7.23883
G1 X98.37 Y148.12 E7.25982
G1 X97.884 Y147.712 E7.29148
G1 X97.559 Y147.423 E7.31318
G1 X97.033 Y146.923 E7.34938
G1 X96.632 Y146.516 E7.37789
G1 X96.269 Y146.129 E7.40436
G1 X96.108 Y145.949 E7.41641
G1 X95.63 Y145.376 E7.45364
G1 X95.235 Y144.869 E7.4857
G1 X94.805 Y144.279 E7.52213
G1 X94.618 Y144.003 E7.53876
G1 X94.354 Y143.594 E7.56305
G1 X94.121 Y143.215 E7.58524
G1 X93.72 Y142.504 E7.62597
G1 X93.458 Y141.997 E7.65444
G1 X93.167 Y141.391 E7.68798
G1 X93.012 Y141.04 E7.70712
G1 X92.793 Y140.504 E7.73601
G1 X92.652 Y140.133 E7.75581
G1 X92.433 Y139.501 E7.78918
G1 X92.277 Y139.001 E7.81531
G1 X92.098 Y138.359 E7.84856
G1 X92.024 Y138.059 E7.86398
G1 X91.937 Y137.678 E7.88347
G1 X91.72 Y136.641 E7.93633
G1 X91.682 Y136.451 E7.946
G1 X84.32 Y97.885 E9.9048
G1 X84.29 Y97.719 E9.91322
G1 X84.175 Y97.062 E9.9465
G1 X84.053 Y96.132 E9.99329
G1 X84.016 Y95.531 E10.02333
G1 X84.007 Y95.261 E10.03681
G1 X84.001 Y94.913 E10.05418
G1 X84 Y94.306 E10.08446
G1 X84.001 Y94.156 E10.09194
G1 X84.01 Y93.404 E10.12946
G1 X84.016 Y93.15 E10.14214
G1 X84.032 Y92.694 E10.1649
G1 X84.065 Y92.138 E10.19269
G1 X84.171 Y90.905 E10.25443
G1 X84.29 Y89.985 E10.30071
G1 X84.504 Y88.739 E10.36379
G1 X84.58 Y88.339 E10.3841
G1 X84.634 Y88.082 E10.3972
G1 X84.741 Y87.621 E10.42081
G1 X84.904 Y86.983 E10.45366
G1 X85.03 Y86.533 E10.47698
G1 X85.215 Y85.919 E10.50897
G1 X85.369 Y85.447 E10.53374
G1 X85.585 Y84.832 E10.56626
G1 X85.755 Y84.38 E10.59035
G1 X85.987 Y83.802 E10.62143
G1 X86.162 Y83.39 E10.64376
G1 X86.353 Y82.965 E10.667
G1 X86.595 Y82.46 E10.69494
G1 X87.163 Y81.351 E10.75711
G1 X87.359 Y80.986 E10.77777
G1 X87.47 Y80.788 E10.7891
G1 X87.695 Y80.405 E10.81126
G1 X88.04 Y79.844 E10.84412
G1 X88.3 Y79.441 E10.86804
G1 X88.656 Y78.915 E10.89973
G1 X88.935 Y78.521 E10.92382
G1 X89.215 Y78.144 E10.94725
G1 X89.543 Y77.725 E10.97379
G1 X90.298 Y76.805 E11.03317
G0 F2400 X90.607 Y77.059
G1 F1200 X90.856 Y76.766 E11.05235
G1 X91.03 Y76.569 E11.06547
G1 X91.357 Y76.215 E11.08951
G1 X91.834 Y75.722 E11.12373
G1 X92.143 Y75.416 E11.14543
G1 X92.456 Y75.118 E11.16699
G1 X92.86 Y74.753 E11.19415
G1 X93.801 Y73.945 E11.25603
G1 X94.084 Y73.71 E11.27439
G1 X94.259 Y73.57 E11.28557
G1 X94.626 Y73.289 E11.30863
G1 X95.15 Y72.906 E11.34101
G1 X95.507 Y72.657 E11.36272
G1 X96.058 Y72.288 E11.39581
G1 X96.471 Y72.024 E11.42026
G1 X97.03 Y71.686 E11.45285
G1 X97.41 Y71.467 E11.47473
G1 X97.945 Y71.173 E11.50519
G1 X98.363 Y70.955 E11.52871
G1 X98.789 Y70.745 E11.55241
G1 X99.269 Y70.523 E11.57879
G1 X100.4 Y70.034 E11.64026
G1 X100.706 Y69.908 E11.65677
G1 X100.946 Y69.813 E11.66965
G1 X101.399 Y69.645 E11.69376
G1 X101.995 Y69.44 E11.7252
G1 X102.443 Y69.297 E11.74866
G1 X103.053 Y69.117 E11.78039
G1 X103.487 Y68.999 E11.80283
G1 X103.956 Y68.882 E11.82695
G1 X104.485 Y68.765 E11.85398
G1 X105.685 Y68.53 E11.91498
G1 X106.031 Y68.468 E11.93252
G1 X106.26 Y68.431 E11.94409
G1 X106.747 Y68.364 E11.96862
G1 X107.202 Y68.312 E11.99146
G1 X107.726 Y68.265 E12.01771
G1 X108.97 Y68.185 E12.0799
G1 X109.332 Y68.168 E12.09798
G1 X109.565 Y68.161 E12.10961
G1 X110.02 Y68.157 E12.13231
G1 X110.483 Y68.163 E12.15542
G1 X111.033 Y68.184 E12.18288
G1 X112.265 Y68.264 E12.24447
G1 X112.624 Y68.294 E12.26244
G1 X112.876 Y68.319 E12.27508
G1 X113.349 Y68.376 E12.29885
G1 X113.791 Y68.44 E12.32113
G1 X114.308 Y68.528 E12.34729
G1 X115.509 Y68.763 E12.40835
G1 X115.875 Y68.842 E12.42703
G1 X116.12 Y68.899 E12.43957
G1 X116.58 Y69.017 E12.46327
G1 X117.204 Y69.192 E12.4956
G1 X117.625 Y69.319 E12.51754
G1 X118.236 Y69.518 E12.5496
G1 X118.667 Y69.669 E12.57238
G1 X119.092 Y69.828 E12.59502
G1 X119.592 Y70.03 E12.62192
G1 X120.739 Y70.527 E12.68429
G1 X121.107 Y70.695 E12.70447
G1 X121.301 Y70.788 E12.71521
G1 X121.678 Y70.977 E12.73624
G1 X122.275 Y71.293 E12.76994
G1 X122.694 Y71.528 E12.79391
G1 X123.263 Y71.863 E12.82685
G1 X123.609 Y72.075 E12.8471
G1 X124.114 Y72.399 E12.87703
G1 X124.539 Y72.687 E12.90265
G1 X125.081 Y73.073 E12.93584
G1 X125.409 Y73.316 E12.95621
G1 X125.773 Y73.597 E12.97915
G1 X126.207 Y73.951 E13.00709
G1 X127.142 Y74.755 E13.06861
G1 X127.383 Y74.968 E13.08466
G1 X127.546 Y75.117 E13.09568
G1 X127.928 Y75.485 E13.12214
G1 X128.406 Y75.968 E13.15604
G1 X128.697 Y76.274 E13.17711
G1 X129.004 Y76.61 E13.19982
G1 X129.366 Y77.027 E13.22737
G1 X130.112 Y77.934 E13.28596
G1 X130.34 Y78.221 E13.30424
G1 X130.52 Y78.456 E13.31901
G1 X130.799 Y78.838 E13.34261
G1 X131.168 Y79.367 E13.37479
G1 X131.409 Y79.729 E13.39649
G1 X131.76 Y80.279 E13.42904
G1 X132.003 Y80.678 E13.45235
G1 X132.222 Y81.057 E13.47418
G1 X132.481 Y81.533 E13.50122
G1 X133.038 Y82.622 E13.56224
G1 X133.195 Y82.941 E13.57998
G1 X133.312 Y83.19 E13.59371
G1 X133.505 Y83.627 E13.61754
G1 X133.755 Y84.228 E13.65002
G1 X133.913 Y84.63 E13.67157
G1 X134.124 Y85.202 E13.70198
G1 X134.281 Y85.66 E13.72614
G1 X134.48 Y86.286 E13.75891
G1 X134.608 Y86.721 E13.78153
G1 X134.783 Y87.366 E13.81487
G1 X134.882 Y87.76 E13.83514
G1 X134.98 Y88.185 E13.8569
G1 X135.097 Y88.767 E13.88652
G1 X135.306 Y89.98 E13.94793
G1 X135.419 Y90.843 E13.99135
G1 X135.534 Y92.139 E14.05626
G1 X135.561 Y92.53 E14.07581
G1 X135.577 Y92.84 E14.0913
G1 X135.59 Y93.28 E14.11326
G1 X135.599 Y94.182 E14.15827
G1 X135.599 Y94.41 E14.16964
G1 X135.589 Y95.28 E14.21305
G1 X135.539 Y96.199 E14.25896
G1 X135.47 Y96.747 E14.28652
G1 X135.433 Y96.991 E14.29883
G1 X135.382 Y97.298 E14.31436
G1 X135.342 Y97.518 E14.32551
G1 X135.325 Y97.609 E14.33013
G1 X127.912 Y136.447 E16.30275
G1 X127.885 Y136.584 E16.30971
G1 X127.705 Y137.464 E16.35453
G1 X127.625 Y137.824 E16.37293
G1 X127.578 Y138.019 E16.38293
G1 X127.518 Y138.255 E16.39508
G1 X127.441 Y138.545 E16.41005
G1 X127.275 Y139.109 E16.43938
G1 X127.116 Y139.597 E16.46499
G1 X126.882 Y140.241 E16.49917
G1 X126.724 Y140.637 E16.52044
G1 X126.492 Y141.175 E16.54967
G1 X126.315 Y141.556 E16.57063
G1 X126.018 Y142.146 E16.60359
G1 X125.783 Y142.579 E16.62817
G1 X125.472 Y143.115 E16.65908
G1 X125.259 Y143.458 E16.67923
G1 X124.942 Y143.938 E16.70793
G1 X124.689 Y144.3 E16.72996
G1 X124.268 Y144.862 E16.76499
G1 X123.935 Y145.277 E16.79154
G1 X123.524 Y145.759 E16.82314
G1 X123.274 Y146.035 E16.84172
G1 X122.785 Y146.541 E16.87683
G1 X122.367 Y146.945 E16.90583
G1 X121.947 Y147.329 E16.93422
G1 X121.743 Y147.506 E16.94769
G1 X121.282 Y147.884 E16.97744
G1 X120.858 Y148.212 E17.00418
G1 X120.299 Y148.616 E17.03859
G1 X119.915 Y148.875 E17.0617
G1 X119.353 Y149.229 E17.09484
G1 X118.973 Y149.452 E17.11682
G1 X118.447 Y149.741 E17.14676
G1 X118.065 Y149.937 E17.16818
G1 X117.531 Y150.192 E17.1977
G1 X117.144 Y150.364 E17.21883
G1 X116.477 Y150.634 E17.25473
G1 X115.968 Y150.82 E17.28177
G1 X115.353 Y151.024 E17.31409
G1 X114.943 Y151.146 E17.33544
G1 X114.349 Y151.304 E17.3661
G1 X113.954 Y151.397 E17.38635
G1 X113.333 Y151.524 E17.41797
G1 X112.842 Y151.609 E17.44283
G1 X112.316 Y151.686 E17.46935
G1 X112.004 Y151.724 E17.48503
G1 X111.244 Y151.789 E17.52309
G1 X110.534 Y151.824 E17.55855
G1 X109.864 Y151.836 E17.59198
G1 X109.577 Y151.832 E17.6063
G1 X108.944 Y151.804 E17.63792
G1 X108.416 Y151.765 E17.66433
G1 X107.933 Y151.718 E17.68854
G1 X107.65 Y151.684 E17.70276
G1 X106.967 Y151.58 E17.73723
G1 X106.405 Y151.475 E17.76575
G1 X105.701 Y151.318 E17.80174
G1 X105.279 Y151.209 E17.82348
G1 X104.673 Y151.033 E17.85496
G1 X104.227 Y150.889 E17.87835
G1 X103.661 Y150.688 E17.90831
G1 X103.299 Y150.548 E17.92768
G1 X102.768 Y150.327 E17.95637
G1 X102.364 Y150.145 E17.97848
G1 X101.758 Y149.848 E18.01215
G1 X101.333 Y149.623 E18.03614
G1 X100.739 Y149.283 E18.07028
G1 X100.305 Y149.016 E18.09571
G1 X99.772 Y148.666 E18.12752
G1 X99.437 Y148.431 E18.14793
G1 X98.948 Y148.067 E18.17835
G1 X98.618 Y147.806 E18.19934
G1 X98.15 Y147.413 E18.22983
G1 X97.825 Y147.124 E18.25152
G1 X97.318 Y146.642 E18.28642
G1 X96.917 Y146.235 E18.31493
G1 X96.567 Y145.863 E18.34041
G1 X96.406 Y145.683 E18.35246
G1 X95.945 Y145.131 E18.38834
G1 X95.55 Y144.624 E18.42041
G1 X95.137 Y144.055 E18.45548
G1 X94.95 Y143.779 E18.47212
G1 X94.695 Y143.384 E18.49557
G1 X94.462 Y143.005 E18.51777
G1 X94.075 Y142.32 E18.55702
G1 X93.813 Y141.813 E18.58549
G1 X93.533 Y141.229 E18.6178
G1 X93.378 Y140.878 E18.63695
G1 X93.166 Y140.362 E18.66478
G1 X93.025 Y139.991 E18.68458
G1 X92.815 Y139.382 E18.71672
G1 X92.659 Y138.882 E18.74285
G1 X92.486 Y138.264 E18.77487
G1 X92.412 Y137.964 E18.79028
G1 X92.329 Y137.596 E18.8091
G1 X92.112 Y136.559 E18.86196
G1 X92.075 Y136.376 E18.87127
G1 X84.713 Y97.81 E20.83008
G1 X84.684 Y97.65 E20.83819
G1 X84.569 Y96.993 E20.87147
G1 X84.45 Y96.08 E20.91741
G1 X84.416 Y95.518 E20.94549
G1 X84.407 Y95.248 E20.95897
G1 X84.401 Y94.912 E20.97574
G1 X84.4 Y94.305 E21.00602
G1 X84.401 Y94.161 E21.01321
G1 X84.41 Y93.409 E21.05073
G1 X84.416 Y93.164 E21.06295
G1 X84.432 Y92.708 E21.08572
G1 X84.464 Y92.172 E21.11251
G1 X84.57 Y90.939 E21.17425
G1 X84.684 Y90.053 E21.21881
G1 X84.898 Y88.807 E21.28189
