;FLAVOR:Marlin
;TIME:2769
;Filament used: 2.12101m
;Layer height: 0.28
;MINX:88.579
;MINY:29.244
;MINZ:0.3
;MAXX:131.421
;MAXY:190.756
;MAXZ:4.78
;Generated with Cura_SteamEngine 4.4.0
M140 S60
M105
M190 S60
M104 S200
M105
M109 S200
M82 ;absolute extrusion mode
M201 X500.00 Y500.00 Z100.00 E5000.00 ;Setup machine max acceleration
M203 X500.00 Y500.00 Z10.00 E50.00 ;Setup machine max feedrate
M204 P500.00 R1000.00 T500.00 ;Setup Print/Retract/Travel acceleration
M205 X8.00 Y8.00 Z0.40 E5.00 ;Setup Jerk
M220 S100 ;Reset Feedrate
M221 S100 ;Reset Flowrate

G28 ;Home

G92 E0 ;Reset Extruder
G1 Z2.0 F3000 ;Move Z Axis up
G1 X10.1 Y20 Z0.28 F5000.0 ;Move to start position
G1 X10.1 Y200.0 Z0.28 F1500.0 E15 ;Draw the first line
G1 X10.4 Y200.0 Z0.28 F5000.0 ;Move to side a little
G1 X10.4 Y20 Z0.28 F1500.0 E30 ;Draw the second line
G92 E0 ;Reset Extruder
G1 Z2.0 F3000 ;Move Z Axis up

G92 E0
G92 E0
G1 F1500 E-6.5
;LAYER_COUNT:17
;LAYER:0
M107
G0 F2400 X100.462 Y39.637 Z0.3
;TYPE:SKIRT
G1 F1500 E0
G1 F1200 X100.894 Y38.594 E0.05632
G1 X101.117 Y38.125 E0.08223
G1 X101.672 Y37.102 E0.1403
G1 X101.941 Y36.663 E0.16598
G1 X102.571 Y35.742 E0.22165
G1 X102.901 Y35.309 E0.24881
G1 X103.561 Y34.523 E0.30002
G1 X103.702 Y34.37 E0.3104
G1 X103.938 Y34.121 E0.32751
G1 X104.144 Y33.911 E0.34219
G1 X104.852 Y33.251 E0.39048
G1 X105.257 Y32.905 E0.41706
G1 X106.193 Y32.188 E0.47588
G1 X106.642 Y31.881 E0.50302
G1 X107.606 Y31.292 E0.55938
G1 X108.006 Y31.075 E0.58208
G1 X108.641 Y30.756 E0.61753
G1 X108.823 Y30.672 E0.62753
G1 X109.363 Y30.441 E0.65684
G1 X109.717 Y30.3 E0.67585
G1 X110.701 Y29.961 E0.72777
G1 X111.18 Y29.821 E0.75267
G1 X112.248 Y29.566 E0.80745
G1 X112.757 Y29.471 E0.83328
G1 X113.892 Y29.319 E0.89041
G1 X114.426 Y29.276 E0.91714
G1 X115.58 Y29.244 E0.97473
G1 X116.107 Y29.257 E1.00103
G1 X117.291 Y29.351 E1.06029
G1 X117.808 Y29.42 E1.08631
G1 X118.921 Y29.627 E1.14279
G1 X119.425 Y29.748 E1.16865
G1 X120.532 Y30.076 E1.22625
G1 X121.006 Y30.244 E1.25134
G1 X122.025 Y30.664 E1.30633
G1 X122.504 Y30.89 E1.33275
G1 X123.541 Y31.449 E1.39153
G1 X123.985 Y31.72 E1.41748
G1 X124.678 Y32.18 E1.45898
G1 X124.842 Y32.298 E1.46906
G1 X125.257 Y32.611 E1.49499
G1 X125.514 Y32.815 E1.51136
G1 X126.255 Y33.459 E1.56034
G1 X126.641 Y33.826 E1.58691
G1 X127.443 Y34.674 E1.64514
G1 X127.777 Y35.067 E1.67087
G1 X128.472 Y35.977 E1.728
G1 X128.778 Y36.424 E1.75503
G1 X129.357 Y37.369 E1.81032
G1 X129.572 Y37.763 E1.83271
G1 X129.897 Y38.409 E1.86879
G1 X129.985 Y38.599 E1.87923
G1 X130.219 Y39.142 E1.90873
G1 X130.352 Y39.475 E1.92662
G1 X130.684 Y40.431 E1.97711
G1 X130.833 Y40.934 E2.00329
G1 X131.098 Y42.032 E2.05964
G1 X131.193 Y42.539 E2.08537
G1 X131.345 Y43.681 E2.14285
G1 X131.387 Y44.202 E2.16893
G1 X131.421 Y45.297 E2.22358
G1 X131.412 Y45.767 E2.24703
G1 X131.388 Y46.305 E2.2739
G1 X131.331 Y47.14 E2.31566
G1 X131.318 Y47.311 E2.32421
G1 X120.833 Y172.223 E8.57801
G1 X120.833 Y172.225 E8.57811
G1 X120.567 Y175.387 E8.73642
G1 X120.554 Y175.528 E8.74349
G1 X120.473 Y176.362 E8.78529
G1 X120.401 Y176.944 E8.81455
G1 X120.339 Y177.354 E8.83524
G1 X120.155 Y178.292 E8.88293
G1 X120.04 Y178.768 E8.90736
G1 X119.719 Y179.851 E8.96371
G1 X119.549 Y180.332 E8.98916
G1 X119.125 Y181.363 E9.04478
G1 X118.896 Y181.848 E9.07154
G1 X118.328 Y182.898 E9.1311
G1 X118.059 Y183.337 E9.15678
G1 X117.429 Y184.258 E9.21245
G1 X117.099 Y184.691 E9.23962
G1 X116.301 Y185.624 E9.30087
G1 X115.954 Y185.987 E9.32592
G1 X115.148 Y186.749 E9.38126
G1 X114.743 Y187.095 E9.40783
G1 X113.803 Y187.815 E9.46691
G1 X113.358 Y188.119 E9.49379
G1 X112.415 Y188.696 E9.54895
G1 X112.013 Y188.915 E9.57179
G1 X111.018 Y189.394 E9.62688
G1 X110.481 Y189.62 E9.65595
G1 X109.294 Y190.041 E9.71878
G1 X108.814 Y190.181 E9.74373
G1 X107.752 Y190.434 E9.79819
G1 X107.243 Y190.529 E9.82402
G1 X106.108 Y190.681 E9.88116
G1 X105.574 Y190.724 E9.90788
G1 X104.42 Y190.756 E9.96548
G1 X103.893 Y190.743 E9.99178
G1 X102.709 Y190.649 E10.05103
G1 X102.192 Y190.58 E10.07706
G1 X101.079 Y190.373 E10.13354
G1 X100.575 Y190.252 E10.1594
G1 X99.468 Y189.924 E10.217
G1 X98.994 Y189.756 E10.24209
G1 X97.971 Y189.335 E10.29728
G1 X97.484 Y189.105 E10.32415
G1 X96.429 Y188.534 E10.384
G1 X95.989 Y188.264 E10.40975
G1 X95.056 Y187.623 E10.46623
G1 X94.634 Y187.3 E10.49274
G1 X93.732 Y186.529 E10.55194
G1 X93.351 Y186.166 E10.57819
G1 X92.566 Y185.336 E10.63519
G1 X92.226 Y184.937 E10.66134
G1 X91.501 Y183.985 E10.72104
G1 X91.2 Y183.542 E10.74776
G1 X90.633 Y182.612 E10.8021
G1 X90.414 Y182.209 E10.82499
G1 X89.944 Y181.232 E10.87908
G1 X89.723 Y180.708 E10.90745
G1 X89.305 Y179.537 E10.96948
G1 X89.16 Y179.044 E10.99512
G1 X88.899 Y177.953 E11.05108
G1 X88.805 Y177.448 E11.07671
G1 X88.654 Y176.307 E11.13413
G1 X88.611 Y175.766 E11.16121
G1 X88.579 Y174.65 E11.21691
G1 X88.589 Y174.2 E11.23936
G1 X88.612 Y173.695 E11.26458
G1 X88.669 Y172.86 E11.30634
G1 X88.682 Y172.689 E11.3149
G1 X99.167 Y47.777 E17.5687
G1 X99.167 Y47.773 E17.5689
G1 X99.44 Y44.533 E17.73111
G1 X99.453 Y44.384 E17.73858
G1 X99.527 Y43.629 E17.77642
G1 X99.597 Y43.065 E17.80478
G1 X99.659 Y42.653 E17.82556
G1 X99.847 Y41.695 E17.87427
G1 X99.964 Y41.213 E17.89901
G1 X100.288 Y40.127 E17.95556
G1 X100.462 Y39.637 E17.9815
G0 F2400 X100.839 Y39.771
G1 F1200 X101.255 Y38.766 E18.03576
G1 X101.478 Y38.297 E18.06167
G1 X102.013 Y37.311 E18.11764
G1 X102.282 Y36.872 E18.14332
G1 X102.889 Y35.985 E18.19695
G1 X103.219 Y35.552 E18.22411
G1 X103.855 Y34.794 E18.27347
G1 X103.996 Y34.641 E18.28385
G1 X104.224 Y34.401 E18.30037
G1 X104.43 Y34.191 E18.31504
G1 X105.112 Y33.555 E18.36157
G1 X105.517 Y33.209 E18.38814
G1 X106.419 Y32.518 E18.44483
G1 X106.868 Y32.211 E18.47197
G1 X107.796 Y31.644 E18.52622
G1 X108.196 Y31.427 E18.54893
G1 X108.809 Y31.12 E18.58313
G1 X108.991 Y31.036 E18.59313
G1 X109.511 Y30.812 E18.62138
G1 X109.865 Y30.671 E18.64039
G1 X110.813 Y30.345 E18.6904
G1 X111.292 Y30.205 E18.7153
G1 X112.321 Y29.959 E18.76809
G1 X112.83 Y29.864 E18.79392
G1 X113.924 Y29.718 E18.84898
G1 X114.458 Y29.675 E18.87571
G1 X115.57 Y29.644 E18.93121
G1 X116.097 Y29.657 E18.95751
G1 X117.238 Y29.747 E19.01461
G1 X117.755 Y29.816 E19.04063
G1 X118.828 Y30.016 E19.09509
G1 X119.332 Y30.137 E19.12095
G1 X120.398 Y30.453 E19.17642
G1 X120.872 Y30.621 E19.20151
G1 X121.854 Y31.025 E19.25448
G1 X122.333 Y31.251 E19.28091
G1 X123.332 Y31.79 E19.33754
G1 X123.776 Y32.061 E19.36349
G1 X124.445 Y32.505 E19.40355
G1 X124.609 Y32.623 E19.41363
G1 X125.008 Y32.925 E19.43859
G1 X125.265 Y33.129 E19.45496
G1 X125.979 Y33.749 E19.50214
G1 X126.365 Y34.116 E19.52871
G1 X127.138 Y34.934 E19.58486
G1 X127.472 Y35.327 E19.61059
G1 X128.142 Y36.203 E19.66561
G1 X128.448 Y36.65 E19.69264
G1 X129.006 Y37.561 E19.74594
G1 X129.221 Y37.955 E19.76833
G1 X129.534 Y38.577 E19.80307
G1 X129.622 Y38.767 E19.81352
G1 X129.848 Y39.29 E19.84194
G1 X129.981 Y39.623 E19.85983
G1 X130.3 Y40.544 E19.90846
G1 X130.449 Y41.047 E19.93463
G1 X130.705 Y42.106 E19.98899
G1 X130.8 Y42.613 E20.01472
G1 X130.947 Y43.713 E20.07009
G1 X130.989 Y44.234 E20.09617
G1 X131.021 Y45.289 E20.14882
G1 X131.012 Y45.759 E20.17228
G1 X130.989 Y46.278 E20.19819
G1 X130.932 Y47.113 E20.23995
G1 X130.92 Y47.278 E20.2482
G1 X120.435 Y172.19 E26.502
G1 X120.435 Y172.192 E26.5021
G1 X120.169 Y175.354 E26.66041
G1 X120.156 Y175.49 E26.66723
G1 X120.075 Y176.324 E26.70903
G1 X120.006 Y176.884 E26.73718
G1 X119.944 Y177.294 E26.75787
G1 X119.767 Y178.198 E26.80383
G1 X119.652 Y178.674 E26.82826
G1 X119.342 Y179.717 E26.88254
G1 X119.172 Y180.198 E26.908
G1 X118.763 Y181.192 E26.96162
G1 X118.534 Y181.677 E26.98838
G1 X117.987 Y182.689 E27.04577
G1 X117.718 Y183.128 E27.07146
G1 X117.111 Y184.015 E27.12508
G1 X116.781 Y184.448 E27.15224
G1 X116.012 Y185.348 E27.2113
G1 X115.665 Y185.711 E27.23636
G1 X114.888 Y186.445 E27.28968
G1 X114.483 Y186.791 E27.31626
G1 X113.577 Y187.485 E27.37319
G1 X113.132 Y187.789 E27.40008
G1 X112.224 Y188.344 E27.45317
G1 X111.822 Y188.563 E27.47601
G1 X110.863 Y189.025 E27.52912
G1 X110.326 Y189.251 E27.55819
G1 X109.182 Y189.657 E27.61875
G1 X108.702 Y189.797 E27.64369
G1 X107.679 Y190.041 E27.69616
G1 X107.17 Y190.136 E27.722
G1 X106.076 Y190.282 E27.77706
G1 X105.542 Y190.325 E27.80379
G1 X104.43 Y190.356 E27.85929
G1 X103.903 Y190.343 E27.88559
G1 X102.762 Y190.253 E27.94269
G1 X102.245 Y190.184 E27.96871
G1 X101.172 Y189.984 E28.02316
G1 X100.668 Y189.863 E28.04902
G1 X99.602 Y189.547 E28.10449
G1 X99.128 Y189.379 E28.12958
G1 X98.142 Y188.973 E28.18278
G1 X97.655 Y188.743 E28.20965
G1 X96.638 Y188.193 E28.26734
G1 X96.198 Y187.923 E28.29309
G1 X95.299 Y187.305 E28.34752
G1 X94.877 Y186.982 E28.37403
G1 X94.008 Y186.239 E28.43107
G1 X93.627 Y185.876 E28.45733
G1 X92.871 Y185.077 E28.5122
G1 X92.531 Y184.678 E28.53836
G1 X91.831 Y183.76 E28.59595
G1 X91.53 Y183.317 E28.62267
G1 X90.984 Y182.421 E28.67502
G1 X90.765 Y182.018 E28.6979
G1 X90.312 Y181.076 E28.75005
G1 X90.091 Y180.552 E28.77842
G1 X89.689 Y179.424 E28.83817
G1 X89.544 Y178.931 E28.8638
G1 X89.292 Y177.88 E28.91772
G1 X89.198 Y177.375 E28.94335
G1 X89.052 Y176.275 E28.99871
G1 X89.009 Y175.734 E29.02579
G1 X88.979 Y174.659 E29.07944
G1 X88.989 Y174.209 E29.1019
G1 X89.011 Y173.722 E29.12622
G1 X89.068 Y172.887 E29.16797
G1 X89.08 Y172.722 E29.17623
G1 X99.565 Y47.81 E35.43003
G1 X99.565 Y47.807 E35.43018
G1 X99.838 Y44.567 E35.59239
G1 X99.852 Y44.423 E35.59961
G1 X99.926 Y43.668 E35.63746
G1 X99.993 Y43.125 E35.66476
G1 X100.055 Y42.713 E35.68554
G1 X100.236 Y41.79 E35.73247
G1 X100.353 Y41.308 E35.75721
G1 X100.665 Y40.261 E35.81172
G1 X100.839 Y39.771 E35.83766
G0 F2400 X101.216 Y39.905
G1 F1200 X101.616 Y38.938 E35.88987
G1 X101.839 Y38.469 E35.91578
G1 X102.354 Y37.52 E35.96965
G1 X102.623 Y37.081 E35.99533
G1 X103.207 Y36.227 E36.04695
G1 X103.537 Y35.794 E36.07411
G1 X104.149 Y35.065 E36.1216
G1 X104.29 Y34.912 E36.13198
G1 X104.509 Y34.681 E36.14786
G1 X104.715 Y34.471 E36.16253
G1 X105.372 Y33.859 E36.20733
G1 X105.777 Y33.513 E36.2339
G1 X106.645 Y32.848 E36.28846
G1 X107.094 Y32.541 E36.31559
G1 X107.987 Y31.995 E36.36781
G1 X108.387 Y31.778 E36.39052
G1 X108.977 Y31.483 E36.42343
G1 X109.159 Y31.399 E36.43343
G1 X109.659 Y31.184 E36.46058
G1 X110.013 Y31.043 E36.47959
G1 X110.926 Y30.729 E36.52776
G1 X111.405 Y30.589 E36.55266
G1 X112.395 Y30.352 E36.60344
G1 X112.904 Y30.257 E36.62927
G1 X113.956 Y30.117 E36.68222
G1 X114.49 Y30.074 E36.70895
G1 X115.561 Y30.044 E36.7624
G1 X116.088 Y30.057 E36.7887
G1 X117.185 Y30.144 E36.8436
G1 X117.702 Y30.213 E36.86963
G1 X118.734 Y30.405 E36.922
G1 X119.238 Y30.526 E36.94786
G1 X120.264 Y30.83 E37.00124
G1 X120.738 Y30.998 E37.02633
G1 X121.683 Y31.387 E37.07732
G1 X122.162 Y31.613 E37.10374
G1 X123.124 Y32.132 E37.15827
G1 X123.568 Y32.403 E37.18423
G1 X124.211 Y32.829 E37.22271
G1 X124.375 Y32.947 E37.23279
G1 X124.76 Y33.238 E37.25686
G1 X125.017 Y33.442 E37.27323
G1 X125.703 Y34.039 E37.3186
G1 X126.089 Y34.406 E37.34518
G1 X126.833 Y35.193 E37.39921
G1 X127.167 Y35.586 E37.42494
G1 X127.812 Y36.429 E37.47789
G1 X128.118 Y36.876 E37.50492
G1 X128.655 Y37.752 E37.55618
G1 X128.87 Y38.146 E37.57858
G1 X129.171 Y38.745 E37.61202
G1 X129.259 Y38.935 E37.62247
G1 X129.476 Y39.439 E37.64984
G1 X129.609 Y39.772 E37.66773
G1 X129.917 Y40.658 E37.71453
G1 X130.066 Y41.161 E37.7407
G1 X130.312 Y42.179 E37.79295
G1 X130.407 Y42.686 E37.81869
G1 X130.548 Y43.745 E37.87199
G1 X130.59 Y44.266 E37.89806
G1 X130.621 Y45.281 E37.94873
G1 X130.612 Y45.751 E37.97218
G1 X130.59 Y46.251 E37.99715
G1 X130.533 Y47.086 E38.0389
G1 X130.521 Y47.244 E38.04681
G1 X120.036 Y172.156 E44.30061
G1 X120.036 Y172.158 E44.30071
G1 X119.77 Y175.32 E44.45902
G1 X119.758 Y175.451 E44.46558
G1 X119.677 Y176.285 E44.50739
G1 X119.61 Y176.824 E44.53448
G1 X119.548 Y177.234 E44.55517
G1 X119.378 Y178.104 E44.5994
G1 X119.263 Y178.58 E44.62383
G1 X118.965 Y179.584 E44.67608
G1 X118.795 Y180.065 E44.70153
G1 X118.402 Y181.021 E44.7531
G1 X118.173 Y181.506 E44.77986
G1 X117.646 Y182.48 E44.83511
G1 X117.377 Y182.919 E44.86079
G1 X116.793 Y183.773 E44.91241
G1 X116.463 Y184.206 E44.93957
G1 X115.723 Y185.071 E44.99636
G1 X115.376 Y185.434 E45.02142
G1 X114.628 Y186.141 E45.07276
G1 X114.223 Y186.487 E45.09934
G1 X113.352 Y187.154 E45.15407
G1 X112.907 Y187.458 E45.18096
G1 X112.033 Y187.993 E45.23208
G1 X111.631 Y188.212 E45.25492
G1 X110.708 Y188.656 E45.30602
G1 X110.171 Y188.882 E45.33509
G1 X109.07 Y189.273 E45.39338
G1 X108.59 Y189.413 E45.41832
G1 X107.605 Y189.648 E45.46885
G1 X107.096 Y189.743 E45.49468
G1 X106.044 Y189.883 E45.54763
G1 X105.51 Y189.926 E45.57435
G1 X104.439 Y189.956 E45.62781
G1 X103.912 Y189.943 E45.65411
G1 X102.815 Y189.856 E45.70901
G1 X102.298 Y189.787 E45.73503
G1 X101.266 Y189.595 E45.7874
G1 X100.762 Y189.474 E45.81326
G1 X99.736 Y189.17 E45.86665
G1 X99.262 Y189.002 E45.89174
G1 X98.313 Y188.611 E45.94294
G1 X97.826 Y188.381 E45.96981
G1 X96.847 Y187.852 E46.02533
G1 X96.407 Y187.582 E46.05108
G1 X95.542 Y186.988 E46.10343
G1 X95.12 Y186.665 E46.12995
G1 X94.284 Y185.95 E46.18483
G1 X93.903 Y185.587 E46.21108
G1 X93.175 Y184.818 E46.26391
G1 X92.835 Y184.419 E46.29007
G1 X92.162 Y183.535 E46.3455
G1 X91.861 Y183.092 E46.37222
G1 X91.336 Y182.23 E46.42257
G1 X91.117 Y181.827 E46.44545
G1 X90.681 Y180.921 E46.49562
G1 X90.46 Y180.397 E46.52399
G1 X90.072 Y179.311 E46.58152
G1 X89.927 Y178.818 E46.60716
G1 X89.685 Y177.807 E46.65903
G1 X89.591 Y177.302 E46.68465
G1 X89.451 Y176.243 E46.73795
G1 X89.408 Y175.702 E46.76502
G1 X89.379 Y174.667 E46.81668
G1 X89.389 Y174.217 E46.83913
G1 X89.41 Y173.749 E46.86251
G1 X89.467 Y172.914 E46.90426
G1 X89.479 Y172.756 E46.91217
G1 X99.964 Y47.844 E53.16597
G1 X99.964 Y47.841 E53.16612
G1 X100.237 Y44.601 E53.32833
G1 X100.25 Y44.462 E53.3353
G1 X100.324 Y43.707 E53.37315
G1 X100.389 Y43.184 E53.39944
G1 X100.451 Y42.772 E53.42023
G1 X100.625 Y41.884 E53.46537
G1 X100.742 Y41.402 E53.49012
G1 X101.042 Y40.395 E53.54254
G1 X101.216 Y39.905 E53.56848
G1 F1500 E47.06848
;MESH:63eb9cc1-90ea-44da-84a1-4bc20a4cb5d8.stl
G0 F2400 X114.142 Y45.546
G0 X112.334 Y45.992
G0 X114.956 Y48.187
;TYPE:WALL-INNER
G1 F1500 E53.56848
G1 F1200 X115.415 Y48.229 E53.59148
G1 X115.91 Y48.195 E53.61623
G1 X116.394 Y48.073 E53.64113
G1 X116.849 Y47.878 E53.66583
G1 X117.265 Y47.608 E53.69057
G1 X117.632 Y47.277 E53.71523
G1 X117.941 Y46.886 E53.74009
G1 X118.179 Y46.451 E53.76483
G1 X118.344 Y45.983 E53.78959
G1 X118.427 Y45.495 E53.81428
G1 X118.43 Y45.004 E53.83878
G1 X118.355 Y44.512 E53.86361
G1 X118.194 Y44.038 E53.88858
G1 X117.962 Y43.601 E53.91327
G1 X117.659 Y43.209 E53.93799
G1 X117.298 Y42.871 E53.96266
G1 X116.883 Y42.596 E53.9875
G1 X116.432 Y42.395 E54.01213
G1 X115.951 Y42.268 E54.03695
G1 X115.459 Y42.227 E54.06158
G1 X114.964 Y42.261 E54.08633
G1 X114.481 Y42.382 E54.11118
G1 X114.024 Y42.578 E54.13598
G1 X113.61 Y42.847 E54.16062
G1 X113.242 Y43.179 E54.18534
G1 X112.934 Y43.57 E54.21017
G1 X112.696 Y44.004 E54.23487
G1 X112.533 Y44.473 E54.25964
G1 X112.447 Y44.96 E54.28431
G1 X112.444 Y45.453 E54.30891
G1 X112.52 Y45.946 E54.3338
G1 X112.681 Y46.417 E54.35863
G1 X112.913 Y46.855 E54.38336
G1 X113.216 Y47.247 E54.40808
G1 X113.577 Y47.585 E54.43275
G1 X113.992 Y47.86 E54.45759
G1 X114.445 Y48.061 E54.48231
G1 X114.891 Y48.176 E54.50529
G1 X114.923 Y48.185 E54.50695
G1 X114.956 Y48.187 E54.5086
G0 F2400 X114.992 Y47.79
G1 F1200 X115.419 Y47.828 E54.52998
G1 X115.847 Y47.798 E54.55139
G1 X116.266 Y47.693 E54.57294
G1 X116.66 Y47.524 E54.59433
G1 X117.021 Y47.29 E54.61579
