;FLAVOR:Marlin
;TIME:449
;Filament used: 0.30097m
;Layer height: 0.28
;MINX:81.511
;MINY:99
;MINZ:0.3
;MAXX:138.5
;MAXY:127
;MAXZ:4.78
;Generated with Cura_SteamEngine 4.4.0
M140 S60
M105
M190 S60
M104 S200
M105
M109 S200
M82 ;absolute extrusion mode
M201 X500.00 Y500.00 Z100.00 E5000.00 ;Setup machine max acceleration
M203 X500.00 Y500.00 Z10.00 E50.00 ;Setup machine max feedrate
M204 P500.00 R1000.00 T500.00 ;Setup Print/Retract/Travel acceleration
M205 X8.00 Y8.00 Z0.40 E5.00 ;Setup Jerk
M220 S100 ;Reset Feedrate
M221 S100 ;Reset Flowrate

G28 ;Home

G92 E0 ;Reset Extruder
G1 Z2.0 F3000 ;Move Z Axis up
G1 X10.1 Y20 Z0.28 F5000.0 ;Move to start position
G1 X10.1 Y200.0 Z0.28 F1500.0 E15 ;Draw the first line
G1 X10.4 Y200.0 Z0.28 F5000.0 ;Move to side a little
G1 X10.4 Y20 Z0.28 F1500.0 E30 ;Draw the second line
G92 E0 ;Reset Extruder
G1 Z2.0 F3000 ;Move Z Axis up

G92 E0
G92 E0
G1 F1500 E-6.5
;LAYER_COUNT:17
;LAYER:0
M107
G0 F2400 X85.283 Y101.727 Z0.3
;TYPE:SKIRT
G1 F1500 E0
G1 F1200 X86.016 Y101.141 E0.04682
G1 X86.795 Y100.62 E0.09357
G1 X87.617 Y100.168 E0.14038
G1 X88.474 Y99.787 E0.18717
G1 X89.36 Y99.48 E0.23395
G1 X90.269 Y99.25 E0.28073
G1 X91.195 Y99.098 E0.32754
G1 X92.302 Y99.021 E0.38291
G1 X92.827 Y99.011 E0.4091
G1 X93.033 Y99.009 E0.41938
G1 X126.83 Y99 E2.10552
G1 X126.988 Y99.001 E2.1134
G1 X127.628 Y99.01 E2.14534
G1 X128.564 Y99.063 E2.19211
G1 X129.492 Y99.196 E2.23888
G1 X130.406 Y99.407 E2.28568
G1 X131.299 Y99.696 E2.3325
G1 X132.163 Y100.059 E2.37926
G1 X132.994 Y100.495 E2.42608
G1 X133.784 Y101 E2.47286
G1 X134.529 Y101.57 E2.51966
G1 X135.222 Y102.202 E2.56645
G1 X135.859 Y102.89 E2.61323
G1 X136.435 Y103.63 E2.66001
G1 X136.946 Y104.417 E2.70682
G1 X137.387 Y105.244 E2.75358
G1 X137.757 Y106.106 E2.80038
G1 X138.052 Y106.996 E2.84716
G1 X138.271 Y107.908 E2.89395
G1 X138.426 Y108.988 E2.94839
G1 X138.452 Y109.267 E2.96237
G1 X138.499 Y110.286 E3.01326
G1 X138.5 Y115.262 E3.26151
G1 X138.499 Y115.4 E3.2684
G1 X138.49 Y116.127 E3.30467
G1 X138.439 Y117.064 E3.35149
G1 X138.307 Y117.992 E3.39825
G1 X138.098 Y118.906 E3.44503
G1 X137.811 Y119.799 E3.49182
G1 X137.449 Y120.665 E3.53865
G1 X137.015 Y121.496 E3.58542
G1 X136.511 Y122.287 E3.63222
G1 X135.942 Y123.032 E3.67899
G1 X135.311 Y123.727 E3.72582
G1 X134.624 Y124.365 E3.77259
G1 X133.885 Y124.942 E3.81937
G1 X133.099 Y125.454 E3.86617
G1 X132.273 Y125.897 E3.91293
G1 X131.411 Y126.269 E3.95977
G1 X130.522 Y126.565 E4.00652
G1 X129.61 Y126.785 E4.05332
G1 X128.683 Y126.926 E4.1001
G1 X127.799 Y126.987 E4.14431
G1 X127.478 Y126.996 E4.16033
G1 X127.17 Y127 E4.1757
G1 X105.769 Y127 E5.2434
G1 X105.611 Y126.999 E5.25128
G1 X104.913 Y126.989 E5.28611
G1 X103.977 Y126.935 E5.33288
G1 X103.049 Y126.803 E5.37965
G1 X102.135 Y126.591 E5.42646
G1 X101.601 Y126.428 E5.45431
G1 X101.249 Y126.311 E5.47282
G1 X100.906 Y126.191 E5.49095
G1 X90.974 Y122.521 E6.0192
G1 X90.765 Y122.441 E6.03037
G1 X89.696 Y122.021 E6.08767
G1 X88.945 Y121.693 E6.12855
G1 X88.673 Y121.562 E6.14362
G1 X87.846 Y121.12 E6.1904
G1 X87.138 Y120.664 E6.23241
G1 X86.958 Y120.538 E6.24337
G1 X85.938 Y119.73 E6.30829
G1 X85.76 Y119.571 E6.3202
G1 X84.847 Y118.653 E6.3848
G1 X84.679 Y118.463 E6.39745
G1 X84.089 Y117.735 E6.4442
G1 X83.81 Y117.342 E6.46824
G1 X83.697 Y117.175 E6.4783
G1 X83.079 Y116.145 E6.53823
G1 X82.956 Y115.912 E6.55138
G1 X82.554 Y115.065 E6.59815
G1 X82.104 Y113.786 E6.66579
G1 X81.949 Y113.241 E6.69406
G1 X81.731 Y112.329 E6.74084
G1 X81.568 Y111.158 E6.79983
G1 X81.55 Y110.945 E6.81049
G1 X81.511 Y110.008 E6.85728
G1 X81.552 Y109.071 E6.90407
G1 X81.672 Y108.141 E6.95086
G1 X81.872 Y107.225 E6.99763
G1 X82.149 Y106.329 E7.04442
G1 X82.501 Y105.459 E7.09124
G1 X82.925 Y104.623 E7.13801
G1 X83.42 Y103.826 E7.18482
G1 X83.98 Y103.074 E7.23159
G1 X84.603 Y102.373 E7.27838
G1 X85.283 Y101.727 E7.32518
G0 F2400 X85.687 Y101.908
G1 F1200 X86.417 Y101.346 E7.37114
G1 X87.192 Y100.85 E7.41704
G1 X88.008 Y100.423 E7.46299
G1 X88.858 Y100.069 E7.50893
G1 X89.735 Y99.789 E7.55486
G1 X90.633 Y99.587 E7.60078
G1 X91.545 Y99.463 E7.6467
G1 X92.309 Y99.421 E7.68487
G1 X92.834 Y99.411 E7.71107
G1 X93.033 Y99.409 E7.721
G1 X126.83 Y99.4 E9.40714
G1 X126.982 Y99.401 E9.41472
G1 X127.622 Y99.41 E9.44665
G1 X128.541 Y99.463 E9.49258
G1 X129.452 Y99.595 E9.5385
G1 X130.348 Y99.806 E9.58443
G1 X131.223 Y100.094 E9.63039
G1 X132.069 Y100.457 E9.67631
G1 X132.88 Y100.892 E9.72223
G1 X133.651 Y101.396 E9.76818
G1 X134.375 Y101.964 E9.81409
G1 X135.047 Y102.593 E9.86001
G1 X135.662 Y103.279 E9.90598
G1 X136.215 Y104.015 E9.95191
G1 X136.702 Y104.796 E9.99783
G1 X137.12 Y105.616 E10.04374
G1 X137.465 Y106.47 E10.0897
G1 X137.734 Y107.35 E10.1356
G1 X137.926 Y108.251 E10.18157
G1 X138.027 Y109.025 E10.22051
G1 X138.053 Y109.304 E10.23449
G1 X138.099 Y110.286 E10.28353
G1 X138.1 Y115.262 E10.53179
G1 X138.099 Y115.395 E10.53842
G1 X138.09 Y116.122 E10.5747
G1 X138.039 Y117.041 E10.62061
G1 X137.908 Y117.953 E10.66658
G1 X137.698 Y118.849 E10.71249
G1 X137.412 Y119.724 E10.75842
G1 X137.051 Y120.571 E10.80436
G1 X136.617 Y121.383 E10.85029
G1 X136.115 Y122.155 E10.89623
G1 X135.547 Y122.88 E10.94218
G1 X134.919 Y123.553 E10.98811
G1 X134.235 Y124.169 E11.03403
G1 X133.5 Y124.723 E11.07995
G1 X132.72 Y125.212 E11.12588
G1 X131.9 Y125.631 E11.17182
G1 X131.047 Y125.977 E11.21774
G1 X130.167 Y126.248 E11.26368
G1 X129.267 Y126.441 E11.3096
G1 X128.353 Y126.556 E11.35556
G1 X127.788 Y126.587 E11.38379
G1 X127.467 Y126.596 E11.39981
G1 X127.17 Y126.6 E11.41463
G1 X105.769 Y126.6 E12.48233
G1 X105.617 Y126.599 E12.48992
G1 X104.919 Y126.589 E12.52474
G1 X104 Y126.536 E12.57067
G1 X103.089 Y126.403 E12.6166
G1 X102.193 Y126.192 E12.66252
G1 X101.728 Y126.049 E12.6868
G1 X101.376 Y125.932 E12.7053
G1 X101.045 Y125.816 E12.7228
G1 X91.113 Y122.146 E13.25106
G1 X90.911 Y122.069 E13.26184
G1 X89.842 Y121.649 E13.31914
G1 X89.118 Y121.333 E13.35855
G1 X88.846 Y121.202 E13.37362
G1 X88.035 Y120.767 E13.41953
G1 X87.367 Y120.336 E13.45919
G1 X87.187 Y120.21 E13.47015
G1 X86.204 Y119.431 E13.53273
G1 X86.026 Y119.272 E13.54463
G1 X85.147 Y118.388 E13.60683
G1 X84.979 Y118.198 E13.61948
G1 X84.141 Y117.117 E13.68772
G1 X84.028 Y116.95 E13.69778
G1 X83.433 Y115.959 E13.75545
G1 X83.31 Y115.726 E13.76859
G1 X82.916 Y114.893 E13.81457
G1 X82.488 Y113.677 E13.87888
G1 X82.333 Y113.132 E13.90715
G1 X82.12 Y112.236 E13.9531
G1 X81.967 Y111.125 E14.00905
G1 X81.949 Y110.912 E14.01971
G1 X81.911 Y109.992 E14.06565
G1 X81.953 Y109.072 E14.1116
G1 X82.075 Y108.159 E14.15755
G1 X82.276 Y107.261 E14.20346
G1 X82.554 Y106.383 E14.24941
G1 X82.907 Y105.533 E14.29533
G1 X83.333 Y104.717 E14.34125
G1 X83.827 Y103.94 E14.38719
G1 X84.387 Y103.21 E14.43309
G1 X85.009 Y102.53 E14.47907
G1 X85.687 Y101.908 E14.52497
G0 F2400 X86.091 Y102.093
G1 F1200 X86.817 Y101.556 E14.57002
G1 X87.588 Y101.086 E14.61507
G1 X88.397 Y100.685 E14.66012
G1 X89.239 Y100.358 E14.70518
G1 X90.106 Y100.107 E14.75021
G1 X90.992 Y99.933 E14.79526
G1 X92.317 Y99.821 E14.8616
G1 X92.842 Y99.811 E14.8878
G1 X93.033 Y99.809 E14.89733
G1 X126.83 Y99.8 E16.58347
G1 X126.976 Y99.801 E16.59075
G1 X127.616 Y99.81 E16.62268
G1 X128.518 Y99.863 E16.66776
G1 X129.411 Y99.995 E16.7128
G1 X130.29 Y100.206 E16.7579
G1 X131.146 Y100.493 E16.80294
G1 X131.973 Y100.855 E16.84798
G1 X132.765 Y101.289 E16.89304
G1 X133.516 Y101.791 E16.9381
G1 X134.219 Y102.358 E16.98316
G1 X134.869 Y102.985 E17.02822
G1 X135.461 Y103.667 E17.07327
G1 X135.991 Y104.398 E17.11832
G1 X136.454 Y105.173 E17.16336
G1 X136.846 Y105.987 E17.20843
G1 X137.166 Y106.832 E17.25351
G1 X137.409 Y107.701 E17.29853
G1 X137.574 Y108.589 E17.34359
G1 X137.629 Y109.063 E17.3674
G1 X137.655 Y109.342 E17.38138
G1 X137.699 Y110.286 E17.42853
G1 X137.7 Y115.262 E17.67678
G1 X137.699 Y115.39 E17.68317
G1 X137.69 Y116.117 E17.71944
G1 X137.639 Y117.019 E17.76451
G1 X137.508 Y117.913 E17.80959
G1 X137.299 Y118.791 E17.85462
G1 X137.013 Y119.648 E17.89969
G1 X136.652 Y120.476 E17.94476
G1 X136.22 Y121.268 E17.98976
G1 X135.719 Y122.02 E18.03485
G1 X135.153 Y122.724 E18.07991
G1 X134.528 Y123.375 E18.12494
G1 X133.847 Y123.969 E18.17002
G1 X133.116 Y124.5 E18.2151
G1 X132.342 Y124.964 E18.26012
G1 X131.529 Y125.358 E18.30519
G1 X130.685 Y125.678 E18.35022
G1 X129.815 Y125.923 E18.39532
G1 X128.928 Y126.089 E18.44034
G1 X127.777 Y126.187 E18.49797
G1 X127.456 Y126.196 E18.51399
G1 X127.17 Y126.2 E18.52826
G1 X105.769 Y126.2 E19.59596
G1 X105.623 Y126.199 E19.60324
G1 X104.925 Y126.189 E19.63807
G1 X104.023 Y126.136 E19.68315
G1 X103.13 Y126.004 E19.72818
G1 X101.854 Y125.669 E19.794
G1 X101.502 Y125.552 E19.81251
G1 X101.184 Y125.441 E19.82931
G1 X91.252 Y121.771 E20.35757
G1 X91.057 Y121.697 E20.36797
G1 X89.988 Y121.277 E20.42527
G1 X89.292 Y120.973 E20.46317
G1 X89.02 Y120.842 E20.47823
G1 X88.225 Y120.414 E20.52327
G1 X87.597 Y120.008 E20.56058
G1 X87.417 Y119.882 E20.57154
G1 X86.471 Y119.133 E20.63174
G1 X86.293 Y118.974 E20.64365
G1 X85.447 Y118.124 E20.70348
G1 X85.279 Y117.934 E20.71613
G1 X84.472 Y116.893 E20.78185
G1 X84.359 Y116.726 E20.79191
G1 X83.787 Y115.772 E20.8474
G1 X83.664 Y115.539 E20.86055
G1 X83.278 Y114.722 E20.90563
G1 X82.873 Y113.567 E20.96669
G1 X82.718 Y113.022 E20.99496
G1 X82.51 Y112.144 E21.03997
G1 X82.365 Y111.091 E21.093
G1 X82.347 Y110.878 E21.10367
G1 X82.311 Y109.976 E21.14871
G1 X82.355 Y109.073 E21.19381
G1 X82.478 Y108.179 E21.23883
G1 X82.68 Y107.299 E21.28388
G1 X82.96 Y106.44 E21.32895
G1 X83.314 Y105.609 E21.37402
G1 X83.74 Y104.813 E21.41906
G1 X84.235 Y104.057 E21.46414
G1 X84.794 Y103.349 E21.50915
G1 X85.415 Y102.692 E21.55425
G1 X86.091 Y102.093 E21.59931
G1 F1500 E15.09931
;MESH:4eee57ae-7620-486e-aa7f-8bd4e2706967.stl
G0 F2400 X91.85 Y110.238
G0 X92.884 Y110.427
G0 X105.272 Y114.829
G0 X111.029 Y115
;TYPE:WALL-INNER
G1 F1500 E21.59931
G1 F1200 X110.89 Y115 E21.60624
G1 X110.689 Y115 E21.61627
G1 X110.484 Y115 E21.6265
G1 X105.241 Y115 E21.88807
G1 X95.494 Y111.395 E22.40655
G1 X94.451 Y111.009 E22.46203
G1 X95.563 Y111.009 E22.49021
G1 X95.564 Y111.009 E22.49026
G1 X109.774 Y111.005 E23.1992
G1 X109.819 Y111.005 E23.20144
G1 X109.923 Y111.005 E23.20663
G1 X109.981 Y111.004 E23.20953
G1 X109.924 Y111.108 E23.21188
G1 X109.82 Y111.339 E23.22102
G1 X109.806 Y111.381 E23.22308
G1 X109.738 Y111.574 E23.23329
G1 X109.674 Y111.817 E23.24583
G1 X109.632 Y112.065 E23.25838
G1 X109.609 Y112.309 E23.2706
G1 X109.607 Y112.563 E23.28328
G1 X109.627 Y112.819 E23.29609
G1 X109.67 Y113.071 E23.30884
G1 X109.731 Y113.311 E23.3212
G1 X109.812 Y113.548 E23.33369
G1 X109.915 Y113.779 E23.34631
G1 X110.034 Y113.996 E23.35866
G1 X110.172 Y114.206 E23.37119
G1 X110.33 Y114.408 E23.38399
G1 X110.503 Y114.591 E23.39655
G1 X110.537 Y114.622 E23.39885
G1 X110.689 Y114.759 E23.40716
G1 X110.89 Y114.911 E23.41346
G1 X111.029 Y115 E23.41524
G0 F2400 X111.299 Y114.699
G1 F1200 X111.493 Y114.802 E23.4262
G1 X111.696 Y114.887 E23.43718
G1 X111.903 Y114.954 E23.44804
G1 X112.106 Y115.002 E23.45844
G1 X112.113 Y115.003 E23.45879
G1 X112.327 Y115.036 E23.4696
G1 X112.544 Y115.05 E23.48045
G1 X112.763 Y115.048 E23.49137
G1 X112.983 Y115.025 E23.50241
G1 X113.106 Y115.002 E23.50865
G1 X113.195 Y114.984 E23.51318
G1 X113.404 Y114.927 E23.52399
G1 X113.611 Y114.851 E23.53499
G1 X113.807 Y114.758 E23.54581
G1 X113.998 Y114.649 E23.55679
G1 X114.176 Y114.524 E23.56764
G1 X114.345 Y114.386 E23.57852
G1 X114.5 Y114.233 E23.58939
G1 X114.643 Y114.067 E23.60032
G1 X114.769 Y113.894 E23.611
G1 X114.883 Y113.708 E23.62188
G1 X114.981 Y113.51 E23.6329
G1 X115.061 Y113.306 E23.64383
G1 X115.124 Y113.098 E23.65468
G1 X115.169 Y112.888 E23.66539
G1 X115.197 Y112.671 E23.67631
G1 X115.206 Y112.453 E23.68719
G1 X115.199 Y112.248 E23.69743
G1 X115.173 Y112.032 E23.70828
G1 X115.128 Y111.82 E23.71909
G1 X115.067 Y111.609 E23.73005
G1 X114.987 Y111.406 E23.74094
G1 X114.892 Y111.211 E23.75176
G1 X114.78 Y111.023 E23.76268
G1 X114.741 Y110.969 E23.766
G1 X114.652 Y110.846 E23.77357
G1 X114.511 Y110.682 E23.78436
G1 X114.432 Y110.603 E23.78994
G1 X114.511 Y110.603
G1 X114.652 Y110.603 E23.79212
G1 X114.804 Y110.603 E23.79839
G1 X121.325 Y110.603 E24.12372
G1 X121.326 Y110.603 E24.12377
G1 X121.843 Y110.603 E24.14957
G1 X121.9 Y110.603 E24.15241
G1 X122.061 Y110.602 E24.16044
G1 X122.236 Y110.602 E24.16917
G1 X122.356 Y110.601 E24.17516
G1 X122.237 Y110.676 E24.17649
G1 X122.062 Y110.808 E24.18137
G1 X121.901 Y110.953 E24.1895
G1 X121.862 Y110.994 E24.19216
G1 X121.75 Y111.111 E24.20024
G1 X121.613 Y111.283 E24.21121
G1 X121.493 Y111.464 E24.22205
G1 X121.388 Y111.654 E24.23288
G1 X121.298 Y111.854 E24.24382
G1 X121.227 Y112.058 E24.25459
G1 X121.171 Y112.268 E24.26544
G1 X121.134 Y112.485 E24.27642
G1 X121.115 Y112.699 E24.28714
G1 X121.113 Y112.917 E24.29801
G1 X121.131 Y113.137 E24.30903
G1 X121.166 Y113.352 E24.31989
G1 X121.221 Y113.563 E24.33077
G1 X121.291 Y113.769 E24.34163
G1 X121.381 Y113.971 E24.35266
G1 X121.485 Y114.158 E24.36334
G1 X121.602 Y114.34 E24.37413
G1 X121.739 Y114.514 E24.38518
G1 X121.889 Y114.672 E24.39605
G1 X122.05 Y114.818 E24.40689
G1 X122.224 Y114.951 E24.41782
G1 X122.313 Y115.007 E24.42306
G1 X122.407 Y115.066 E24.4286
G1 X122.598 Y115.168 E24.4394
G1 X122.801 Y115.254 E24.4504
G1 X123.01 Y115.322 E24.46137
G1 X123.221 Y115.371 E24.47217
G1 X123.414 Y115.4 E24.48191
G1 X123.221 Y115.4 E24.48224
G1 X123.01 Y115.4 E24.48361
G1 X122.801 Y115.4 E24.48644
G1 X122.598 Y115.4 E24.49112
G1 X122.407 Y115.4 E24.49779
G1 X122.295 Y115.4 E24.50294
G1 X113.108 Y115.4 E24.96128
G1 X112.983 Y115.4 E24.96733
G1 X112.763 Y115.4 E24.97733
G1 X112.544 Y115.4 E24.98694
G1 X112.327 Y115.4 E24.99663
G1 X112.113 Y115.4 E25.00681
G1 X112.105 Y115.4 E25.00721
G1 X105.17 Y115.4 E25.3532
G1 X93.929 Y111.242 E25.95115
G1 X93.812 Y111.183 E25.95768
G1 X93.725 Y111.13 E25.96277
G1 X93.615 Y111.049 E25.96958
G1 X93.565 Y111.006 E25.97287
G1 X93.55 Y110.993 E25.97386
G1 X93.456 Y110.897 E25.98057
G1 X93.398 Y110.828 E25.98506
G1 X93.327 Y110.729 E25.99114
G1 X93.258 Y110.609 E25.99805
G1 X93.327 Y110.609
G1 X93.398 Y110.609 E25.9982
G1 X93.456 Y110.609 E25.99847
G1 X93.549 Y110.609 E26.00092
G1 X93.569 Y110.609 E26.0019
G1 X109.979 Y110.607 E26.8206
G1 X109.98 Y110.607 E26.82065
G1 X110.423 Y110.606 E26.84275
G1 X110.506 Y110.606 E26.84689
G1 X110.644 Y110.605 E26.85378
G1 X110.777 Y110.604 E26.86041
G1 X110.645 Y110.742 E26.86373
G1 X110.507 Y110.916 E26.87123
G1 X110.462 Y110.985 E26.87494
G1 X110.387 Y111.097 E26.88166
G1 X110.282 Y111.287 E26.89249
G1 X110.192 Y111.487 E26.90343
G1 X110.121 Y111.691 E26.91421
G1 X110.065 Y111.902 E26.9251
G1 X110.029 Y112.117 E26.93598
G1 X110.009 Y112.33 E26.94665
G1 X110.007 Y112.549 E26.95758
G1 X110.024 Y112.77 E26.96864
G1 X110.061 Y112.987 E26.97962
G1 X110.115 Y113.196 E26.99039
G1 X110.185 Y113.402 E27.00124
G1 X110.274 Y113.601 E27.01212
G1 X110.377 Y113.79 E27.02286
G1 X110.497 Y113.973 E27.03377
G1 X110.633 Y114.147 E27.04479
G1 X110.783 Y114.305 E27.05566
G1 X110.944 Y114.451 E27.0665
G1 X111.119 Y114.583 E27.07744
G1 X111.299 Y114.699 E27.08812
G0 F2400 X112.76 Y114.847
G0 X112.74 Y114.648
;TYPE:WALL-OUTER
G1 F1200 X112.924 Y114.629 E27.09735
G1 X113.105 Y114.594 E27.10655
G1 X113.282 Y114.546 E27.1157
G1 X113.456 Y114.482 E27.12495
G1 X113.622 Y114.403 E27.13412
G1 X113.783 Y114.311 E27.14337
G1 X113.934 Y114.205 E27.15258
G1 X114.077 Y114.088 E27.16179
G1 X114.208 Y113.959 E27.17097
G1 X114.329 Y113.819 E27.1802
G1 X114.436 Y113.671 E27.18931
G1 X114.533 Y113.514 E27.19852
G1 X114.615 Y113.348 E27.20775
