;FLAVOR:Marlin
;TIME:1042
;Filament used: 0.643173m
;Layer height: 0.28
;MINX:88.601
;MINY:64.015
;MINZ:0.3
;MAXX:131.38
;MAXY:120.984
;MAXZ:10.1
;Generated with Cura_SteamEngine 4.4.0
M140 S60
M105
M190 S60
M104 S200
M105
M109 S200
M82 ;absolute extrusion mode
M201 X500.00 Y500.00 Z100.00 E5000.00 ;Setup machine max acceleration
M203 X500.00 Y500.00 Z10.00 E50.00 ;Setup machine max feedrate
M204 P500.00 R1000.00 T500.00 ;Setup Print/Retract/Travel acceleration
M205 X8.00 Y8.00 Z0.40 E5.00 ;Setup Jerk
M220 S100 ;Reset Feedrate
M221 S100 ;Reset Flowrate

G28 ;Home

G92 E0 ;Reset Extruder
G1 Z2.0 F3000 ;Move Z Axis up
G1 X10.1 Y20 Z0.28 F5000.0 ;Move to start position
G1 X10.1 Y200.0 Z0.28 F1500.0 E15 ;Draw the first line
G1 X10.4 Y200.0 Z0.28 F5000.0 ;Move to side a little
G1 X10.4 Y20 Z0.28 F1500.0 E30 ;Draw the second line
G92 E0 ;Reset Extruder
G1 Z2.0 F3000 ;Move Z Axis up

G92 E0
G92 E0
G1 F1500 E-6.5
;LAYER_COUNT:36
;LAYER:0
M107
G0 F2400 X101.187 Y71.242 Z0.3
;TYPE:SKIRT
G1 F1500 E0
G1 F1200 X101.316 Y71.062 E0.01105
G1 X101.621 Y70.657 E0.03634
G1 X101.819 Y70.406 E0.05229
G1 X102.192 Y69.958 E0.08138
G1 X102.489 Y69.62 E0.10382
G1 X102.974 Y69.103 E0.13919
G1 X103.35 Y68.727 E0.16572
G1 X103.783 Y68.317 E0.19547
G1 X104.055 Y68.073 E0.2137
G1 X104.322 Y67.84 E0.23138
G1 X104.485 Y67.703 E0.242
G1 X104.952 Y67.332 E0.27176
G1 X105.202 Y67.144 E0.28736
G1 X105.564 Y66.883 E0.30963
G1 X105.748 Y66.756 E0.32078
G1 X106.484 Y66.29 E0.36424
G1 X106.869 Y66.067 E0.38644
G1 X107.85 Y65.563 E0.44146
G1 X108.425 Y65.303 E0.47295
G1 X109.458 Y64.897 E0.52832
G1 X109.762 Y64.795 E0.54432
G1 X110.549 Y64.563 E0.58525
G1 X110.95 Y64.461 E0.6059
G1 X111.713 Y64.296 E0.64484
G1 X112.024 Y64.24 E0.66061
G1 X112.761 Y64.133 E0.69776
G1 X113.158 Y64.089 E0.71769
G1 X114.027 Y64.027 E0.76115
G1 X114.38 Y64.016 E0.77877
G1 X115.036 Y64.015 E0.8115
G1 X115.317 Y64.023 E0.82553
G1 X116.057 Y64.07 E0.86252
G1 X116.421 Y64.105 E0.88076
G1 X117.037 Y64.181 E0.91173
G1 X117.239 Y64.212 E0.92193
G1 X117.827 Y64.319 E0.95174
G1 X118.137 Y64.384 E0.96754
G1 X118.754 Y64.532 E0.9992
G1 X119.02 Y64.604 E1.01295
G1 X119.625 Y64.786 E1.04447
G1 X119.904 Y64.879 E1.05914
G1 X120.433 Y65.071 E1.08722
G1 X120.64 Y65.152 E1.09831
G1 X121.095 Y65.342 E1.12291
G1 X121.3 Y65.433 E1.1341
G1 X121.718 Y65.629 E1.15713
G1 X121.922 Y65.73 E1.16849
G1 X122.615 Y66.105 E1.2078
G1 X122.957 Y66.306 E1.22759
G1 X123.588 Y66.706 E1.26486
G1 X123.872 Y66.9 E1.28202
G1 X124.446 Y67.32 E1.3175
G1 X124.676 Y67.5 E1.33208
G1 X125.233 Y67.967 E1.36834
G1 X125.643 Y68.334 E1.39579
G1 X126.157 Y68.824 E1.43122
G1 X126.533 Y69.207 E1.458
G1 X126.875 Y69.572 E1.48295
G1 X127.108 Y69.832 E1.50037
G1 X127.343 Y70.103 E1.51827
G1 X127.541 Y70.339 E1.53364
G1 X128.107 Y71.075 E1.57996
G1 X128.419 Y71.518 E1.60699
G1 X128.943 Y72.337 E1.6555
G1 X129.158 Y72.708 E1.67689
G1 X129.366 Y73.083 E1.69828
G1 X129.598 Y73.522 E1.72306
G1 X130.001 Y74.369 E1.76985
G1 X130.187 Y74.839 E1.79507
G1 X130.442 Y75.527 E1.83168
G1 X130.814 Y76.742 E1.89507
G1 X130.948 Y77.291 E1.92326
G1 X131.154 Y78.363 E1.97772
G1 X131.231 Y78.909 E2.00523
G1 X131.28 Y79.305 E2.02514
G1 X131.305 Y79.545 E2.03718
G1 X131.357 Y80.285 E2.07419
G1 X131.377 Y80.835 E2.10165
G1 X131.38 Y81.548 E2.13722
G1 X131.362 Y82.181 E2.16881
G1 X131.329 Y82.775 E2.19849
G1 X131.292 Y83.222 E2.22087
G1 X131.266 Y83.488 E2.2342
G1 X131.238 Y83.749 E2.2473
G1 X131.226 Y83.857 E2.25272
G1 X131.059 Y85.285 E2.32445
G1 X130.838 Y87.781 E2.44946
G1 X130.689 Y90.269 E2.57381
G1 X130.608 Y92.826 E2.70145
G1 X130.601 Y95.316 E2.82567
G1 X130.664 Y97.846 E2.95193
G1 X130.799 Y100.384 E3.07873
G1 X130.951 Y102.329 E3.17607
G1 X130.973 Y102.692 E3.19421
G1 X130.998 Y103.248 E3.22198
G1 X131.007 Y103.966 E3.2578
G1 X130.997 Y104.457 E3.2823
G1 X130.96 Y105.162 E3.31752
G1 X130.93 Y105.516 E3.33525
G1 X130.89 Y105.904 E3.35471
G1 X130.852 Y106.219 E3.37054
G1 X130.739 Y106.948 E3.40734
G1 X130.64 Y107.471 E3.4339
G1 X130.496 Y108.124 E3.46726
G1 X130.435 Y108.365 E3.47966
G1 X130.331 Y108.747 E3.49941
G1 X130.228 Y109.1 E3.51776
G1 X130.116 Y109.461 E3.53662
G1 X130.031 Y109.719 E3.55017
G1 X129.783 Y110.395 E3.58609
G1 X129.542 Y110.992 E3.61821
G1 X129.354 Y111.43 E3.64199
G1 X129.268 Y111.619 E3.65235
G1 X129.075 Y112.022 E3.67464
G1 X128.924 Y112.321 E3.69136
G1 X128.673 Y112.789 E3.71785
G1 X128.559 Y112.99 E3.72938
G1 X128.091 Y113.743 E3.77361
G1 X127.801 Y114.17 E3.79936
G1 X127.291 Y114.862 E3.84225
G1 X127.055 Y115.157 E3.8611
G1 X126.393 Y115.91 E3.91112
G1 X126.091 Y116.224 E3.93285
G1 X125.578 Y116.724 E3.96859
G1 X125.395 Y116.891 E3.98095
G1 X124.964 Y117.265 E4.00942
G1 X124.762 Y117.431 E4.02247
G1 X124.219 Y117.849 E4.05665
G1 X123.92 Y118.065 E4.07506
G1 X123.43 Y118.399 E4.10464
G1 X123.245 Y118.518 E4.11562
G1 X122.85 Y118.761 E4.13875
G1 X122.674 Y118.864 E4.14893
G1 X122.026 Y119.215 E4.18569
G1 X121.691 Y119.382 E4.20437
G1 X121.121 Y119.646 E4.23571
G1 X120.867 Y119.755 E4.2495
G1 X120.164 Y120.028 E4.28712
G1 X119.867 Y120.132 E4.30282
G1 X119.259 Y120.325 E4.33465
G1 X118.969 Y120.408 E4.3497
G1 X118.403 Y120.554 E4.37886
G1 X118.146 Y120.613 E4.39201
G1 X117.109 Y120.799 E4.44457
G1 X116.435 Y120.887 E4.47849
G1 X115.373 Y120.974 E4.53165
G1 X115.069 Y120.984 E4.54682
G1 X114.206 Y120.979 E4.58988
G1 X113.767 Y120.959 E4.6118
G1 X112.987 Y120.895 E4.65085
G1 X112.68 Y120.859 E4.66627
G1 X111.783 Y120.716 E4.71159
G1 X110.57 Y120.471 E4.77332
G1 X110.296 Y120.412 E4.78731
G1 X110.026 Y120.35 E4.80113
G1 X107.571 Y119.864 E4.92599
G1 X105.046 Y119.437 E5.05375
G1 X102.591 Y119.093 E5.17742
G1 X99.309 Y118.738 E5.34212
G1 X97.984 Y118.513 E5.40917
G1 X97.749 Y118.458 E5.42121
G1 X96.846 Y118.205 E5.468
G1 X95.968 Y117.877 E5.51476
G1 X95.064 Y117.445 E5.56474
G1 X94.838 Y117.324 E5.57753
G1 X94.031 Y116.846 E5.62433
G1 X93.267 Y116.301 E5.67115
G1 X92.741 Y115.864 E5.70526
G1 X92.576 Y115.718 E5.71626
G1 X91.9 Y115.067 E5.76308
G1 X91.283 Y114.361 E5.80986
G1 X90.687 Y113.543 E5.86035
G1 X90.541 Y113.322 E5.87356
G1 X90.058 Y112.518 E5.92036
G1 X89.645 Y111.676 E5.96715
G1 X89.198 Y110.471 E6.03127
G1 X89.1 Y110.15 E6.04801
G1 X88.865 Y109.242 E6.0948
G1 X88.708 Y108.317 E6.14161
G1 X88.625 Y107.244 E6.1953
G1 X88.605 Y106.526 E6.23114
G1 X88.601 Y106.22 E6.24641
G1 X88.601 Y104.5 E6.33222
G1 X88.602 Y104.336 E6.3404
G1 X88.611 Y103.734 E6.37044
G1 X88.646 Y103.004 E6.4069
G1 X88.669 Y102.722 E6.42101
G1 X88.785 Y101.791 E6.46782
G1 X88.98 Y100.874 E6.51459
G1 X89.233 Y100.033 E6.55841
G1 X89.315 Y99.795 E6.57097
G1 X89.658 Y98.922 E6.61776
G1 X90.04 Y98.144 E6.661
G1 X90.575 Y97.155 E6.7171
G1 X91.798 Y94.822 E6.84852
G1 X92.897 Y92.574 E6.97336
G1 X93.939 Y90.281 E7.09901
G1 X94.934 Y87.916 E7.22702
G1 X95.819 Y85.626 E7.3495
G1 X96.68 Y83.208 E7.47756
G1 X97.445 Y80.844 E7.60152
G1 X98.159 Y78.407 E7.72821
G1 X98.658 Y76.532 E7.82501
G1 X98.891 Y75.767 E7.86491
G1 X99.047 Y75.316 E7.88872
G1 X99.311 Y74.629 E7.92544
G1 X99.415 Y74.383 E7.93876
G1 X99.559 Y74.056 E7.95659
G1 X99.697 Y73.757 E7.97302
G1 X100.099 Y72.972 E8.01702
G1 X100.229 Y72.741 E8.03024
G1 X100.567 Y72.18 E8.06292
G1 X100.88 Y71.694 E8.09176
G1 X101.187 Y71.242 E8.11902
G0 F2400 X101.512 Y71.475
G1 F1200 X101.641 Y71.295 E8.13007
G1 X101.935 Y70.905 E8.15443
G1 X102.133 Y70.654 E8.17038
G1 X102.492 Y70.222 E8.19841
G1 X102.789 Y69.884 E8.22085
G1 X103.257 Y69.386 E8.25495
G1 X103.633 Y69.01 E8.28148
G1 X104.05 Y68.615 E8.31013
G1 X104.322 Y68.371 E8.32836
G1 X104.58 Y68.146 E8.34544
G1 X104.743 Y68.009 E8.35607
G1 X105.192 Y67.652 E8.38468
G1 X105.442 Y67.464 E8.40029
G1 X105.792 Y67.212 E8.42181
G1 X105.976 Y67.085 E8.43296
G1 X106.684 Y66.637 E8.47476
G1 X107.069 Y66.414 E8.49696
G1 X108.015 Y65.928 E8.55002
G1 X108.59 Y65.668 E8.5815
G1 X109.585 Y65.277 E8.63484
G1 X109.889 Y65.175 E8.65083
G1 X110.648 Y64.951 E8.69032
G1 X111.049 Y64.849 E8.71096
G1 X111.784 Y64.69 E8.74848
G1 X112.095 Y64.634 E8.76424
G1 X112.805 Y64.531 E8.80003
G1 X113.202 Y64.487 E8.81996
G1 X114.04 Y64.427 E8.86188
G1 X114.393 Y64.416 E8.8795
G1 X115.025 Y64.415 E8.91103
G1 X115.306 Y64.423 E8.92505
G1 X116.019 Y64.468 E8.96069
G1 X116.383 Y64.503 E8.97894
G1 X116.976 Y64.577 E9.00875
G1 X117.178 Y64.608 E9.01895
G1 X117.745 Y64.711 E9.0477
G1 X118.055 Y64.776 E9.0635
G1 X118.65 Y64.918 E9.09402
G1 X118.916 Y64.99 E9.10777
G1 X119.498 Y65.166 E9.1381
G1 X119.777 Y65.259 E9.15278
G1 X120.288 Y65.444 E9.17989
G1 X120.495 Y65.525 E9.19098
G1 X120.933 Y65.708 E9.21466
G1 X121.138 Y65.799 E9.22585
G1 X121.54 Y65.988 E9.24801
G1 X121.744 Y66.089 E9.25937
G1 X122.412 Y66.449 E9.29723
G1 X122.754 Y66.65 E9.31702
G1 X123.362 Y67.036 E9.35295
G1 X123.646 Y67.23 E9.37011
G1 X124.2 Y67.635 E9.40435
G1 X124.43 Y67.815 E9.41892
G1 X124.967 Y68.265 E9.45387
G1 X125.377 Y68.632 E9.48132
G1 X125.871 Y69.104 E9.51541
G1 X126.247 Y69.487 E9.54219
G1 X126.577 Y69.839 E9.56626
G1 X126.81 Y70.099 E9.58368
G1 X127.037 Y70.36 E9.60093
G1 X127.235 Y70.596 E9.6163
G1 X127.78 Y71.305 E9.66092
G1 X128.092 Y71.748 E9.68795
G1 X128.597 Y72.537 E9.73469
G1 X128.812 Y72.908 E9.75608
G1 X129.013 Y73.27 E9.77674
G1 X129.245 Y73.709 E9.80151
G1 X129.639 Y74.541 E9.84744
G1 X129.812 Y74.978 E9.87088
G1 X130.067 Y75.666 E9.90749
G1 X130.426 Y76.837 E9.9686
G1 X130.56 Y77.386 E9.99679
G1 X130.758 Y78.419 E10.04926
G1 X130.835 Y78.965 E10.07677
G1 X130.882 Y79.347 E10.09598
G1 X130.907 Y79.587 E10.10801
G1 X130.957 Y80.3 E10.14367
G1 X130.977 Y80.85 E10.17113
G1 X130.98 Y81.536 E10.20536
G1 X130.962 Y82.169 E10.23695
G1 X130.93 Y82.742 E10.26558
G1 X130.893 Y83.189 E10.28796
G1 X130.869 Y83.446 E10.30084
G1 X130.841 Y83.707 E10.31393
G1 X130.829 Y83.81 E10.31911
G1 X130.662 Y85.236 E10.39074
G1 X130.439 Y87.763 E10.5173
G1 X130.289 Y90.267 E10.64245
G1 X130.209 Y92.813 E10.76953
G1 X130.201 Y95.325 E10.89485
G1 X130.265 Y97.879 E11.02231
G1 X130.398 Y100.394 E11.14796
G1 X130.552 Y102.36 E11.24635
G1 X130.573 Y102.71 E11.26384
G1 X130.598 Y103.266 E11.29161
G1 X130.607 Y103.958 E11.32614
G1 X130.597 Y104.449 E11.35064
G1 X130.561 Y105.128 E11.38456
G1 X130.531 Y105.482 E11.40228
G1 X130.493 Y105.857 E11.42109
G1 X130.455 Y106.172 E11.43692
G1 X130.346 Y106.873 E11.47231
G1 X130.247 Y107.396 E11.49887
G1 X130.108 Y108.026 E11.53105
G1 X130.047 Y108.267 E11.54346
G1 X129.947 Y108.635 E11.56248
G1 X129.844 Y108.988 E11.58083
G1 X129.736 Y109.336 E11.59901
G1 X129.651 Y109.594 E11.61256
G1 X129.412 Y110.245 E11.64716
G1 X129.171 Y110.842 E11.67928
G1 X128.99 Y111.264 E11.70218
G1 X128.904 Y111.453 E11.71254
G1 X128.718 Y111.841 E11.73401
G1 X128.567 Y112.14 E11.75072
G1 X128.325 Y112.591 E11.77626
G1 X128.211 Y112.792 E11.78779
G1 X127.76 Y113.518 E11.83043
G1 X127.47 Y113.945 E11.85618
G1 X126.978 Y114.612 E11.89753
G1 X126.742 Y114.907 E11.91638
G1 X126.105 Y115.633 E11.96456
G1 X125.803 Y115.947 E11.9863
G1 X125.308 Y116.429 E12.02077
G1 X125.125 Y116.596 E12.03313
G1 X124.71 Y116.955 E12.0605
G1 X124.508 Y117.121 E12.07355
G1 X123.985 Y117.524 E12.10649
G1 X123.686 Y117.74 E12.12489
G1 X123.213 Y118.063 E12.15346
G1 X123.028 Y118.182 E12.16444
G1 X122.648 Y118.416 E12.1867
G1 X122.472 Y118.519 E12.19688
G1 X121.847 Y118.857 E12.23233
G1 X121.512 Y119.024 E12.251
G1 X120.963 Y119.278 E12.28118
G1 X120.709 Y119.387 E12.29497
G1 X120.032 Y119.65 E12.3312
G1 X119.735 Y119.754 E12.3469
G1 X119.149 Y119.941 E12.37759
G1 X118.859 Y120.024 E12.39264
G1 X118.314 Y120.164 E12.42071
G1 X118.057 Y120.223 E12.43387
G1 X117.057 Y120.403 E12.48456
G1 X116.383 Y120.491 E12.51847
G1 X115.359 Y120.574 E12.56973
G1 X115.055 Y120.584 E12.5849
G1 X114.225 Y120.579 E12.62631
G1 X113.786 Y120.559 E12.64824
G1 X113.033 Y120.498 E12.68593
G1 X112.726 Y120.462 E12.70135
G1 X111.862 Y120.324 E12.745
G1 X110.649 Y120.079 E12.80674
G1 X110.385 Y120.022 E12.82021
G1 X110.121 Y119.962 E12.83372
G1 X107.61 Y119.464 E12.96144
G1 X105.132 Y119.046 E13.08681
G1 X102.66 Y118.699 E13.21135
G1 X99.352 Y118.341 E13.37735
G1 X98.075 Y118.123 E13.44198
G1 X97.84 Y118.068 E13.45402
G1 X96.954 Y117.82 E13.49992
G1 X96.092 Y117.495 E13.54588
G1 X95.253 Y117.092 E13.59232
G1 X95.027 Y116.971 E13.60511
G1 X94.235 Y116.502 E13.65103
G1 X93.486 Y115.965 E13.69701
G1 X93.006 Y115.564 E13.72821
G1 X92.841 Y115.418 E13.73921
G1 X92.178 Y114.779 E13.78514
G1 X91.574 Y114.084 E13.83108
G1 X91.021 Y113.323 E13.87801
G1 X90.875 Y113.102 E13.89123
G1 X90.401 Y112.312 E13.93719
G1 X89.998 Y111.485 E13.98309
G1 X89.581 Y110.354 E14.04323
G1 X89.483 Y110.033 E14.05997
G1 X89.253 Y109.142 E14.10588
G1 X89.1 Y108.234 E14.15182
G1 X89.025 Y107.233 E14.2019
G1 X89.005 Y106.515 E14.23774
G1 X89.001 Y106.22 E14.25246
G1 X89.001 Y104.5 E14.33827
G1 X89.002 Y104.342 E14.34615
G1 X89.011 Y103.74 E14.37619
G1 X89.045 Y103.036 E14.41135
G1 X89.068 Y102.754 E14.42547
G1 X89.183 Y101.841 E14.47138
G1 X89.376 Y100.941 E14.5173
G1 X89.611 Y100.163 E14.55784
G1 X89.693 Y99.925 E14.5704
G1 X90.031 Y99.069 E14.61632
G1 X90.392 Y98.334 E14.65717
G1 X90.956 Y97.291 E14.71633
G1 X92.154 Y95.005 E14.84509
G1 X93.249 Y92.766 E14.96944
G1 X94.311 Y90.429 E15.0975
G1 X95.3 Y88.079 E15.2247
G1 X96.198 Y85.756 E15.34896
G1 X97.051 Y83.359 E15.47589
G1 X97.822 Y80.974 E15.60094
G1 X98.548 Y78.496 E15.72977
G1 X99.044 Y76.635 E15.82585
G1 X99.269 Y75.898 E15.8643
G1 X99.425 Y75.447 E15.88811
G1 X99.68 Y74.784 E15.92355
G1 X99.784 Y74.538 E15.93687
G1 X99.923 Y74.224 E15.954
G1 X100.061 Y73.925 E15.97043
G1 X100.447 Y73.168 E16.01282
G1 X100.577 Y72.937 E16.02605
G1 X100.903 Y72.397 E16.05752
G1 X101.216 Y71.911 E16.08636
G1 X101.512 Y71.475 E16.11265
G0 F2400 X101.837 Y71.708
G1 F1200 X101.966 Y71.528 E16.1237
G1 X102.249 Y71.153 E16.14714
G1 X102.447 Y70.902 E16.16309
G1 X102.793 Y70.486 E16.19008
G1 X103.09 Y70.148 E16.21253
G1 X103.54 Y69.669 E16.24532
G1 X103.916 Y69.293 E16.27185
G1 X104.317 Y68.912 E16.29944
G1 X104.589 Y68.668 E16.31767
G1 X104.837 Y68.453 E16.33405
G1 X105 Y68.316 E16.34467
G1 X105.433 Y67.972 E16.37226
G1 X105.683 Y67.784 E16.38787
G1 X106.019 Y67.541 E16.40855
G1 X106.203 Y67.414 E16.41971
G1 X106.885 Y66.983 E16.45996
G1 X107.27 Y66.76 E16.48216
G1 X108.179 Y66.292 E16.53316
G1 X108.754 Y66.032 E16.56465
G1 X109.712 Y65.656 E16.61599
G1 X110.016 Y65.554 E16.63199
G1 X110.747 Y65.339 E16.67
G1 X111.148 Y65.237 E16.69065
G1 X111.854 Y65.083 E16.7267
G1 X112.165 Y65.027 E16.74246
G1 X112.849 Y64.928 E16.77694
G1 X113.246 Y64.884 E16.79687
G1 X114.052 Y64.827 E16.83718
G1 X114.405 Y64.816 E16.8548
G1 X115.013 Y64.815 E16.88514
G1 X115.294 Y64.823 E16.89916
G1 X115.98 Y64.866 E16.93345
G1 X116.344 Y64.901 E16.9517
G1 X116.915 Y64.972 E16.9804
G1 X117.117 Y65.003 E16.9906
G1 X117.663 Y65.102 E17.01828
G1 X117.973 Y65.167 E17.03409
G1 X118.545 Y65.304 E17.06343
G1 X118.811 Y65.376 E17.07718
G1 X119.372 Y65.545 E17.10641
G1 X119.651 Y65.638 E17.12108
G1 X120.142 Y65.816 E17.14714
G1 X120.349 Y65.897 E17.15823
G1 X120.77 Y66.073 E17.18099
G1 X120.975 Y66.164 E17.19218
G1 X121.363 Y66.346 E17.21356
G1 X121.567 Y66.447 E17.22492
G1 X122.209 Y66.794 E17.26133
G1 X122.551 Y66.995 E17.28112
G1 X123.136 Y67.367 E17.31571
G1 X123.42 Y67.561 E17.33287
G1 X123.953 Y67.95 E17.36579
G1 X124.183 Y68.13 E17.38036
G1 X124.7 Y68.563 E17.414
G1 X125.11 Y68.93 E17.44145
G1 X125.586 Y69.384 E17.47427
G1 X125.962 Y69.767 E17.50105
G1 X126.279 Y70.106 E17.5242
G1 X126.512 Y70.366 E17.54162
G1 X126.73 Y70.617 E17.55821
G1 X126.928 Y70.853 E17.57358
G1 X127.453 Y71.536 E17.61656
G1 X127.765 Y71.979 E17.64359
G1 X128.251 Y72.738 E17.68855
