;FLAVOR:Marlin
;TIME:1150
;Filament used: 0.871307m
;Layer height: 0.28
;MINX:78.387
;MINY:82.066
;MINZ:0.3
;MAXX:141.611
;MAXY:137.938
;MAXZ:4.78
;Generated with Cura_SteamEngine 4.4.0
M140 S60
M105
M190 S60
M104 S200
M105
M109 S200
M82 ;absolute extrusion mode
M201 X500.00 Y500.00 Z100.00 E5000.00 ;Setup machine max acceleration
M203 X500.00 Y500.00 Z10.00 E50.00 ;Setup machine max feedrate
M204 P500.00 R1000.00 T500.00 ;Setup Print/Retract/Travel acceleration
M205 X8.00 Y8.00 Z0.40 E5.00 ;Setup Jerk
M220 S100 ;Reset Feedrate
M221 S100 ;Reset Flowrate

G28 ;Home

G92 E0 ;Reset Extruder
G1 Z2.0 F3000 ;Move Z Axis up
G1 X10.1 Y20 Z0.28 F5000.0 ;Move to start position
G1 X10.1 Y200.0 Z0.28 F1500.0 E15 ;Draw the first line
G1 X10.4 Y200.0 Z0.28 F5000.0 ;Move to side a little
G1 X10.4 Y20 Z0.28 F1500.0 E30 ;Draw the second line
G92 E0 ;Reset Extruder
G1 Z2.0 F3000 ;Move Z Axis up

G92 E0
G92 E0
G1 F1500 E-6.5
;LAYER_COUNT:17
;LAYER:0
M107
G0 F2400 X83.071 Y86.419 Z0.3
;TYPE:SKIRT
G1 F1500 E0
G1 F1200 X83.881 Y85.678 E0.05477
G1 X84.314 Y85.32 E0.0828
G1 X85.2 Y84.66 E0.13792
G1 X85.4 Y84.526 E0.14993
G1 X86.478 Y83.889 E0.2124
G1 X87.065 Y83.586 E0.24536
G1 X88.141 Y83.102 E0.30422
G1 X88.34 Y83.025 E0.31486
G1 X89.475 Y82.655 E0.37442
G1 X89.955 Y82.527 E0.39921
G1 X90.752 Y82.346 E0.43998
G1 X91.15 Y82.271 E0.46019
G1 X92.078 Y82.137 E0.50697
G1 X92.7 Y82.092 E0.53808
G1 X93.106 Y82.074 E0.55835
G1 X93.833 Y82.066 E0.59463
G1 X94.246 Y82.075 E0.61524
G1 X95.221 Y82.139 E0.66398
G1 X95.437 Y82.163 E0.67483
G1 X96.232 Y82.281 E0.71492
G1 X96.544 Y82.339 E0.73076
G1 X97.351 Y82.521 E0.77203
G1 X97.887 Y82.663 E0.79969
G1 X98.542 Y82.858 E0.83379
G1 X99.02 Y83.017 E0.85892
G1 X99.39 Y83.148 E0.8785
G1 X99.661 Y83.249 E0.89293
G1 X100.058 Y83.406 E0.91423
G1 X100.41 Y83.553 E0.93326
G1 X100.881 Y83.763 E0.95899
G1 X101.168 Y83.899 E0.97483
G1 X102.002 Y84.338 E1.02185
G1 X102.583 Y84.677 E1.05541
G1 X103.002 Y84.934 E1.07994
G1 X103.326 Y85.143 E1.09917
G1 X103.812 Y85.476 E1.12856
G1 X104.04 Y85.641 E1.14261
G1 X104.779 Y86.225 E1.1896
G1 X105.481 Y86.831 E1.23586
G1 X105.763 Y87.084 E1.25477
G1 X106.057 Y87.356 E1.27475
G1 X106.175 Y87.466 E1.2828
G1 X107.381 Y88.615 E1.3659
G1 X109.237 Y90.286 E1.49049
G1 X111.183 Y91.941 E1.61794
G1 X113.119 Y93.496 E1.74183
G1 X115.122 Y95.011 E1.86713
G1 X117.199 Y96.493 E1.99442
G1 X119.257 Y97.878 E2.11818
G1 X121.414 Y99.239 E2.24542
G1 X123.563 Y100.513 E2.37006
G1 X125.753 Y101.729 E2.49504
G1 X127.986 Y102.887 E2.62053
G1 X131.512 Y104.56 E2.81524
G1 X132.037 Y104.796 E2.84396
G1 X132.358 Y104.946 E2.86163
G1 X132.79 Y105.157 E2.88562
G1 X133.446 Y105.506 E2.92269
G1 X133.752 Y105.682 E2.9403
G1 X134.321 Y106.032 E2.97363
G1 X134.538 Y106.175 E2.9866
G1 X135.125 Y106.59 E3.02246
G1 X135.438 Y106.827 E3.04205
G1 X136.004 Y107.286 E3.0784
G1 X136.207 Y107.462 E3.09181
G1 X136.75 Y107.966 E3.12877
G1 X137.016 Y108.23 E3.14747
G1 X137.523 Y108.768 E3.18435
G1 X137.707 Y108.977 E3.19824
G1 X138.159 Y109.525 E3.23368
G1 X138.416 Y109.858 E3.25467
G1 X138.801 Y110.389 E3.28739
G1 X138.914 Y110.555 E3.29741
G1 X139.321 Y111.199 E3.33542
G1 X139.516 Y111.533 E3.35471
G1 X139.861 Y112.172 E3.39094
G1 X140.019 Y112.489 E3.40861
G1 X140.316 Y113.136 E3.44413
G1 X140.421 Y113.386 E3.45766
G1 X140.686 Y114.082 E3.49481
G1 X140.798 Y114.409 E3.51206
G1 X140.999 Y115.062 E3.54614
G1 X141.086 Y115.379 E3.56254
G1 X141.263 Y116.127 E3.60089
G1 X141.332 Y116.471 E3.6184
G1 X141.445 Y117.137 E3.6521
G1 X141.488 Y117.45 E3.66786
G1 X141.562 Y118.16 E3.70347
G1 X141.582 Y118.439 E3.71743
G1 X141.61 Y119.198 E3.75532
G1 X141.611 Y119.592 E3.77498
G1 X141.59 Y120.299 E3.81027
G1 X141.571 Y120.606 E3.82561
G1 X141.506 Y121.297 E3.86024
G1 X141.474 Y121.552 E3.87306
G1 X141.356 Y122.292 E3.91044
G1 X141.271 Y122.727 E3.93256
G1 X141.112 Y123.419 E3.96798
G1 X141.053 Y123.643 E3.97954
G1 X140.852 Y124.32 E4.01477
G1 X140.731 Y124.683 E4.03386
G1 X140.462 Y125.403 E4.07221
G1 X140.36 Y125.65 E4.08554
G1 X140.084 Y126.265 E4.11917
G1 X139.919 Y126.604 E4.13798
G1 X139.573 Y127.258 E4.17489
G1 X139.396 Y127.567 E4.19266
G1 X138.738 Y128.582 E4.25301
G1 X138.347 Y129.118 E4.28611
G1 X137.747 Y129.868 E4.33402
G1 X137.548 Y130.096 E4.34912
G1 X137.08 Y130.6 E4.38344
G1 X136.891 Y130.791 E4.39684
G1 X136.363 Y131.291 E4.43312
G1 X136.154 Y131.476 E4.44705
G1 X135.589 Y131.943 E4.48362
G1 X135.193 Y132.249 E4.50858
G1 X134.157 Y132.959 E4.57124
G1 X133.621 Y133.283 E4.60249
G1 X132.789 Y133.738 E4.6498
G1 X132.596 Y133.833 E4.66053
G1 X132.026 Y134.094 E4.69181
G1 X131.726 Y134.221 E4.70806
G1 X131.011 Y134.495 E4.74626
G1 X130.615 Y134.631 E4.76715
G1 X129.903 Y134.848 E4.80429
G1 X129.632 Y134.921 E4.81829
G1 X128.961 Y135.08 E4.85269
G1 X128.71 Y135.131 E4.86547
G1 X128.017 Y135.249 E4.90054
G1 X127.551 Y135.313 E4.92401
G1 X127.155 Y135.36 E4.9439
G1 X126.34 Y135.442 E4.98477
G1 X126.159 Y135.458 E4.99384
G1 X97.946 Y137.827 E6.40634
G1 X97.767 Y137.841 E6.4153
G1 X96.611 Y137.919 E6.4731
G1 X95.52 Y137.938 E6.52754
G1 X94.986 Y137.921 E6.5542
G1 X94.027 Y137.849 E6.60218
G1 X93.593 Y137.797 E6.62398
G1 X92.344 Y137.574 E6.68728
G1 X91.704 Y137.421 E6.72011
G1 X90.431 Y137.033 E6.78651
G1 X89.96 Y136.858 E6.81157
G1 X89.207 Y136.546 E6.85224
G1 X88.906 Y136.408 E6.86876
G1 X88.28 Y136.097 E6.90363
G1 X88.055 Y135.976 E6.91638
G1 X87.43 Y135.613 E6.95244
G1 X87.08 Y135.394 E6.97303
G1 X86.509 Y135.011 E7.00734
G1 X86.308 Y134.867 E7.01967
G1 X85.743 Y134.434 E7.05519
G1 X85.505 Y134.239 E7.07054
G1 X85.019 Y133.817 E7.10265
G1 X84.775 Y133.592 E7.11921
G1 X84.317 Y133.144 E7.15117
G1 X84.151 Y132.972 E7.1631
G1 X83.619 Y132.379 E7.20284
G1 X83.277 Y131.969 E7.22948
G1 X82.494 Y130.908 E7.29527
G1 X82.186 Y130.433 E7.32351
G1 X81.563 Y129.339 E7.38632
G1 X81.283 Y128.775 E7.41773
G1 X80.889 Y127.884 E7.46634
G1 X80.759 Y127.551 E7.48417
G1 X80.513 Y126.851 E7.52119
G1 X80.385 Y126.444 E7.54248
G1 X80.115 Y125.416 E7.5955
G1 X79.905 Y124.421 E7.64624
G1 X79.711 Y123.121 E7.71181
G1 X79.64 Y122.321 E7.75188
G1 X79.597 Y121.386 E7.79858
G1 X79.595 Y120.793 E7.82816
G1 X79.599 Y120.446 E7.84548
G1 X79.608 Y120.127 E7.8614
G1 X79.617 Y119.906 E7.87243
G1 X79.685 Y118.5 E7.94266
G1 X79.734 Y115.985 E8.06816
G1 X79.712 Y113.457 E8.19428
G1 X79.62 Y110.936 E8.32014
G1 X79.455 Y108.416 E8.44613
G1 X79.222 Y105.93 E8.5707
G1 X78.915 Y103.414 E8.69716
G1 X78.583 Y101.197 E8.809
G1 X78.516 Y100.653 E8.83634
G1 X78.447 Y99.956 E8.87129
G1 X78.4 Y99.268 E8.90569
G1 X78.388 Y98.935 E8.92232
G1 X78.387 Y98.171 E8.96043
G1 X78.408 Y97.544 E8.99173
G1 X78.452 Y96.869 E9.02548
G1 X78.504 Y96.323 E9.05284
G1 X78.636 Y95.376 E9.10054
G1 X78.744 Y94.789 E9.13032
G1 X78.911 Y94.029 E9.16914
G1 X79.052 Y93.483 E9.19728
G1 X79.247 Y92.817 E9.2319
G1 X79.345 Y92.517 E9.24764
G1 X79.449 Y92.215 E9.26358
G1 X79.537 Y91.97 E9.27657
G1 X79.936 Y91.003 E9.32876
G1 X80.193 Y90.457 E9.35886
G1 X80.637 Y89.613 E9.40644
G1 X80.844 Y89.257 E9.42699
G1 X81.349 Y88.467 E9.47376
G1 X81.737 Y87.948 E9.50609
G1 X82.087 Y87.507 E9.53418
G1 X82.884 Y86.608 E9.59412
G1 X83.071 Y86.419 E9.60739
G0 F2400 X83.355 Y86.701
G1 F1200 X84.136 Y85.987 E9.66018
G1 X84.569 Y85.629 E9.68821
G1 X85.423 Y84.992 E9.74136
G1 X85.623 Y84.858 E9.75337
G1 X86.661 Y84.245 E9.81351
G1 X87.248 Y83.942 E9.84647
G1 X88.285 Y83.475 E9.90321
G1 X88.484 Y83.398 E9.91386
G1 X89.578 Y83.042 E9.97125
G1 X90.058 Y82.914 E9.99604
G1 X90.826 Y82.739 E10.03534
G1 X91.224 Y82.664 E10.05554
G1 X92.135 Y82.533 E10.10146
G1 X92.718 Y82.491 E10.13062
G1 X93.124 Y82.473 E10.1509
G1 X93.824 Y82.466 E10.18582
G1 X94.237 Y82.475 E10.20643
G1 X95.177 Y82.537 E10.25343
G1 X95.393 Y82.561 E10.26427
G1 X96.159 Y82.675 E10.30291
G1 X96.471 Y82.733 E10.31874
G1 X97.249 Y82.907 E10.35851
G1 X97.785 Y83.049 E10.38618
G1 X98.416 Y83.238 E10.41904
G1 X98.894 Y83.397 E10.44417
G1 X99.25 Y83.522 E10.463
G1 X99.521 Y83.623 E10.47743
G1 X99.904 Y83.775 E10.49798
G1 X100.256 Y83.922 E10.51701
G1 X100.71 Y84.124 E10.54181
G1 X100.997 Y84.26 E10.55765
G1 X101.8 Y84.684 E10.60295
G1 X102.381 Y85.023 E10.63651
G1 X102.785 Y85.27 E10.66014
G1 X103.109 Y85.479 E10.67937
G1 X103.577 Y85.8 E10.70769
G1 X103.805 Y85.965 E10.72173
G1 X104.518 Y86.528 E10.76705
G1 X105.22 Y87.134 E10.81332
G1 X105.492 Y87.377 E10.83152
G1 X105.786 Y87.649 E10.8515
G1 X105.899 Y87.756 E10.85926
G1 X107.084 Y88.885 E10.94092
G1 X108.993 Y90.605 E11.06912
G1 X110.919 Y92.242 E11.19522
G1 X112.873 Y93.811 E11.32025
G1 X114.911 Y95.353 E11.44775
G1 X116.948 Y96.807 E11.57261
G1 X119.066 Y98.231 E11.69994
G1 X121.16 Y99.553 E11.82348
G1 X123.387 Y100.873 E11.95264
G1 X125.582 Y102.091 E12.07788
G1 X127.786 Y103.234 E12.20174
G1 X131.356 Y104.929 E12.39891
G1 X131.873 Y105.161 E12.42718
G1 X132.182 Y105.305 E12.44419
G1 X132.614 Y105.516 E12.46817
G1 X133.247 Y105.852 E12.50393
G1 X133.553 Y106.028 E12.52154
G1 X134.101 Y106.366 E12.55366
G1 X134.318 Y106.509 E12.56662
G1 X134.884 Y106.909 E12.6012
G1 X135.197 Y107.146 E12.62079
G1 X135.742 Y107.588 E12.6558
G1 X135.945 Y107.764 E12.6692
G1 X136.468 Y108.249 E12.70479
G1 X136.734 Y108.513 E12.72348
G1 X137.223 Y109.033 E12.7591
G1 X137.407 Y109.242 E12.77299
G1 X137.842 Y109.77 E12.80712
G1 X138.099 Y110.103 E12.8281
G1 X138.47 Y110.614 E12.85961
G1 X138.583 Y110.78 E12.86963
G1 X138.975 Y111.401 E12.90627
G1 X139.17 Y111.735 E12.92556
G1 X139.503 Y112.351 E12.9605
G1 X139.661 Y112.668 E12.97817
G1 X139.947 Y113.291 E13.01237
G1 X140.052 Y113.541 E13.0259
G1 X140.307 Y114.211 E13.06166
G1 X140.419 Y114.538 E13.07891
G1 X140.613 Y115.168 E13.11179
G1 X140.7 Y115.485 E13.12819
G1 X140.871 Y116.205 E13.16511
G1 X140.94 Y116.549 E13.18262
G1 X141.048 Y117.191 E13.2151
G1 X141.091 Y117.504 E13.23086
G1 X141.163 Y118.189 E13.26522
G1 X141.183 Y118.468 E13.27918
G1 X141.21 Y119.199 E13.31567
G1 X141.211 Y119.593 E13.33533
G1 X141.191 Y120.275 E13.36937
G1 X141.172 Y120.582 E13.38471
G1 X141.11 Y121.247 E13.41804
G1 X141.078 Y121.502 E13.43086
G1 X140.963 Y122.215 E13.46689
G1 X140.878 Y122.65 E13.489
G1 X140.725 Y123.317 E13.52314
G1 X140.666 Y123.541 E13.5347
G1 X140.472 Y124.193 E13.56864
G1 X140.351 Y124.556 E13.58773
G1 X140.092 Y125.25 E13.62468
G1 X139.99 Y125.497 E13.63801
G1 X139.724 Y126.09 E13.67044
G1 X139.559 Y126.429 E13.68925
G1 X139.226 Y127.059 E13.7248
G1 X139.049 Y127.368 E13.74257
G1 X138.415 Y128.346 E13.80072
G1 X138.024 Y128.882 E13.83382
G1 X137.446 Y129.605 E13.88
G1 X137.247 Y129.833 E13.89509
G1 X136.796 Y130.319 E13.92817
G1 X136.607 Y130.51 E13.94158
G1 X136.098 Y130.991 E13.97652
G1 X135.889 Y131.176 E13.99044
G1 X135.344 Y131.627 E14.02573
G1 X134.948 Y131.933 E14.0507
G1 X133.95 Y132.616 E14.11104
G1 X133.414 Y132.94 E14.14228
G1 X132.612 Y133.379 E14.1879
G1 X132.419 Y133.474 E14.19863
G1 X131.87 Y133.725 E14.22875
G1 X131.57 Y133.852 E14.245
G1 X130.881 Y134.116 E14.28181
G1 X130.485 Y134.252 E14.3027
G1 X129.799 Y134.462 E14.33849
G1 X129.528 Y134.535 E14.35249
G1 X128.882 Y134.688 E14.38561
G1 X128.631 Y134.739 E14.39839
G1 X127.962 Y134.852 E14.43224
G1 X127.496 Y134.916 E14.45571
G1 X127.115 Y134.962 E14.47486
G1 X126.3 Y135.044 E14.51572
G1 X126.126 Y135.06 E14.52444
G1 X97.913 Y137.429 E15.93694
G1 X97.74 Y137.442 E15.9456
G1 X96.584 Y137.52 E16.0034
G1 X95.533 Y137.539 E16.05585
G1 X94.999 Y137.522 E16.0825
G1 X94.075 Y137.452 E16.12873
G1 X93.641 Y137.4 E16.15054
G1 X92.437 Y137.184 E16.21157
G1 X91.797 Y137.031 E16.2444
G1 X90.57 Y136.658 E16.30838
G1 X90.099 Y136.483 E16.33345
G1 X89.373 Y136.183 E16.37264
G1 X89.072 Y136.045 E16.38916
G1 X88.469 Y135.745 E16.42276
G1 X88.244 Y135.624 E16.4355
G1 X87.642 Y135.274 E16.47024
G1 X87.292 Y135.055 E16.49084
G1 X86.742 Y134.686 E16.52389
G1 X86.541 Y134.542 E16.53622
G1 X85.996 Y134.124 E16.57049
G1 X85.758 Y133.929 E16.58584
G1 X85.29 Y133.523 E16.61675
G1 X85.046 Y133.298 E16.63331
G1 X84.605 Y132.866 E16.66411
G1 X84.439 Y132.694 E16.67603
G1 X83.926 Y132.123 E16.71433
G1 X83.584 Y131.713 E16.74096
G1 X82.83 Y130.69 E16.80437
G1 X82.522 Y130.215 E16.83261
G1 X81.922 Y129.162 E16.89308
G1 X81.642 Y128.598 E16.92449
G1 X81.262 Y127.739 E16.97135
G1 X81.132 Y127.406 E16.98919
G1 X80.894 Y126.731 E17.02489
G1 X80.766 Y126.324 E17.04618
G1 X80.506 Y125.333 E17.09729
G1 X80.296 Y124.338 E17.14803
G1 X80.11 Y123.086 E17.21118
G1 X80.039 Y122.286 E17.25125
G1 X79.997 Y121.385 E17.29625
G1 X79.995 Y120.792 E17.32583
G1 X79.999 Y120.457 E17.34255
G1 X80.008 Y120.138 E17.35847
G1 X80.016 Y119.926 E17.36905
G1 X80.086 Y118.468 E17.44187
G1 X80.134 Y115.99 E17.56553
G1 X80.112 Y113.44 E17.69275
G1 X80.02 Y110.93 E17.81806
G1 X79.854 Y108.389 E17.9451
G1 X79.616 Y105.852 E18.07223
G1 X79.309 Y103.342 E18.19838
G1 X78.979 Y101.138 E18.30957
G1 X78.914 Y100.613 E18.33596
G1 X78.845 Y99.916 E18.3709
G1 X78.8 Y99.254 E18.40401
G1 X78.788 Y98.921 E18.42063
G1 X78.787 Y98.184 E18.4574
G1 X78.808 Y97.557 E18.4887
G1 X78.85 Y96.907 E18.5212
G1 X78.902 Y96.361 E18.54856
G1 X79.029 Y95.448 E18.59455
G1 X79.137 Y94.861 E18.62433
G1 X79.299 Y94.129 E18.66173
G1 X79.44 Y93.583 E18.68986
G1 X79.627 Y92.942 E18.72317
G1 X79.725 Y92.642 E18.73892
G1 X79.825 Y92.35 E18.75432
G1 X79.913 Y92.105 E18.76731
G1 X80.298 Y91.174 E18.81757
G1 X80.555 Y90.628 E18.84768
G1 X80.982 Y89.814 E18.89353
G1 X81.189 Y89.458 E18.91408
G1 X81.686 Y88.683 E18.96001
G1 X82.05 Y88.196 E18.99035
G1 X82.4 Y87.755 E19.01843
G1 X83.168 Y86.89 E19.07614
G1 X83.355 Y86.701 E19.08941
G0 F2400 X83.639 Y86.982
G1 F1200 X84.391 Y86.295 E19.14023
G1 X84.824 Y85.937 E19.16826
G1 X85.646 Y85.324 E19.21941
G1 X85.846 Y85.19 E19.23142
G1 X86.844 Y84.6 E19.28926
G1 X87.431 Y84.297 E19.32222
G1 X88.429 Y83.848 E19.37682
G1 X88.628 Y83.771 E19.38746
G1 X89.681 Y83.428 E19.44271
G1 X90.161 Y83.3 E19.4675
G1 X90.9 Y83.132 E19.50531
G1 X91.298 Y83.057 E19.52551
G1 X92.192 Y82.93 E19.57056
G1 X92.735 Y82.891 E19.59772
G1 X93.141 Y82.873 E19.618
G1 X93.815 Y82.865 E19.65163
G1 X94.228 Y82.874 E19.67224
G1 X95.132 Y82.934 E19.71744
G1 X95.348 Y82.958 E19.72828
G1 X96.086 Y83.068 E19.76551
G1 X96.398 Y83.126 E19.78134
G1 X97.146 Y83.294 E19.81959
G1 X97.682 Y83.436 E19.84725
G1 X98.289 Y83.617 E19.87885
G1 X98.767 Y83.776 E19.90398
G1 X99.11 Y83.897 E19.92213
G1 X99.381 Y83.998 E19.93656
G1 X99.75 Y84.144 E19.95636
G1 X100.102 Y84.291 E19.97539
G1 X100.539 Y84.486 E19.99926
G1 X100.826 Y84.622 E20.01511
G1 X101.598 Y85.029 E20.05865
G1 X102.179 Y85.368 E20.0922
G1 X102.568 Y85.607 E20.11498
G1 X102.892 Y85.816 E20.13422
G1 X103.343 Y86.124 E20.16146
G1 X103.571 Y86.289 E20.17551
G1 X104.256 Y86.831 E20.21908
G1 X104.958 Y87.437 E20.26535
G1 X105.22 Y87.671 E20.28288
G1 X105.514 Y87.943 E20.30286
G1 X105.623 Y88.045 E20.31031
G1 X106.843 Y89.207 E20.39436
G1 X108.713 Y90.891 E20.51991
G1 X110.651 Y92.539 E20.64683
G1 X112.632 Y94.13 E20.77359
G1 X114.66 Y95.664 E20.90045
G1 X116.739 Y97.148 E21.02789
G1 X118.836 Y98.558 E21.15396
G1 X120.964 Y99.902 E21.27953
G1 X123.195 Y101.224 E21.40891
G1 X125.383 Y102.438 E21.53374
G1 X127.598 Y103.587 E21.65823
G1 X131.201 Y105.297 E21.8572
G1 X131.71 Y105.526 E21.88505
G1 X132.007 Y105.665 E21.90141
G1 X132.439 Y105.876 E21.9254
G1 X133.047 Y106.199 E21.95974
G1 X133.353 Y106.375 E21.97736
G1 X133.881 Y106.7 E22.00829
G1 X134.098 Y106.843 E22.02125
G1 X134.642 Y107.228 E22.0545
G1 X134.955 Y107.465 E22.07409
G1 X135.48 Y107.89 E22.10779
G1 X135.683 Y108.066 E22.12119
G1 X136.186 Y108.533 E22.15544
G1 X136.452 Y108.797 E22.17413
G1 X136.923 Y109.297 E22.2084
G1 X137.107 Y109.506 E22.2223
