;FLAVOR:Marlin
;TIME:3549
;Filament used: 3.59584m
;Layer height: 0.28
;MINX:87.202
;MINY:87.201
;MINZ:0.3
;MAXX:132.798
;MAXY:132.799
;MAXZ:19.9
;Generated with Cura_SteamEngine 4.4.0
M140 S65
M105
M190 S65
M104 S205
M105
M109 S205
M82 ;absolute extrusion mode
M201 X500.00 Y500.00 Z100.00 E5000.00 ;Setup machine max acceleration
M203 X500.00 Y500.00 Z10.00 E50.00 ;Setup machine max feedrate
M204 P500.00 R1000.00 T500.00 ;Setup Print/Retract/Travel acceleration
M205 X8.00 Y8.00 Z0.40 E5.00 ;Setup Jerk
M220 S100 ;Reset Feedrate
M221 S100 ;Reset Flowrate

G28 ;Home

G92 E0 ;Reset Extruder
G1 Z2.0 F3000 ;Move Z Axis up
G1 X10.1 Y20 Z0.28 F5000.0 ;Move to start position
G1 X10.1 Y200.0 Z0.28 F1500.0 E15 ;Draw the first line
G1 X10.4 Y200.0 Z0.28 F5000.0 ;Move to side a little
G1 X10.4 Y20 Z0.28 F1500.0 E30 ;Draw the second line
G92 E0 ;Reset Extruder
G1 Z2.0 F3000 ;Move Z Axis up

G92 E0
G92 E0
G1 F1500 E-6.5
;LAYER_COUNT:71
;LAYER:0
M107
;MESH:2b4375af-c41c-4124-9093-d43340f37580.stl
G0 F2400 X92.866 Y112.476 Z0.3
;TYPE:WALL-INNER
G1 F1500 E0
G1 F1200 X93.193 Y112.356 E0.01738
G1 X93.506 Y112.2 E0.03483
G1 X93.796 Y112.009 E0.05215
G1 X94.067 Y111.785 E0.06969
G1 X94.308 Y111.528 E0.08727
G1 X94.514 Y111.249 E0.10457
G1 X94.688 Y110.947 E0.12196
G1 X94.826 Y110.627 E0.13935
G1 X94.927 Y110.292 E0.1568
G1 X94.988 Y109.947 E0.17428
G1 X95.008 Y109.6 E0.19162
G1 X94.988 Y109.253 E0.20896
G1 X94.927 Y108.908 E0.22644
G1 X94.828 Y108.574 E0.24382
G1 X94.688 Y108.252 E0.26134
G1 X94.514 Y107.951 E0.27868
G1 X94.306 Y107.671 E0.29609
G1 X94.065 Y107.415 E0.31363
G1 X93.797 Y107.191 E0.33105
G1 X93.508 Y107.001 E0.34831
G1 X93.195 Y106.843 E0.3658
G1 X92.867 Y106.724 E0.38321
G1 X92.528 Y106.643 E0.4006
G1 X92.181 Y106.603 E0.41802
G1 X91.831 Y106.603 E0.43549
G1 X91.484 Y106.643 E0.45291
G1 X91.146 Y106.724 E0.47025
G1 X90.817 Y106.843 E0.48771
G1 X90.506 Y107.001 E0.50511
G1 X90.214 Y107.191 E0.52249
G1 X89.947 Y107.417 E0.53994
G1 X89.707 Y107.669 E0.5573
G1 X89.498 Y107.951 E0.57482
G1 X89.324 Y108.253 E0.5922
G1 X89.187 Y108.574 E0.60962
G1 X89.085 Y108.907 E0.62699
G1 X89.025 Y109.253 E0.64451
G1 X89.004 Y109.6 E0.66186
G1 X89.025 Y109.947 E0.6792
G1 X89.085 Y110.292 E0.69667
G1 X89.187 Y110.627 E0.71414
G1 X89.324 Y110.946 E0.73146
G1 X89.498 Y111.249 E0.74889
G1 X89.707 Y111.53 E0.76636
G1 X89.947 Y111.783 E0.78376
G1 X90.212 Y112.007 E0.80107
G1 X90.506 Y112.2 E0.81862
G1 X90.819 Y112.356 E0.83607
G1 X91.146 Y112.476 E0.85345
G1 X91.486 Y112.556 E0.87087
G1 X91.831 Y112.596 E0.8882
G1 X92.181 Y112.596 E0.90566
G1 X92.525 Y112.556 E0.92294
G1 X92.866 Y112.476 E0.94041
G0 F2400 X92.751 Y112.092
G1 F1200 X93.035 Y111.988 E0.9555
G1 X93.306 Y111.853 E0.97061
G1 X93.558 Y111.687 E0.98566
G1 X93.792 Y111.493 E1.00083
G1 X94 Y111.271 E1.016
G1 X94.179 Y111.029 E1.03102
G1 X94.33 Y110.767 E1.04611
G1 X94.45 Y110.49 E1.06117
G1 X94.537 Y110.199 E1.07632
G1 X94.59 Y109.901 E1.09142
G1 X94.607 Y109.6 E1.10646
G1 X94.59 Y109.299 E1.1215
G1 X94.537 Y109 E1.13665
G1 X94.451 Y108.711 E1.1517
G1 X94.33 Y108.432 E1.16687
G1 X94.179 Y108.171 E1.18191
G1 X93.999 Y107.928 E1.197
G1 X93.79 Y107.707 E1.21217
G1 X93.558 Y107.513 E1.22726
G1 X93.307 Y107.348 E1.24225
G1 X93.036 Y107.211 E1.2574
G1 X92.752 Y107.108 E1.27247
G1 X92.458 Y107.038 E1.28755
G1 X92.158 Y107.003 E1.30262
G1 X91.854 Y107.003 E1.31778
G1 X91.554 Y107.038 E1.33285
G1 X91.261 Y107.108 E1.34788
G1 X90.976 Y107.211 E1.363
G1 X90.706 Y107.348 E1.3781
G1 X90.453 Y107.513 E1.39317
G1 X90.222 Y107.708 E1.40826
G1 X90.014 Y107.927 E1.42332
G1 X89.833 Y108.171 E1.43848
G1 X89.682 Y108.432 E1.45352
G1 X89.563 Y108.711 E1.46866
G1 X89.475 Y109 E1.48373
G1 X89.423 Y109.299 E1.49887
G1 X89.405 Y109.6 E1.51391
G1 X89.423 Y109.901 E1.52896
G1 X89.475 Y110.199 E1.54405
G1 X89.563 Y110.49 E1.55922
G1 X89.682 Y110.767 E1.57426
G1 X89.833 Y111.029 E1.58934
G1 X90.014 Y111.272 E1.60446
G1 X90.222 Y111.492 E1.61957
G1 X90.452 Y111.686 E1.63458
G1 X90.706 Y111.853 E1.64974
G1 X90.977 Y111.988 E1.66485
G1 X91.261 Y112.092 E1.67994
G1 X91.555 Y112.161 E1.695
G1 X91.854 Y112.196 E1.71002
G1 X92.158 Y112.196 E1.72519
G1 X92.456 Y112.161 E1.74016
G1 X92.751 Y112.092 E1.75527
G0 F2400 X92.637 Y111.708
;TYPE:WALL-OUTER
G1 F1200 X92.877 Y111.62 E1.76803
G1 X93.106 Y111.506 E1.78079
G1 X93.319 Y111.365 E1.79353
G1 X93.517 Y111.201 E1.80636
G1 X93.692 Y111.014 E1.81914
G1 X93.844 Y110.809 E1.83187
G1 X93.972 Y110.587 E1.84465
G1 X94.074 Y110.353 E1.85739
G1 X94.147 Y110.107 E1.87019
G1 X94.192 Y109.855 E1.88296
G1 X94.206 Y109.6 E1.8957
G1 X94.192 Y109.345 E1.90844
G1 X94.147 Y109.093 E1.92122
G1 X94.074 Y108.848 E1.93397
G1 X93.972 Y108.612 E1.9468
G1 X93.844 Y108.391 E1.95954
G1 X93.692 Y108.185 E1.97231
G1 X93.516 Y107.999 E1.98509
G1 X93.319 Y107.835 E1.99787
G1 X93.106 Y107.695 E2.01059
G1 X92.877 Y107.579 E2.0234
G1 X92.637 Y107.492 E2.03613
G1 X92.388 Y107.433 E2.0489
G1 X92.134 Y107.403 E2.06166
G1 X91.878 Y107.403 E2.07443
G1 X91.624 Y107.433 E2.08719
G1 X91.376 Y107.492 E2.09991
G1 X91.135 Y107.579 E2.11269
G1 X90.906 Y107.695 E2.1255
G1 X90.692 Y107.835 E2.13826
G1 X90.497 Y107.999 E2.15097
G1 X90.321 Y108.185 E2.16375
G1 X90.168 Y108.391 E2.17655
G1 X90.04 Y108.612 E2.18929
G1 X89.939 Y108.848 E2.2021
G1 X89.865 Y109.093 E2.21487
G1 X89.821 Y109.345 E2.22763
G1 X89.806 Y109.6 E2.24037
G1 X89.821 Y109.855 E2.25312
G1 X89.865 Y110.107 E2.26588
G1 X89.939 Y110.353 E2.27869
G1 X90.04 Y110.587 E2.29141
G1 X90.168 Y110.809 E2.30419
G1 X90.321 Y111.014 E2.31696
G1 X90.497 Y111.201 E2.32977
G1 X90.692 Y111.365 E2.34248
G1 X90.906 Y111.506 E2.35527
G1 X91.135 Y111.62 E2.36803
G1 X91.376 Y111.708 E2.38083
G1 X91.624 Y111.766 E2.39353
G1 X91.878 Y111.796 E2.4063
G1 X92.134 Y111.796 E2.41907
G1 X92.387 Y111.766 E2.43178
G1 X92.637 Y111.708 E2.44458
G0 F2400 X92.762 Y112.129
G1 F1500 E-4.05542
G0 F2400 X93.876 Y111.167
G0 X95.178 Y109.231
G0 X93.332 Y109.443
G0 X110.021 Y93.283
G0 X109.485 Y95.062
G0 X110.227 Y95.001
;TYPE:WALL-INNER
G1 F1500 E2.44458
G1 F1200 X110.577 Y95.001 E2.46204
G1 X110.924 Y94.961 E2.47947
G1 X111.262 Y94.88 E2.49681
G1 X111.589 Y94.761 E2.51417
G1 X111.902 Y94.605 E2.53162
G1 X112.196 Y94.411 E2.54919
G1 X112.461 Y94.187 E2.5665
G1 X112.701 Y93.935 E2.58386
G1 X112.91 Y93.653 E2.60138
G1 X113.084 Y93.352 E2.61872
G1 X113.221 Y93.031 E2.63613
G1 X113.323 Y92.698 E2.65351
G1 X113.383 Y92.352 E2.67103
G1 X113.404 Y92.004 E2.68842
G1 X113.383 Y91.657 E2.70577
G1 X113.323 Y91.312 E2.72324
G1 X113.221 Y90.977 E2.74071
G1 X113.084 Y90.658 E2.75803
G1 X112.91 Y90.355 E2.77546
G1 X112.701 Y90.074 E2.79293
G1 X112.461 Y89.822 E2.81029
G1 X112.196 Y89.598 E2.8276
G1 X111.902 Y89.404 E2.84518
G1 X111.589 Y89.248 E2.86263
G1 X111.262 Y89.128 E2.88
G1 X110.922 Y89.048 E2.89743
G1 X110.577 Y89.008 E2.91476
G1 X110.227 Y89.008 E2.93222
G1 X109.883 Y89.048 E2.9495
G1 X109.542 Y89.128 E2.96697
G1 X109.215 Y89.248 E2.98435
G1 X108.902 Y89.404 E3.0018
G1 X108.61 Y89.597 E3.01926
G1 X108.341 Y89.822 E3.03676
G1 X108.103 Y90.076 E3.05412
G1 X107.894 Y90.355 E3.07151
G1 X107.72 Y90.657 E3.0889
G1 X107.582 Y90.977 E3.10629
G1 X107.481 Y91.312 E3.12374
G1 X107.42 Y91.657 E3.14122
G1 X107.4 Y92.004 E3.15856
G1 X107.42 Y92.352 E3.17595
G1 X107.481 Y92.698 E3.19348
G1 X107.582 Y93.031 E3.21084
G1 X107.72 Y93.352 E3.22827
G1 X107.894 Y93.652 E3.24558
G1 X108.1 Y93.933 E3.26296
G1 X108.341 Y94.188 E3.28046
G1 X108.61 Y94.412 E3.29793
G1 X108.902 Y94.605 E3.31539
G1 X109.215 Y94.761 E3.33284
G1 X109.541 Y94.88 E3.35015
G1 X109.88 Y94.961 E3.36754
G1 X110.227 Y95.001 E3.38497
G0 F2400 X110.25 Y94.601
G1 F1200 X110.554 Y94.601 E3.40014
G1 X110.854 Y94.566 E3.4152
G1 X111.147 Y94.496 E3.43023
G1 X111.431 Y94.393 E3.4453
G1 X111.702 Y94.258 E3.46041
G1 X111.956 Y94.09 E3.4756
G1 X112.186 Y93.896 E3.49061
G1 X112.394 Y93.677 E3.50568
G1 X112.575 Y93.433 E3.52084
G1 X112.726 Y93.172 E3.53588
G1 X112.845 Y92.894 E3.55097
G1 X112.933 Y92.605 E3.56604
G1 X112.985 Y92.306 E3.58118
G1 X113.003 Y92.004 E3.59628
G1 X112.985 Y91.703 E3.61132
G1 X112.933 Y91.405 E3.62641
G1 X112.845 Y91.114 E3.64158
G1 X112.726 Y90.837 E3.65662
G1 X112.575 Y90.575 E3.67171
G1 X112.394 Y90.332 E3.68682
G1 X112.186 Y90.113 E3.70189
G1 X111.956 Y89.919 E3.7169
G1 X111.702 Y89.751 E3.7321
G1 X111.431 Y89.616 E3.7472
G1 X111.147 Y89.512 E3.76229
G1 X110.853 Y89.443 E3.77736
G1 X110.554 Y89.408 E3.79238
G1 X110.25 Y89.408 E3.80754
G1 X109.952 Y89.443 E3.82251
G1 X109.657 Y89.512 E3.83763
G1 X109.373 Y89.616 E3.85272
G1 X109.102 Y89.751 E3.86782
G1 X108.849 Y89.918 E3.88295
G1 X108.616 Y90.113 E3.8981
G1 X108.41 Y90.333 E3.91314
G1 X108.229 Y90.575 E3.92822
G1 X108.078 Y90.837 E3.9433
G1 X107.958 Y91.114 E3.95836
G1 X107.871 Y91.405 E3.97352
G1 X107.818 Y91.703 E3.98862
G1 X107.801 Y92.004 E4.00366
G1 X107.818 Y92.306 E4.01875
G1 X107.871 Y92.605 E4.0339
G1 X107.958 Y92.894 E4.04896
G1 X108.078 Y93.172 E4.06406
G1 X108.229 Y93.433 E4.07911
G1 X108.408 Y93.676 E4.09416
G1 X108.616 Y93.896 E4.10927
G1 X108.849 Y94.091 E4.12443
G1 X109.102 Y94.258 E4.13955
G1 X109.373 Y94.393 E4.15466
G1 X109.656 Y94.496 E4.16968
G1 X109.95 Y94.566 E4.18476
G1 X110.25 Y94.601 E4.19983
G0 F2400 X110.274 Y94.201
;TYPE:WALL-OUTER
G1 F1200 X110.53 Y94.201 E4.2126
G1 X110.784 Y94.171 E4.22536
G1 X111.032 Y94.112 E4.23808
G1 X111.273 Y94.025 E4.25086
G1 X111.502 Y93.911 E4.26362
G1 X111.716 Y93.769 E4.27644
G1 X111.911 Y93.605 E4.28915
G1 X112.087 Y93.419 E4.30192
G1 X112.24 Y93.213 E4.31473
G1 X112.368 Y92.992 E4.32747
G1 X112.469 Y92.757 E4.34023
G1 X112.543 Y92.512 E4.353
G1 X112.587 Y92.26 E4.36576
G1 X112.602 Y92.004 E4.37855
G1 X112.587 Y91.749 E4.3913
G1 X112.543 Y91.497 E4.40406
G1 X112.469 Y91.251 E4.41688
G1 X112.368 Y91.017 E4.42959
G1 X112.24 Y90.795 E4.44238
G1 X112.087 Y90.59 E4.45514
G1 X111.911 Y90.404 E4.46791
G1 X111.716 Y90.24 E4.48062
G1 X111.502 Y90.098 E4.49344
G1 X111.273 Y89.984 E4.5062
G1 X111.032 Y89.896 E4.519
G1 X110.784 Y89.838 E4.53171
G1 X110.53 Y89.808 E4.54447
G1 X110.274 Y89.808 E4.55724
G1 X110.021 Y89.838 E4.56995
G1 X109.771 Y89.896 E4.58275
G1 X109.531 Y89.984 E4.59551
G1 X109.302 Y90.098 E4.60827
G1 X109.088 Y90.239 E4.62105
G1 X108.891 Y90.404 E4.63387
G1 X108.717 Y90.59 E4.64658
G1 X108.564 Y90.795 E4.65934
G1 X108.436 Y91.017 E4.67213
G1 X108.334 Y91.251 E4.68486
G1 X108.261 Y91.497 E4.69767
G1 X108.216 Y91.749 E4.71044
G1 X108.202 Y92.004 E4.72318
G1 X108.216 Y92.26 E4.73597
G1 X108.261 Y92.512 E4.74874
G1 X108.334 Y92.757 E4.76149
G1 X108.436 Y92.992 E4.77428
G1 X108.564 Y93.213 E4.78702
G1 X108.716 Y93.419 E4.79979
G1 X108.891 Y93.605 E4.81253
G1 X109.088 Y93.77 E4.82535
G1 X109.302 Y93.911 E4.83814
G1 X109.531 Y94.025 E4.8509
G1 X109.771 Y94.112 E4.86363
G1 X110.02 Y94.171 E4.8764
G1 X110.274 Y94.201 E4.88916
G0 F2400 X110.249 Y94.64
G1 F1500 E-1.61084
G0 F2400 X111.318 Y95.062
G0 X110.785 Y93.282
G0 X126.744 Y109.942
G0 X124.998 Y109.307
G0 X125.817 Y111.495
G0 X126.227 Y112.045
G0 X127.475 Y113.357
;TYPE:WALL-INNER
G1 F1500 E4.88916
G1 F1200 X127.822 Y113.397 E4.90659
G1 X128.173 Y113.397 E4.9241
G1 X128.52 Y113.357 E4.94153
G1 X128.858 Y113.276 E4.95887
G1 X129.186 Y113.157 E4.97627
G1 X129.498 Y112.999 E4.99372
G1 X129.787 Y112.809 E5.01098
G1 X130.057 Y112.585 E5.02848
G1 X130.299 Y112.329 E5.04605
G1 X130.505 Y112.049 E5.0634
G1 X130.68 Y111.748 E5.08077
G1 X130.819 Y111.424 E5.09836
G1 X130.918 Y111.092 E5.11564
G1 X130.979 Y110.747 E5.13312
G1 X130.999 Y110.4 E5.15046
G1 X130.979 Y110.053 E5.1678
G1 X130.918 Y109.708 E5.18528
G1 X130.819 Y109.374 E5.20266
G1 X130.68 Y109.053 E5.22011
G1 X130.505 Y108.751 E5.23753
G1 X130.299 Y108.472 E5.25483
G1 X130.058 Y108.217 E5.27233
G1 X129.789 Y107.991 E5.28986
G1 X129.497 Y107.8 E5.30727
G1 X129.185 Y107.644 E5.32467
G1 X128.858 Y107.524 E5.34205
G1 X128.518 Y107.444 E5.35948
G1 X128.173 Y107.404 E5.3768
G1 X127.822 Y107.404 E5.39431
G1 X127.477 Y107.444 E5.41164
G1 X127.137 Y107.524 E5.42907
G1 X126.81 Y107.644 E5.44645
G1 X126.497 Y107.8 E5.46389
G1 X126.203 Y107.993 E5.48144
G1 X125.938 Y108.217 E5.49875
G1 X125.698 Y108.47 E5.51615
G1 X125.489 Y108.751 E5.53362
G1 X125.315 Y109.054 E5.55105
G1 X125.178 Y109.373 E5.56837
G1 X125.076 Y109.708 E5.58584
G1 X125.016 Y110.053 E5.60331
G1 X124.995 Y110.4 E5.62066
G1 X125.016 Y110.747 E5.638
G1 X125.076 Y111.093 E5.65552
G1 X125.178 Y111.426 E5.6729
G1 X125.315 Y111.747 E5.69031
G1 X125.489 Y112.049 E5.7077
G1 X125.698 Y112.331 E5.72521
G1 X125.938 Y112.583 E5.74257
G1 X126.205 Y112.809 E5.76002
G1 X126.497 Y112.999 E5.7774
G1 X126.808 Y113.157 E5.79481
G1 X127.137 Y113.276 E5.81226
G1 X127.475 Y113.357 E5.8296
G0 F2400 X127.545 Y112.962
G1 F1200 X127.845 Y112.997 E5.84467
G1 X128.15 Y112.997 E5.85989
G1 X128.45 Y112.962 E5.87496
G1 X128.743 Y112.892 E5.88998
G1 X129.027 Y112.789 E5.90506
G1 X129.297 Y112.652 E5.92016
G1 X129.549 Y112.487 E5.93519
G1 X129.783 Y112.293 E5.95035
G1 X129.991 Y112.072 E5.96549
G1 X130.17 Y111.829 E5.98055
G1 X130.322 Y111.568 E5.99562
G1 X130.442 Y111.288 E6.01082
G1 X130.528 Y111 E6.02581
G1 X130.581 Y110.701 E6.04096
G1 X130.598 Y110.4 E6.056
G1 X130.581 Y110.099 E6.07105
G1 X130.528 Y109.8 E6.0862
G1 X130.442 Y109.511 E6.10124
G1 X130.322 Y109.233 E6.11635
G1 X130.17 Y108.971 E6.13146
G1 X129.991 Y108.729 E6.14647
G1 X129.783 Y108.508 E6.16162
G1 X129.55 Y108.313 E6.17677
G1 X129.297 Y108.147 E6.19187
G1 X129.026 Y108.012 E6.20698
G1 X128.743 Y107.908 E6.22202
G1 X128.449 Y107.839 E6.23708
G1 X128.15 Y107.804 E6.2521
G1 X127.845 Y107.804 E6.26732
G1 X127.546 Y107.839 E6.28234
G1 X127.252 Y107.908 E6.2974
G1 X126.968 Y108.012 E6.31249
G1 X126.697 Y108.147 E6.3276
G1 X126.443 Y108.314 E6.34276
G1 X126.213 Y108.508 E6.35778
G1 X126.005 Y108.728 E6.37288
G1 X125.824 Y108.971 E6.388
G1 X125.673 Y109.233 E6.40308
G1 X125.554 Y109.51 E6.41812
G1 X125.466 Y109.801 E6.43329
G1 X125.414 Y110.099 E6.44838
G1 X125.396 Y110.4 E6.46343
G1 X125.414 Y110.701 E6.47847
G1 X125.466 Y111 E6.49361
G1 X125.554 Y111.289 E6.50868
G1 X125.673 Y111.568 E6.52382
G1 X125.824 Y111.829 E6.53886
G1 X126.005 Y112.073 E6.55402
G1 X126.213 Y112.292 E6.56909
G1 X126.444 Y112.487 E6.58417
G1 X126.697 Y112.652 E6.59924
G1 X126.967 Y112.789 E6.61434
G1 X127.252 Y112.892 E6.62946
G1 X127.545 Y112.962 E6.64449
G0 F2400 X127.615 Y112.567
;TYPE:WALL-OUTER
G1 F1200 X127.869 Y112.597 E6.65725
G1 X128.126 Y112.597 E6.67007
G1 X128.38 Y112.567 E6.68283
G1 X128.628 Y112.508 E6.69555
G1 X128.868 Y112.421 E6.70829
G1 X129.097 Y112.305 E6.72109
G1 X129.311 Y112.165 E6.73385
G1 X129.508 Y112.001 E6.74664
G1 X129.683 Y111.815 E6.75938
G1 X129.835 Y111.609 E6.77215
G1 X129.964 Y111.388 E6.78492
G1 X130.065 Y111.152 E6.79773
G1 X130.138 Y110.907 E6.81048
G1 X130.183 Y110.655 E6.82325
G1 X130.197 Y110.4 E6.83599
G1 X130.183 Y110.145 E6.84874
G1 X130.138 Y109.893 E6.86151
G1 X130.065 Y109.648 E6.87426
G1 X129.964 Y109.413 E6.88702
G1 X129.835 Y109.191 E6.89983
G1 X129.683 Y108.986 E6.91256
G1 X129.508 Y108.799 E6.92534
G1 X129.311 Y108.635 E6.93813
G1 X129.097 Y108.494 E6.95092
G1 X128.868 Y108.38 E6.96368
G1 X128.628 Y108.292 E6.97643
G1 X128.38 Y108.234 E6.98914
G1 X128.126 Y108.204 E7.0019
G1 X127.869 Y108.204 E7.01472
G1 X127.615 Y108.234 E7.02748
G1 X127.367 Y108.292 E7.04019
G1 X127.126 Y108.38 E7.05299
G1 X126.897 Y108.494 E7.06575
G1 X126.683 Y108.635 E7.07853
G1 X126.488 Y108.799 E7.09125
G1 X126.312 Y108.986 E7.10406
G1 X126.159 Y109.191 E7.11682
G1 X126.031 Y109.413 E7.1296
G1 X125.93 Y109.647 E7.14232
G1 X125.856 Y109.893 E7.15514
G1 X125.812 Y110.145 E7.1679
