;FLAVOR:Marlin
;TIME:3500
;Filament used: 2.43485m
;Layer height: 0.28
;MINX:49.885
;MINY:39.679
;MINZ:0.3
;MAXX:170.114
;MAXY:180.32
;MAXZ:9.82
;Generated with Cura_SteamEngine 4.4.0
M140 S60
M105
M190 S60
M104 S200
M105
M109 S200
M82 ;absolute extrusion mode
M201 X500.00 Y500.00 Z100.00 E5000.00 ;Setup machine max acceleration
M203 X500.00 Y500.00 Z10.00 E50.00 ;Setup machine max feedrate
M204 P500.00 R1000.00 T500.00 ;Setup Print/Retract/Travel acceleration
M205 X8.00 Y8.00 Z0.40 E5.00 ;Setup Jerk
M220 S100 ;Reset Feedrate
M221 S100 ;Reset Flowrate

G28 ;Home

G92 E0 ;Reset Extruder
G1 Z2.0 F3000 ;Move Z Axis up
G1 X10.1 Y20 Z0.28 F5000.0 ;Move to start position
G1 X10.1 Y200.0 Z0.28 F1500.0 E15 ;Draw the first line
G1 X10.4 Y200.0 Z0.28 F5000.0 ;Move to side a little
G1 X10.4 Y20 Z0.28 F1500.0 E30 ;Draw the second line
G92 E0 ;Reset Extruder
G1 Z2.0 F3000 ;Move Z Axis up

G92 E0
G92 E0
G1 F1500 E-6.5
;LAYER_COUNT:35
;LAYER:0
M107
G0 F2400 X120.715 Y71.426 Z0.3
;TYPE:SKIRT
G1 F1500 E0
G1 F1200 X141.229 Y46.166 E1.62346
G1 X141.33 Y46.044 E1.63136
G1 X141.872 Y45.396 E1.67351
G1 X142.208 Y45.013 E1.69893
G1 X142.5 Y44.695 E1.72046
G1 X143.259 Y43.944 E1.77373
G1 X143.684 Y43.563 E1.80221
G1 X144.524 Y42.882 E1.85616
G1 X144.7 Y42.753 E1.86705
G1 X144.981 Y42.554 E1.88423
G1 X145.223 Y42.388 E1.89887
G1 X146.036 Y41.881 E1.94667
G1 X146.523 Y41.606 E1.97457
G1 X147.451 Y41.138 E2.02642
G1 X147.655 Y41.047 E2.03757
G1 X147.964 Y40.915 E2.05433
G1 X148.247 Y40.799 E2.06959
G1 X149.224 Y40.451 E2.12133
G1 X149.761 Y40.288 E2.14933
G1 X150.756 Y40.036 E2.20054
G1 X150.952 Y39.996 E2.21052
G1 X151.283 Y39.934 E2.22732
G1 X151.602 Y39.879 E2.24347
G1 X152.59 Y39.754 E2.29315
G1 X153.15 Y39.709 E2.32118
G1 X154.366 Y39.679 E2.38187
G1 X154.859 Y39.694 E2.40647
G1 X155.733 Y39.756 E2.45019
G1 X155.959 Y39.781 E2.46153
G1 X156.413 Y39.84 E2.48437
G1 X156.74 Y39.89 E2.50088
G1 X157.49 Y40.032 E2.53896
G1 X157.699 Y40.079 E2.54965
G1 X158.152 Y40.191 E2.57293
G1 X158.467 Y40.276 E2.5892
G1 X159.384 Y40.567 E2.6372
G1 X159.881 Y40.749 E2.66361
G1 X160.691 Y41.083 E2.70732
G1 X160.876 Y41.168 E2.71748
G1 X161.326 Y41.387 E2.74244
G1 X161.642 Y41.55 E2.76018
G1 X162.575 Y42.091 E2.81399
G1 X163.034 Y42.388 E2.84127
G1 X163.97 Y43.066 E2.89893
G1 X164.381 Y43.398 E2.92529
G1 X165.091 Y44.024 E2.97251
G1 X165.245 Y44.172 E2.98317
G1 X165.55 Y44.477 E3.00469
G1 X165.778 Y44.714 E3.02109
G1 X166.434 Y45.461 E3.07069
G1 X166.765 Y45.874 E3.0971
G1 X167.455 Y46.836 E3.15616
G1 X167.753 Y47.303 E3.1838
G1 X168.269 Y48.202 E3.23551
G1 X168.37 Y48.399 E3.24656
G1 X168.533 Y48.732 E3.26505
G1 X168.67 Y49.023 E3.2811
G1 X169.051 Y49.936 E3.33046
G1 X169.235 Y50.44 E3.35723
G1 X169.584 Y51.588 E3.41709
G1 X169.711 Y52.105 E3.44365
G1 X169.882 Y52.938 E3.48607
G1 X169.916 Y53.144 E3.49649
G1 X169.988 Y53.653 E3.52214
G1 X170.028 Y53.994 E3.53927
G1 X170.099 Y54.969 E3.58804
G1 X170.114 Y55.507 E3.61489
G1 X170.092 Y56.563 E3.66758
G1 X170.075 Y56.812 E3.68004
G1 X170.046 Y57.166 E3.69776
G1 X170.019 Y57.434 E3.71119
G1 X169.923 Y58.147 E3.74709
G1 X169.885 Y58.374 E3.75857
G1 X169.799 Y58.829 E3.78167
G1 X169.73 Y59.156 E3.79835
G1 X169.483 Y60.113 E3.84765
G1 X169.324 Y60.631 E3.87469
G1 X168.95 Y61.663 E3.92945
G1 X168.845 Y61.913 E3.94298
G1 X168.713 Y62.214 E3.95938
G1 X168.605 Y62.451 E3.97237
G1 X168.159 Y63.324 E4.02128
G1 X167.888 Y63.801 E4.04865
G1 X167.392 Y64.594 E4.09531
G1 X167.278 Y64.76 E4.10536
G1 X167.013 Y65.128 E4.12798
G1 X166.78 Y65.439 E4.14737
G1 X166.603 Y65.67 E4.16189
G1 X166.216 Y66.159 E4.193
G1 X166.129 Y66.268 E4.19996
G1 X147.666 Y89.001 E5.66105
G1 X80.369 Y171.861 E10.98662
G1 X78.765 Y173.836 E11.11355
G1 X78.665 Y173.958 E11.12142
G1 X78.125 Y174.604 E11.16343
G1 X77.783 Y174.993 E11.18927
G1 X77.487 Y175.315 E11.21109
G1 X76.721 Y176.071 E11.26478
G1 X76.315 Y176.434 E11.29196
G1 X75.373 Y177.188 E11.35215
G1 X74.94 Y177.497 E11.37869
G1 X73.949 Y178.127 E11.43728
G1 X73.475 Y178.394 E11.46442
G1 X72.431 Y178.911 E11.52254
G1 X71.93 Y179.127 E11.54976
G1 X70.892 Y179.514 E11.60503
G1 X70.677 Y179.582 E11.61628
G1 X70.382 Y179.671 E11.63165
G1 X70.074 Y179.759 E11.64763
G1 X69.108 Y179.988 E11.69716
G1 X68.593 Y180.086 E11.72332
G1 X67.437 Y180.243 E11.78152
G1 X66.913 Y180.286 E11.80775
G1 X65.754 Y180.32 E11.8656
G1 X65.201 Y180.307 E11.89319
G1 X64.111 Y180.227 E11.94772
G1 X63.844 Y180.194 E11.96114
G1 X63.52 Y180.149 E11.97746
G1 X63.26 Y180.109 E11.99059
G1 X62.288 Y179.914 E12.04005
G1 X61.743 Y179.779 E12.06806
G1 X60.574 Y179.419 E12.12908
G1 X60.079 Y179.236 E12.15541
G1 X59.175 Y178.856 E12.20434
G1 X58.937 Y178.743 E12.21748
G1 X58.576 Y178.563 E12.2376
G1 X58.332 Y178.436 E12.25133
G1 X57.476 Y177.941 E12.30066
G1 X57.025 Y177.652 E12.32738
G1 X56.083 Y176.976 E12.38523
G1 X55.656 Y176.634 E12.41252
G1 X54.755 Y175.826 E12.4729
G1 X54.377 Y175.448 E12.49957
G1 X53.56 Y174.534 E12.56073
G1 X53.219 Y174.107 E12.588
G1 X52.557 Y173.185 E12.64462
G1 X52.272 Y172.741 E12.67095
G1 X51.675 Y171.687 E12.73138
G1 X51.428 Y171.189 E12.75911
G1 X51.031 Y170.29 E12.80814
G1 X50.952 Y170.087 E12.81901
G1 X50.806 Y169.689 E12.84016
G1 X50.701 Y169.385 E12.85621
G1 X50.423 Y168.447 E12.90502
G1 X50.293 Y167.924 E12.9319
G1 X50.064 Y166.718 E12.99314
G1 X49.991 Y166.168 E13.02082
G1 X49.898 Y164.995 E13.07953
G1 X49.885 Y164.474 E13.10553
G1 X49.915 Y163.355 E13.16138
G1 X49.955 Y162.836 E13.18735
G1 X50.081 Y161.82 E13.23842
G1 X50.127 Y161.552 E13.25199
G1 X50.204 Y161.149 E13.27246
G1 X50.265 Y160.859 E13.28724
G1 X50.514 Y159.894 E13.33697
G1 X50.67 Y159.386 E13.36348
G1 X51.097 Y158.229 E13.42501
G1 X51.317 Y157.723 E13.45253
G1 X51.834 Y156.686 E13.51034
G1 X52.102 Y156.213 E13.53747
G1 X52.752 Y155.201 E13.59747
G1 X53.06 Y154.774 E13.62374
G1 X53.347 Y154.393 E13.64754
G1 X53.808 Y153.809 E13.68466
G1 X53.903 Y153.69 E13.69225
G1 X120.715 Y71.426 E18.97949
G0 F2400 X121.026 Y71.678
G1 F1200 X141.54 Y46.418 E20.60294
G1 X141.637 Y46.3 E20.61057
G1 X142.179 Y45.652 E20.65271
G1 X142.502 Y45.284 E20.67714
G1 X142.794 Y44.966 E20.69868
G1 X143.526 Y44.242 E20.75004
G1 X143.951 Y43.861 E20.77852
G1 X144.761 Y43.205 E20.83052
G1 X144.937 Y43.076 E20.84141
G1 X145.207 Y42.884 E20.85794
G1 X145.449 Y42.718 E20.87258
G1 X146.233 Y42.229 E20.91868
G1 X146.72 Y41.954 E20.94658
G1 X147.614 Y41.503 E20.99654
G1 X147.818 Y41.412 E21.00768
G1 X148.116 Y41.285 E21.02384
G1 X148.399 Y41.169 E21.0391
G1 X149.34 Y40.834 E21.08893
G1 X149.877 Y40.671 E21.11693
G1 X150.836 Y40.428 E21.16629
G1 X151.032 Y40.388 E21.17627
G1 X151.351 Y40.328 E21.19246
G1 X151.67 Y40.273 E21.20861
G1 X152.622 Y40.153 E21.25648
G1 X153.182 Y40.108 E21.28451
G1 X154.353 Y40.079 E21.34295
G1 X154.846 Y40.094 E21.36756
G1 X155.689 Y40.153 E21.40972
G1 X155.915 Y40.178 E21.42106
G1 X156.352 Y40.236 E21.44306
G1 X156.679 Y40.286 E21.45956
G1 X157.403 Y40.422 E21.49631
G1 X157.612 Y40.469 E21.507
G1 X158.048 Y40.577 E21.52941
G1 X158.363 Y40.662 E21.54569
G1 X159.246 Y40.942 E21.5919
G1 X159.743 Y41.124 E21.61831
G1 X160.524 Y41.446 E21.66045
G1 X160.709 Y41.531 E21.67061
G1 X161.142 Y41.742 E21.69464
G1 X161.458 Y41.905 E21.71238
G1 X162.357 Y42.427 E21.76424
G1 X162.816 Y42.724 E21.79152
G1 X163.719 Y43.377 E21.84712
G1 X164.13 Y43.709 E21.87347
G1 X164.814 Y44.312 E21.91897
G1 X164.968 Y44.46 E21.92962
G1 X165.262 Y44.754 E21.95037
G1 X165.49 Y44.991 E21.96677
G1 X166.122 Y45.711 E22.01457
G1 X166.453 Y46.124 E22.04098
G1 X167.118 Y47.051 E22.09789
G1 X167.416 Y47.518 E22.12553
G1 X167.913 Y48.384 E22.17535
G1 X168.014 Y48.581 E22.18639
G1 X168.171 Y48.902 E22.20422
G1 X168.308 Y49.193 E22.22026
G1 X168.675 Y50.073 E22.26783
G1 X168.859 Y50.577 E22.2946
G1 X169.196 Y51.683 E22.35228
G1 X169.323 Y52.2 E22.37884
G1 X169.488 Y53.003 E22.41974
G1 X169.522 Y53.209 E22.43016
G1 X169.591 Y53.7 E22.4549
G1 X169.631 Y54.041 E22.47203
G1 X169.699 Y54.981 E22.51904
G1 X169.714 Y55.519 E22.5459
G1 X169.693 Y56.536 E22.59665
G1 X169.676 Y56.785 E22.6091
G1 X169.648 Y57.126 E22.62617
G1 X169.621 Y57.394 E22.6396
G1 X169.529 Y58.081 E22.67419
G1 X169.491 Y58.308 E22.68567
G1 X169.408 Y58.747 E22.70796
G1 X169.339 Y59.074 E22.72463
G1 X169.1 Y59.995 E22.7721
G1 X168.941 Y60.513 E22.79914
G1 X168.581 Y61.508 E22.85193
G1 X168.476 Y61.758 E22.86545
G1 X168.349 Y62.049 E22.88129
G1 X168.241 Y62.286 E22.89429
G1 X167.811 Y63.126 E22.94137
G1 X167.54 Y63.603 E22.96874
G1 X167.062 Y64.368 E23.01374
G1 X166.948 Y64.534 E23.02379
G1 X166.693 Y64.889 E23.04559
G1 X166.46 Y65.2 E23.06498
G1 X166.289 Y65.422 E23.07896
G1 X165.902 Y65.911 E23.11007
G1 X165.818 Y66.016 E23.11678
G1 X147.355 Y88.749 E24.57787
G1 X80.058 Y171.609 E29.90344
G1 X78.454 Y173.584 E30.03037
G1 X78.358 Y173.701 E30.03792
G1 X77.818 Y174.347 E30.07993
G1 X77.489 Y174.723 E30.10486
G1 X77.193 Y175.045 E30.12668
G1 X76.454 Y175.773 E30.17843
G1 X76.048 Y176.136 E30.2056
G1 X75.14 Y176.862 E30.2636
G1 X74.707 Y177.171 E30.29014
G1 X73.752 Y177.779 E30.34662
G1 X73.278 Y178.046 E30.37376
G1 X72.273 Y178.544 E30.42972
G1 X71.772 Y178.76 E30.45694
G1 X70.771 Y179.133 E30.51024
G1 X70.556 Y179.201 E30.52149
G1 X70.272 Y179.286 E30.53628
G1 X69.964 Y179.374 E30.55226
G1 X69.034 Y179.595 E30.59995
G1 X68.519 Y179.693 E30.6261
G1 X67.404 Y179.844 E30.68224
G1 X66.88 Y179.887 E30.70847
G1 X65.764 Y179.92 E30.76417
G1 X65.211 Y179.907 E30.79177
G1 X64.16 Y179.83 E30.84434
G1 X63.893 Y179.797 E30.85776
G1 X63.581 Y179.754 E30.87348
G1 X63.321 Y179.714 E30.8866
G1 X62.384 Y179.526 E30.93428
G1 X61.839 Y179.391 E30.96229
G1 X60.712 Y179.044 E31.02112
G1 X60.217 Y178.861 E31.04745
G1 X59.347 Y178.495 E31.09454
G1 X59.109 Y178.382 E31.10768
G1 X58.761 Y178.209 E31.12707
G1 X58.517 Y178.082 E31.1408
G1 X57.692 Y177.604 E31.18836
G1 X57.241 Y177.315 E31.21509
G1 X56.334 Y176.663 E31.27082
G1 X55.907 Y176.321 E31.29811
G1 X55.038 Y175.543 E31.3563
G1 X54.66 Y175.165 E31.38297
G1 X53.872 Y174.285 E31.4419
G1 X53.531 Y173.858 E31.46917
G1 X52.894 Y172.969 E31.52373
G1 X52.609 Y172.525 E31.55005
G1 X52.033 Y171.509 E31.60832
G1 X51.786 Y171.011 E31.63605
G1 X51.404 Y170.145 E31.68328
G1 X51.325 Y169.942 E31.69414
G1 X51.184 Y169.559 E31.7145
G1 X51.079 Y169.255 E31.73055
G1 X50.811 Y168.351 E31.77759
G1 X50.681 Y167.828 E31.80448
G1 X50.46 Y166.666 E31.86349
G1 X50.387 Y166.116 E31.89117
G1 X50.298 Y164.985 E31.94777
G1 X50.285 Y164.464 E31.97377
G1 X50.313 Y163.385 E32.02762
G1 X50.353 Y162.866 E32.05359
G1 X50.475 Y161.888 E32.10276
G1 X50.521 Y161.62 E32.11633
G1 X50.595 Y161.231 E32.13608
G1 X50.656 Y160.941 E32.15087
G1 X50.896 Y160.011 E32.19878
G1 X51.052 Y159.503 E32.2253
G1 X51.464 Y158.389 E32.28455
G1 X51.684 Y157.883 E32.31208
G1 X52.182 Y156.884 E32.36777
G1 X52.45 Y156.411 E32.39489
G1 X53.076 Y155.435 E32.45274
G1 X53.384 Y155.008 E32.47901
G1 X53.661 Y154.641 E32.50195
G1 X54.122 Y154.057 E32.53907
G1 X54.214 Y153.942 E32.54642
G1 X121.026 Y71.678 E37.83365
G0 F2400 X121.336 Y71.931
G1 F1200 X141.85 Y46.671 E39.45711
G1 X141.944 Y46.557 E39.46448
G1 X142.486 Y45.909 E39.50663
G1 X142.797 Y45.554 E39.53017
G1 X143.089 Y45.236 E39.55171
G1 X143.793 Y44.54 E39.6011
G1 X144.218 Y44.159 E39.62958
G1 X144.997 Y43.527 E39.67962
G1 X145.173 Y43.398 E39.69051
G1 X145.433 Y43.214 E39.7064
G1 X145.675 Y43.048 E39.72104
G1 X146.43 Y42.577 E39.76544
G1 X146.917 Y42.302 E39.79334
G1 X147.777 Y41.869 E39.84138
G1 X147.981 Y41.778 E39.85252
G1 X148.267 Y41.655 E39.86805
G1 X148.55 Y41.539 E39.88331
G1 X149.456 Y41.217 E39.93128
G1 X149.993 Y41.054 E39.95928
G1 X150.916 Y40.82 E40.00679
G1 X151.112 Y40.78 E40.01677
G1 X151.419 Y40.722 E40.03235
G1 X151.738 Y40.667 E40.0485
G1 X152.654 Y40.552 E40.09456
G1 X153.214 Y40.507 E40.12259
G1 X154.341 Y40.479 E40.17883
G1 X154.834 Y40.494 E40.20344
G1 X155.645 Y40.551 E40.244
G1 X155.871 Y40.576 E40.25535
G1 X156.292 Y40.631 E40.27653
G1 X156.619 Y40.681 E40.29303
G1 X157.315 Y40.813 E40.32837
G1 X157.524 Y40.86 E40.33906
G1 X157.943 Y40.963 E40.36059
G1 X158.258 Y41.048 E40.37687
G1 X159.108 Y41.318 E40.42136
G1 X159.605 Y41.5 E40.44777
G1 X160.357 Y41.809 E40.48833
G1 X160.542 Y41.894 E40.49848
G1 X160.959 Y42.098 E40.52164
G1 X161.275 Y42.261 E40.53938
G1 X162.14 Y42.762 E40.58925
G1 X162.599 Y43.059 E40.61653
G1 X163.467 Y43.688 E40.67001
G1 X163.878 Y44.02 E40.69637
G1 X164.537 Y44.601 E40.7402
G1 X164.691 Y44.749 E40.75086
G1 X164.974 Y45.031 E40.77079
G1 X165.202 Y45.268 E40.78719
G1 X165.81 Y45.961 E40.83319
G1 X166.141 Y46.374 E40.85959
G1 X166.781 Y47.266 E40.91437
G1 X167.079 Y47.733 E40.942
G1 X167.557 Y48.567 E40.98996
G1 X167.658 Y48.764 E41.00101
G1 X167.809 Y49.072 E41.01812
G1 X167.946 Y49.363 E41.03417
G1 X168.299 Y50.21 E41.07995
G1 X168.483 Y50.714 E41.10671
G1 X168.808 Y51.779 E41.16227
G1 X168.935 Y52.296 E41.18883
G1 X169.093 Y53.068 E41.22814
G1 X169.127 Y53.274 E41.23856
G1 X169.194 Y53.747 E41.26239
G1 X169.234 Y54.088 E41.27952
G1 X169.299 Y54.992 E41.32474
G1 X169.314 Y55.53 E41.35159
G1 X169.294 Y56.509 E41.40044
G1 X169.277 Y56.758 E41.41289
G1 X169.25 Y57.085 E41.42926
G1 X169.223 Y57.353 E41.4427
G1 X169.134 Y58.015 E41.47602
G1 X169.096 Y58.242 E41.48751
G1 X169.016 Y58.664 E41.50894
G1 X168.947 Y58.991 E41.52561
G1 X168.718 Y59.878 E41.57131
G1 X168.559 Y60.396 E41.59835
G1 X168.212 Y61.353 E41.64913
G1 X168.107 Y61.603 E41.66266
G1 X167.985 Y61.883 E41.6779
G1 X167.877 Y62.12 E41.69089
G1 X167.464 Y62.929 E41.73621
G1 X167.193 Y63.406 E41.76358
G1 X166.732 Y64.141 E41.80686
G1 X166.618 Y64.307 E41.81691
G1 X166.373 Y64.649 E41.8379
G1 X166.14 Y64.96 E41.85729
G1 X165.975 Y65.174 E41.87077
G1 X165.588 Y65.663 E41.90188
G1 X165.508 Y65.763 E41.90827
G1 X147.045 Y88.496 E43.36936
G1 X79.748 Y171.356 E48.69492
G1 X78.144 Y173.332 E48.8219
G1 X78.051 Y173.445 E48.8292
G1 X77.511 Y174.091 E48.87121
G1 X77.194 Y174.452 E48.89518
G1 X76.898 Y174.774 E48.917
G1 X76.188 Y175.475 E48.96677
G1 X75.782 Y175.838 E48.99394
G1 X74.908 Y176.537 E49.04978
G1 X74.475 Y176.846 E49.07632
G1 X73.556 Y177.43 E49.13064
G1 X73.082 Y177.697 E49.15778
G1 X72.114 Y178.177 E49.21169
G1 X71.613 Y178.393 E49.23891
G1 X70.651 Y178.751 E49.29012
G1 X70.436 Y178.819 E49.30137
G1 X70.162 Y178.902 E49.31565
G1 X69.854 Y178.99 E49.33163
G1 X68.959 Y179.202 E49.37752
G1 X68.444 Y179.3 E49.40367
G1 X67.371 Y179.446 E49.4577
G1 X66.847 Y179.489 E49.48393
G1 X65.773 Y179.52 E49.53753
G1 X65.22 Y179.507 E49.56513
G1 X64.209 Y179.433 E49.6157
G1 X63.942 Y179.4 E49.62913
G1 X63.642 Y179.358 E49.64424
G1 X63.382 Y179.318 E49.65736
G1 X62.481 Y179.138 E49.7032
G1 X61.936 Y179.003 E49.73122
G1 X60.851 Y178.669 E49.78785
G1 X60.356 Y178.486 E49.81418
G1 X59.518 Y178.133 E49.85955
G1 X59.28 Y178.02 E49.87269
G1 X58.946 Y177.854 E49.8913
G1 X58.702 Y177.727 E49.90502
G1 X57.908 Y177.267 E49.9508
G1 X57.457 Y176.978 E49.97753
G1 X56.584 Y176.351 E50.03115
G1 X56.157 Y176.009 E50.05844
G1 X55.321 Y175.26 E50.11444
G1 X54.943 Y174.882 E50.14111
G1 X54.185 Y174.035 E50.19782
G1 X53.844 Y173.608 E50.22508
G1 X53.23 Y172.753 E50.2776
G1 X52.945 Y172.309 E50.30392
G1 X52.391 Y171.331 E50.36
G1 X52.144 Y170.833 E50.38773
G1 X51.776 Y170 E50.43317
G1 X51.697 Y169.797 E50.44403
G1 X51.562 Y169.428 E50.46364
G1 X51.457 Y169.124 E50.47968
G1 X51.199 Y168.255 E50.52491
G1 X51.069 Y167.732 E50.55179
G1 X50.857 Y166.613 E50.60861
G1 X50.784 Y166.063 E50.63629
G1 X50.698 Y164.975 E50.69074
G1 X50.685 Y164.454 E50.71675
G1 X50.712 Y163.416 E50.76855
G1 X50.752 Y162.897 E50.79452
G1 X50.869 Y161.955 E50.84188
G1 X50.915 Y161.687 E50.85544
